(Cigar Case 3mm Flat Mill Ops)
(3.175 mm flat end mill)
(Machine)
(  vendor: Makera)
(  model: Carvera 3-axis)
(  description: Makera Carvera 3-axis)
(T1  D=3.175 CR=0 - ZMIN=-9.599 - flat end mill)
G90 G94
G17
G21
(When using Fusion for Personal Use, the feedrate of rapid)
(moves is reduced to match the feedrate of cutting moves,)
(which can increase machining time. Unrestricted rapid moves)
(are available with a Fusion Subscription.)

(Bore2)
T1 M6
S10000 M3
G54
G0 X163.406 Y75.567
Z15
G1 Z2 F500
Z0.317
G18 G3 X163.089 Z0 I-0.318 K0
G1 X162.93
G17 G3 X162.613 Y75.25 I0 J-0.317
X167.588 Y75.25 Z-0.142 I2.488 J0
X162.613 Y75.25 Z-0.285 I-2.488 J0
X167.588 Y75.25 Z-0.427 I2.488 J0
X162.613 Y75.25 Z-0.569 I-2.488 J0
X167.588 Y75.25 Z-0.712 I2.488 J0
X162.613 Y75.25 Z-0.854 I-2.488 J0
X167.588 Y75.25 Z-0.996 I2.488 J0
X162.613 Y75.25 Z-1.138 I-2.488 J0
X167.588 Y75.25 Z-1.281 I2.488 J0
X162.613 Y75.25 Z-1.423 I-2.488 J0
X167.588 Y75.25 Z-1.565 I2.488 J0
X162.613 Y75.25 Z-1.708 I-2.488 J0
X167.588 Y75.25 Z-1.85 I2.488 J0
X162.613 Y75.25 Z-1.992 I-2.488 J0
X167.588 Y75.25 Z-2.135 I2.488 J0
X162.613 Y75.25 Z-2.277 I-2.488 J0
X167.588 Y75.25 Z-2.419 I2.488 J0
X162.613 Y75.25 Z-2.561 I-2.488 J0
X167.588 Y75.25 Z-2.704 I2.488 J0
X162.613 Y75.25 Z-2.846 I-2.488 J0
X167.588 Y75.25 Z-2.988 I2.488 J0
X162.613 Y75.25 Z-3.131 I-2.488 J0
X167.588 Y75.25 Z-3.273 I2.488 J0
X162.613 Y75.25 Z-3.415 I-2.488 J0
X167.588 Y75.25 Z-3.558 I2.488 J0
X162.613 Y75.25 Z-3.7 I-2.488 J0
X167.588 Y75.25 Z-3.842 I2.488 J0
X162.613 Y75.25 Z-3.984 I-2.488 J0
X167.588 Y75.25 Z-4.127 I2.488 J0
X162.613 Y75.25 Z-4.269 I-2.488 J0
X167.588 Y75.25 Z-4.411 I2.487 J0
X162.613 Y75.25 Z-4.554 I-2.487 J0
X167.588 Y75.25 Z-4.696 I2.487 J0
X162.613 Y75.25 Z-4.838 I-2.487 J0
X167.588 Y75.25 Z-4.981 I2.487 J0
X162.613 Y75.25 Z-5.123 I-2.487 J0
X167.588 Y75.25 Z-5.265 I2.487 J0
X162.613 Y75.25 Z-5.407 I-2.487 J0
X167.588 Y75.25 Z-5.55 I2.487 J0
X162.613 Y75.25 Z-5.692 I-2.487 J0
X167.588 Y75.25 Z-5.834 I2.487 J0
X162.613 Y75.25 Z-5.977 I-2.487 J0
X167.588 Y75.25 Z-6.119 I2.487 J0
X162.613 Y75.25 Z-6.261 I-2.487 J0
X167.588 Y75.25 Z-6.404 I2.487 J0
X162.613 Y75.25 Z-6.546 I-2.487 J0
X167.588 Y75.25 Z-6.688 I2.487 J0
X162.613 Y75.25 Z-6.831 I-2.487 J0
X167.588 Y75.25 Z-6.973 I2.487 J0
X162.613 Y75.25 Z-7.115 I-2.487 J0
X167.588 Y75.25 Z-7.257 I2.487 J0
X162.613 Y75.25 Z-7.4 I-2.487 J0
X167.588 Y75.25 Z-7.542 I2.487 J0
X162.613 Y75.25 Z-7.684 I-2.487 J0
X167.588 Y75.25 Z-7.827 I2.487 J0
X162.613 Y75.25 Z-7.969 I-2.487 J0
X167.588 Y75.25 Z-8.111 I2.487 J0
X162.613 Y75.25 Z-8.254 I-2.487 J0
X167.588 Y75.25 Z-8.396 I2.487 J0
X162.613 Y75.25 Z-8.538 I-2.487 J0
X167.588 Y75.25 Z-8.68 I2.487 J0
X162.613 Y75.25 Z-8.823 I-2.487 J0
X167.588 Y75.25 Z-8.965 I2.487 J0
X166.882 Y76.985 Z-9 I-2.487 J0
X163.318 Y73.515 I-1.782 J-1.735
X166.882 Y76.985 I1.782 J1.735
X166.433 Y76.991 I-0.228 J-0.221
G1 X166.32 Y76.88
X166.269 Y76.831 Z-8.992
X166.221 Y76.784 Z-8.969
X166.178 Y76.742 Z-8.931
X166.142 Y76.707 Z-8.88
X166.115 Y76.681 Z-8.82
X166.098 Y76.664 Z-8.753
X166.092 Y76.659 Z-8.682
Z5
X164.106 Y14.243
Z2
Z0.317
G18 G3 X163.789 Z0 I-0.317 K0
G1 X163.63
G17 G3 X163.313 Y13.925 I0 J-0.318
X166.888 Y13.925 Z-0.118 I1.788 J0
X163.313 Y13.925 Z-0.236 I-1.788 J0
X166.888 Y13.925 Z-0.354 I1.788 J0
X163.313 Y13.925 Z-0.471 I-1.788 J0
X166.888 Y13.925 Z-0.589 I1.788 J0
X163.313 Y13.925 Z-0.707 I-1.788 J0
X166.888 Y13.925 Z-0.825 I1.788 J0
X163.313 Y13.925 Z-0.943 I-1.788 J0
X166.888 Y13.925 Z-1.061 I1.788 J0
X163.313 Y13.925 Z-1.179 I-1.788 J0
X166.888 Y13.925 Z-1.296 I1.787 J0
X163.313 Y13.925 Z-1.414 I-1.787 J0
X166.888 Y13.925 Z-1.532 I1.787 J0
X163.313 Y13.925 Z-1.65 I-1.787 J0
X166.888 Y13.925 Z-1.768 I1.787 J0
X166.271 Y15.276 Z-1.8 I-1.787 J0
X163.929 Y12.574 I-1.171 J-1.351
X166.271 Y15.276 I1.171 J1.351
X165.823 Y15.244 I-0.208 J-0.24
G1 X165.719 Y15.124
X165.673 Y15.07 Z-1.792
X165.629 Y15.02 Z-1.769
X165.589 Y14.974 Z-1.731
X165.556 Y14.936 Z-1.68
X165.532 Y14.908 Z-1.62
X165.516 Y14.89 Z-1.553
X165.511 Y14.884 Z-1.482
Z5
X39.094 Y13.608
Z2
Z0.317
G18 G2 X39.411 Z0 I0.318 K0
G1 X39.57
G17 G3 X39.888 Y13.925 I0 J0.318
X36.312 Y13.925 Z-0.118 I-1.788 J0
X39.888 Y13.925 Z-0.236 I1.788 J0
X36.312 Y13.925 Z-0.354 I-1.788 J0
X39.887 Y13.925 Z-0.471 I1.788 J0
X36.312 Y13.925 Z-0.589 I-1.788 J0
X39.887 Y13.925 Z-0.707 I1.788 J0
X36.312 Y13.925 Z-0.825 I-1.788 J0
X39.887 Y13.925 Z-0.943 I1.788 J0
X36.312 Y13.925 Z-1.061 I-1.788 J0
X39.887 Y13.925 Z-1.179 I1.788 J0
X36.312 Y13.925 Z-1.296 I-1.787 J0
X39.887 Y13.925 Z-1.414 I1.787 J0
X36.312 Y13.925 Z-1.532 I-1.787 J0
X39.887 Y13.925 Z-1.65 I1.787 J0
X36.312 Y13.925 Z-1.768 I-1.787 J0
X36.929 Y12.574 Z-1.8 I1.787 J0
X39.271 Y15.276 I1.171 J1.351
X36.929 Y12.574 I-1.171 J-1.351
X37.377 Y12.606 I0.208 J0.24
G1 X37.481 Y12.726
X37.527 Y12.78 Z-1.792
X37.571 Y12.83 Z-1.769
X37.611 Y12.876 Z-1.731
X37.644 Y12.914 Z-1.68
X37.668 Y12.942 Z-1.62
X37.684 Y12.96 Z-1.553
X37.689 Y12.966 Z-1.482
Z5
X39.794 Y74.933
Z2
Z0.317
G18 G2 X40.111 Z0 I0.318 K0
G1 X40.27
G17 G3 X40.588 Y75.25 I0 J0.317
X35.612 Y75.25 Z-0.142 I-2.488 J0
X40.588 Y75.25 Z-0.285 I2.488 J0
X35.612 Y75.25 Z-0.427 I-2.488 J0
X40.588 Y75.25 Z-0.569 I2.488 J0
X35.612 Y75.25 Z-0.712 I-2.488 J0
X40.588 Y75.25 Z-0.854 I2.488 J0
X35.612 Y75.25 Z-0.996 I-2.488 J0
X40.588 Y75.25 Z-1.138 I2.488 J0
X35.612 Y75.25 Z-1.281 I-2.488 J0
X40.588 Y75.25 Z-1.423 I2.488 J0
X35.612 Y75.25 Z-1.565 I-2.488 J0
X40.588 Y75.25 Z-1.708 I2.488 J0
X35.612 Y75.25 Z-1.85 I-2.488 J0
X40.588 Y75.25 Z-1.992 I2.488 J0
X35.612 Y75.25 Z-2.135 I-2.488 J0
X40.587 Y75.25 Z-2.277 I2.488 J0
X35.612 Y75.25 Z-2.419 I-2.488 J0
X40.587 Y75.25 Z-2.561 I2.488 J0
X35.612 Y75.25 Z-2.704 I-2.488 J0
X40.587 Y75.25 Z-2.846 I2.488 J0
X35.612 Y75.25 Z-2.988 I-2.488 J0
X40.587 Y75.25 Z-3.131 I2.488 J0
X35.612 Y75.25 Z-3.273 I-2.488 J0
X40.587 Y75.25 Z-3.415 I2.488 J0
X35.612 Y75.25 Z-3.558 I-2.488 J0
X40.587 Y75.25 Z-3.7 I2.488 J0
X35.612 Y75.25 Z-3.842 I-2.488 J0
X40.587 Y75.25 Z-3.984 I2.488 J0
X35.612 Y75.25 Z-4.127 I-2.488 J0
X40.587 Y75.25 Z-4.269 I2.488 J0
X35.612 Y75.25 Z-4.411 I-2.487 J0
X40.587 Y75.25 Z-4.554 I2.487 J0
X35.612 Y75.25 Z-4.696 I-2.487 J0
X40.587 Y75.25 Z-4.838 I2.487 J0
X35.612 Y75.25 Z-4.981 I-2.487 J0
X40.587 Y75.25 Z-5.123 I2.487 J0
X35.612 Y75.25 Z-5.265 I-2.487 J0
X40.587 Y75.25 Z-5.407 I2.487 J0
X35.612 Y75.25 Z-5.55 I-2.487 J0
X40.587 Y75.25 Z-5.692 I2.487 J0
X35.612 Y75.25 Z-5.834 I-2.487 J0
X40.587 Y75.25 Z-5.977 I2.487 J0
X35.612 Y75.25 Z-6.119 I-2.487 J0
X40.587 Y75.25 Z-6.261 I2.487 J0
X35.613 Y75.25 Z-6.404 I-2.487 J0
X40.587 Y75.25 Z-6.546 I2.487 J0
X35.613 Y75.25 Z-6.688 I-2.487 J0
X40.587 Y75.25 Z-6.831 I2.487 J0
X35.613 Y75.25 Z-6.973 I-2.487 J0
X40.587 Y75.25 Z-7.115 I2.487 J0
X35.613 Y75.25 Z-7.257 I-2.487 J0
X40.587 Y75.25 Z-7.4 I2.487 J0
X35.613 Y75.25 Z-7.542 I-2.487 J0
X40.587 Y75.25 Z-7.684 I2.487 J0
X35.613 Y75.25 Z-7.827 I-2.487 J0
X40.587 Y75.25 Z-7.969 I2.487 J0
X35.613 Y75.25 Z-8.111 I-2.487 J0
X40.587 Y75.25 Z-8.254 I2.487 J0
X35.613 Y75.25 Z-8.396 I-2.487 J0
X40.587 Y75.25 Z-8.538 I2.487 J0
X35.613 Y75.25 Z-8.68 I-2.487 J0
X40.587 Y75.25 Z-8.823 I2.487 J0
X35.613 Y75.25 Z-8.965 I-2.487 J0
X36.318 Y73.515 Z-9 I2.487 J0
X39.882 Y76.985 I1.782 J1.735
X36.318 Y73.515 I-1.782 J-1.735
X36.767 Y73.509 I0.228 J0.221
G1 X36.88 Y73.62
X36.931 Y73.669 Z-8.992
X36.979 Y73.716 Z-8.969
X37.022 Y73.758 Z-8.931
X37.058 Y73.793 Z-8.88
X37.085 Y73.819 Z-8.82
X37.102 Y73.836 Z-8.753
X37.108 Y73.841 Z-8.682
Z15
(When using Fusion for Personal Use, the feedrate of rapid)
(moves is reduced to match the feedrate of cutting moves,)
(which can increase machining time. Unrestricted rapid moves)
(are available with a Fusion Subscription.)

(Adaptive1)
G0 X168.022 Y29.371
G1 Z15 F500
Z5
Z2
G3 X168.387 Y31.928 Z1.894 I-0.696 J1.404
X165.871 Y31.353 Z1.788 I-1.06 J-1.152
X167.309 Y29.213 Z1.682 I1.454 J-0.576
X168.789 Y31.321 Z1.576 I0.016 J1.562
X166.294 Y31.945 Z1.47 I-1.462 J-0.545
X166.606 Y29.395 Z1.364 I1.032 J-1.168
X168.871 Y30.599 Z1.258 I0.719 J1.38
X166.937 Y32.28 Z1.152 I-1.544 J0.176
X166.063 Y29.875 Z1.045 I0.389 J-1.503
X168.619 Y29.921 Z0.939 I1.262 J0.901
X167.66 Y32.288 Z0.833 I-1.292 J0.854
X165.797 Y30.546 Z0.727 I-0.333 J-1.511
X168.088 Y29.433 Z0.621 I1.528 J0.231
X168.305 Y31.968 Z0.515 I-0.763 J1.342
X165.864 Y31.262 Z0.409 I-0.978 J-1.192
X167.397 Y29.239 Z0.303 I1.461 J-0.485
X168.734 Y31.393 Z0.197 I-0.072 J1.536
X166.247 Y31.868 Z0.091 I-1.407 J-0.617
X166.695 Y29.379 Z-0.015 I1.079 J-1.09
X168.855 Y30.689 Z-0.121 I0.63 J1.397
X166.86 Y32.233 Z-0.227 I-1.528 J0.087
X166.135 Y29.82 Z-0.333 I0.466 J-1.456
X168.644 Y30.008 Z-0.439 I1.19 J0.956
X167.57 Y32.28 Z-0.545 I-1.318 J0.767
X165.836 Y30.464 Z-0.651 I-0.243 J-1.504
X168.15 Y29.499 Z-0.758 I1.489 J0.312
X168.221 Y32.002 Z-0.864 I-0.824 J1.276
X165.862 Y31.172 Z-0.97 I-0.894 J-1.226
X167.482 Y29.269 Z-1.076 I1.463 J-0.395
X168.675 Y31.461 Z-1.182 I-0.156 J1.506
X166.204 Y31.788 Z-1.288 I-1.348 J-0.685
X166.784 Y29.368 Z-1.394 I1.122 J-1.011
X168.833 Y30.775 Z-1.5 I0.541 J1.408
X165.817 Y30.775 I-1.508 J0
X168.833 Y30.775 I1.508 J0
G1 X168.85 Y31.417
X168.879 Y31.492
X168.913 Y31.638
X168.917 Y31.788
X168.895 Y31.937
X168.853 Y32.081
X168.793 Y32.218
X168.717 Y32.347
X168.627 Y32.468
X168.527 Y32.579
X168.416 Y32.68
X168.296 Y32.77
X168.169 Y32.85
X168.036 Y32.919
X167.894 Y32.978
X167.745 Y33.027
X167.588 Y33.064
X167.426 Y33.09
X167.259 Y33.102
X167.089 Y33.101
X166.917 Y33.087
X166.744 Y33.058
X166.572 Y33.014
X166.402 Y32.957
X166.236 Y32.885
X166.075 Y32.8
X165.92 Y32.701
X165.773 Y32.589
X165.634 Y32.466
X165.505 Y32.33
X165.386 Y32.184
X165.279 Y32.029
X165.185 Y31.865
X165.104 Y31.693
X165.037 Y31.515
X164.984 Y31.331
X164.947 Y31.144
X164.924 Y30.953
X164.916 Y30.762
X164.924 Y30.57
X164.948 Y30.379
X164.986 Y30.19
X165.04 Y30.005
X165.108 Y29.825
X165.191 Y29.65
X165.288 Y29.483
X165.398 Y29.324
X165.52 Y29.174
X165.654 Y29.034
X165.798 Y28.906
X165.953 Y28.789
X166.117 Y28.686
X166.288 Y28.595
X166.466 Y28.519
X166.65 Y28.457
X166.838 Y28.411
X167.029 Y28.379
X167.222 Y28.363
X167.416 Y28.362
X167.609 Y28.378
X167.801 Y28.408
X167.989 Y28.454
X168.173 Y28.514
X168.352 Y28.59
X168.524 Y28.679
X168.688 Y28.782
X168.844 Y28.898
X168.99 Y29.026
X169.125 Y29.165
X169.248 Y29.315
X169.359 Y29.474
X169.464 Y29.653
X169.603 Y29.941
X169.757 Y30.341
X169.845 Y30.638
X169.9 Y30.9
X169.932 Y31.144
X169.942 Y31.372
X169.935 Y31.589
X169.911 Y31.798
X169.871 Y32.004
X169.814 Y32.205
X169.742 Y32.4
X169.654 Y32.589
X169.551 Y32.771
X169.434 Y32.945
X169.301 Y33.11
X169.154 Y33.266
X168.992 Y33.412
X168.818 Y33.546
X168.63 Y33.667
X168.43 Y33.774
X168.219 Y33.867
X167.998 Y33.943
X167.769 Y34.002
X167.533 Y34.043
X167.291 Y34.065
X167.046 Y34.068
X166.798 Y34.051
X166.55 Y34.013
X166.304 Y33.956
X166.062 Y33.878
X165.824 Y33.78
X165.594 Y33.663
X165.373 Y33.527
X165.162 Y33.372
X164.962 Y33.201
X164.777 Y33.012
X164.606 Y32.809
X164.452 Y32.592
X164.315 Y32.362
X164.196 Y32.121
X164.097 Y31.871
X164.019 Y31.613
X163.961 Y31.348
X163.924 Y31.08
X163.909 Y30.808
X163.916 Y30.536
X163.944 Y30.265
X163.995 Y29.997
X164.067 Y29.734
X164.159 Y29.477
X164.273 Y29.227
X164.406 Y28.988
X164.557 Y28.76
X164.727 Y28.545
X164.914 Y28.344
X165.116 Y28.158
X165.333 Y27.989
X165.562 Y27.838
X165.803 Y27.706
X166.054 Y27.594
X166.313 Y27.502
X166.579 Y27.431
X166.849 Y27.382
X167.123 Y27.355
X167.398 Y27.349
X167.672 Y27.366
X167.945 Y27.405
X168.213 Y27.466
X168.476 Y27.547
X168.731 Y27.65
X168.977 Y27.773
X169.213 Y27.915
X169.437 Y28.076
X169.648 Y28.256
X169.862 Y28.469
X170.081 Y28.725
X170.284 Y29.006
X170.469 Y29.311
X170.629 Y29.63
X170.76 Y29.953
X170.862 Y30.276
X170.935 Y30.596
X170.98 Y30.912
X171 Y31.226
X170.995 Y31.536
X170.966 Y31.841
X170.912 Y32.14
X170.835 Y32.432
X170.735 Y32.715
X170.613 Y32.989
X170.47 Y33.253
X170.305 Y33.504
X170.121 Y33.743
X169.916 Y33.967
X169.693 Y34.175
X169.452 Y34.366
X169.194 Y34.539
X168.921 Y34.691
X168.634 Y34.823
X168.335 Y34.932
X168.025 Y35.017
X167.707 Y35.077
X167.382 Y35.113
X167.054 Y35.122
X166.723 Y35.104
X166.392 Y35.06
X166.064 Y34.989
X165.741 Y34.891
X165.425 Y34.767
X165.118 Y34.617
X164.822 Y34.441
X164.54 Y34.242
X164.273 Y34.02
X164.025 Y33.776
X163.795 Y33.511
X163.587 Y33.228
X163.402 Y32.929
X163.241 Y32.614
X163.105 Y32.287
X162.996 Y31.949
X162.914 Y31.602
X162.86 Y31.25
X162.834 Y30.893
X162.837 Y30.535
X162.869 Y30.178
X162.929 Y29.824
X163.018 Y29.476
X163.135 Y29.136
X163.278 Y28.806
X163.448 Y28.488
X163.643 Y28.185
X163.861 Y27.898
X164.102 Y27.63
X164.364 Y27.382
X164.645 Y27.155
X164.944 Y26.952
X165.258 Y26.773
X165.585 Y26.62
X165.924 Y26.493
X166.271 Y26.395
X166.626 Y26.324
X166.985 Y26.282
X167.347 Y26.269
X167.708 Y26.285
X168.067 Y26.33
X168.421 Y26.404
X168.768 Y26.506
X169.106 Y26.636
X169.433 Y26.792
X169.752 Y26.978
X170.066 Y27.196
X170.371 Y27.446
X170.664 Y27.729
X170.94 Y28.041
X171.192 Y28.378
X171.418 Y28.736
X171.613 Y29.11
X171.776 Y29.495
X171.907 Y29.889
X172.005 Y30.288
X172.07 Y30.69
X172.103 Y31.093
Y31.493
X172.071 Y31.89
X172.007 Y32.28
X171.913 Y32.662
X171.789 Y33.034
X171.636 Y33.395
X171.454 Y33.742
X171.245 Y34.073
X171.009 Y34.388
X170.748 Y34.683
X170.463 Y34.958
X170.156 Y35.21
X169.827 Y35.438
X169.479 Y35.64
X169.114 Y35.815
X168.734 Y35.96
X168.34 Y36.075
X167.937 Y36.159
X167.525 Y36.21
X167.109 Y36.229
X166.69 Y36.214
X166.271 Y36.164
X165.855 Y36.081
X165.445 Y35.965
X165.044 Y35.815
X164.654 Y35.632
X164.279 Y35.418
X163.92 Y35.173
X163.581 Y34.9
X163.264 Y34.598
X162.971 Y34.272
X162.704 Y33.922
X162.466 Y33.55
X162.258 Y33.16
X162.081 Y32.753
X161.937 Y32.332
X161.828 Y31.9
X161.753 Y31.46
X161.713 Y31.015
X161.71 Y30.568
X161.742 Y30.121
X161.811 Y29.677
X161.914 Y29.24
X162.053 Y28.812
X162.226 Y28.397
X162.431 Y27.996
X162.668 Y27.613
X162.936 Y27.25
X163.232 Y26.91
X163.554 Y26.594
X163.901 Y26.305
X164.27 Y26.044
X164.658 Y25.814
X165.064 Y25.616
X165.485 Y25.451
X165.918 Y25.321
X166.36 Y25.225
X166.808 Y25.166
X167.259 Y25.142
X167.712 Y25.155
X168.161 Y25.204
X168.606 Y25.289
X169.043 Y25.409
X169.472 Y25.566
X169.892 Y25.758
X170.301 Y25.987
X170.697 Y26.252
X171.077 Y26.554
X171.439 Y26.892
X171.776 Y27.262
X172.085 Y27.661
X172.363 Y28.086
X172.605 Y28.531
X172.81 Y28.993
X172.977 Y29.468
X173.104 Y29.953
X173.192 Y30.443
X173.239 Y30.936
X173.247 Y31.429
X173.216 Y31.919
X173.145 Y32.402
X173.037 Y32.877
X172.891 Y33.34
X172.709 Y33.789
X172.491 Y34.222
X172.239 Y34.637
X171.954 Y35.03
X171.638 Y35.401
X171.292 Y35.745
X170.918 Y36.062
X170.518 Y36.349
X170.095 Y36.604
X169.65 Y36.826
X169.188 Y37.011
X168.709 Y37.16
X168.218 Y37.271
X167.717 Y37.342
X167.209 Y37.372
X166.698 Y37.362
X166.188 Y37.311
X165.68 Y37.218
X165.18 Y37.085
X164.69 Y36.911
X164.214 Y36.697
X163.755 Y36.445
X163.316 Y36.156
X162.9 Y35.831
X162.511 Y35.474
X162.15 Y35.084
X161.821 Y34.667
X161.526 Y34.222
X161.266 Y33.755
X161.045 Y33.267
X160.863 Y32.762
X160.722 Y32.244
X160.623 Y31.714
X160.567 Y31.178
X160.554 Y30.638
X160.584 Y30.099
X160.657 Y29.563
X160.774 Y29.034
X160.933 Y28.515
X161.132 Y28.011
X161.372 Y27.524
X161.651 Y27.058
X161.966 Y26.615
X162.315 Y26.199
X162.698 Y25.812
X163.11 Y25.456
X163.549 Y25.135
X164.013 Y24.85
X164.498 Y24.604
X165.002 Y24.397
X165.521 Y24.23
X166.052 Y24.107
X166.591 Y24.026
X167.134 Y23.988
X167.679 Y23.995
X168.223 Y24.045
X168.761 Y24.139
X169.293 Y24.276
X169.816 Y24.457
X170.327 Y24.681
X170.825 Y24.949
X171.305 Y25.26
X171.765 Y25.612
X172.199 Y26.005
X172.604 Y26.434
X172.974 Y26.897
X173.308 Y27.39
X173.601 Y27.909
X173.852 Y28.449
X174.058 Y29.007
X174.218 Y29.578
X174.332 Y30.158
X174.398 Y30.743
X174.417 Y31.33
X174.39 Y31.914
X174.315 Y32.493
X174.195 Y33.062
X174.029 Y33.618
X173.82 Y34.159
X173.568 Y34.682
X173.275 Y35.182
X172.942 Y35.658
X172.572 Y36.107
X172.165 Y36.525
X171.726 Y36.91
X171.255 Y37.26
X170.757 Y37.572
X170.232 Y37.844
X169.686 Y38.073
X169.121 Y38.259
X168.541 Y38.4
X167.948 Y38.494
X167.348 Y38.54
X166.743 Y38.538
X166.139 Y38.487
X165.538 Y38.388
X164.945 Y38.24
X164.363 Y38.044
X163.797 Y37.801
X163.251 Y37.513
X162.728 Y37.181
X162.232 Y36.807
X161.767 Y36.393
X161.335 Y35.942
X160.94 Y35.457
X160.584 Y34.94
X160.27 Y34.396
X160 Y33.826
X159.777 Y33.237
X159.601 Y32.63
X159.474 Y32.01
X159.398 Y31.381
X159.372 Y30.747
X159.397 Y30.112
X159.473 Y29.481
X159.6 Y28.858
X159.776 Y28.246
X160.001 Y27.65
X160.273 Y27.074
X160.591 Y26.521
X160.952 Y25.994
X161.355 Y25.499
X161.796 Y25.037
X162.273 Y24.612
X162.783 Y24.227
X163.322 Y23.883
X163.887 Y23.584
X164.475 Y23.331
X165.081 Y23.126
X165.701 Y22.971
X166.332 Y22.865
X166.97 Y22.811
X167.611 Y22.808
X168.251 Y22.856
X168.885 Y22.956
X169.51 Y23.106
X170.12 Y23.306
X170.713 Y23.552
X171.285 Y23.845
X171.832 Y24.181
X172.351 Y24.559
X172.84 Y24.975
X173.295 Y25.428
X173.715 Y25.914
X174.098 Y26.43
X174.441 Y26.973
X174.742 Y27.54
X175.001 Y28.128
X175.215 Y28.733
X175.383 Y29.353
X175.449 Y29.695
X175.457 Y29.742
X175.461 Y29.789
X175.462 Y29.836
Y31.764
X175.43 Y32.405
X175.376 Y32.903
X175.271 Y33.447
X175.113 Y34.017
X174.902 Y34.597
X174.636 Y35.174
X174.322 Y35.734
X173.965 Y36.267
X173.566 Y36.771
X173.13 Y37.243
X172.659 Y37.679
X172.156 Y38.078
X171.623 Y38.437
X171.137 Y38.714
X171.021 Y38.768
X170.897 Y38.801
X170.77 Y38.812
G3 X170.452 Y38.494 Z-1.3 I0 J-0.317
G1 X170.457 Y38.439
X170.471 Y38.386
X170.494 Y38.336
X170.536 Y38.264
X174.693 Y31.015
G3 X175.241 Y31.01 I0.275 J0.158
X175.368 Y31.277 I-1.36 J0.809
X175.462 Y31.764 Z-1.5 I-1.487 J0.542
G1 Y34.826
X175.446 Y35.157
X175.416 Y35.389
X175.356 Y35.665
X175.271 Y35.95
X175.134 Y36.301
X174.962 Y36.656
X174.721 Y37.065
X174.406 Y37.514
X174.038 Y37.957
X173.599 Y38.407
X173.345 Y38.629
X173.199 Y38.729
X173.033 Y38.791
X172.858 Y38.812
G3 X172.551 Y38.483 Z-1.3 I0.011 J-0.317
G1 X172.558 Y38.429
X172.574 Y38.376
X172.599 Y38.327
X172.643 Y38.257
X174.876 Y34.669
G3 X175.134 Y34.52 I0.27 J0.168
X175.462 Y34.826 Z-1.5 I0.011 J0.317
G1 Y36.867
X175.455 Y37.017
X175.432 Y37.195
X175.386 Y37.41
X175.32 Y37.628
X175.22 Y37.885
X175.082 Y38.169
X174.911 Y38.46
X174.885 Y38.497
X174.766 Y38.628
X174.62 Y38.728
X174.454 Y38.79
X174.279 Y38.812
G3 X173.972 Y38.483 Z-1.3 I0.011 J-0.317
G1 X173.978 Y38.436
X173.99 Y38.39
X174.009 Y38.346
X174.058 Y38.253
X174.865 Y36.73
G3 X175.134 Y36.561 I0.281 J0.149
X175.462 Y36.867 Z-1.5 I0.011 J0.317
G1 Y38.326
Y38.37
Y38.4
X175.455 Y38.55
X175.441 Y38.595
X175.433 Y38.616
G3 X174.988 Y38.503 I-0.213 J-0.092
G1 X174.991 Y38.471
X174.998 Y38.388
G3 X175.462 Y38.4 I0.232 J0.021
G1 Y38.471
Y38.508
X175.457 Y38.544
X175.447 Y38.581
X175.433 Y38.617
X175.419 Y38.644
X175.401 Y38.671
X175.378 Y38.699
X175.35 Y38.726
X175.299 Y38.763
X175.252 Y38.788
X175.204 Y38.803
X175.168 Y38.809
X175.131 Y38.812
X164.408
X164.076 Y38.795
X163.82 Y38.761
X163.508 Y38.695
X163.176 Y38.595
X162.781 Y38.441
X162.39 Y38.252
X161.947 Y37.991
X161.477 Y37.661
X161.006 Y37.27
X160.558 Y36.833
X160.136 Y36.349
X159.753 Y35.833
X159.409 Y35.291
X159.106 Y34.725
X158.844 Y34.139
X158.624 Y33.535
X158.447 Y32.918
X158.313 Y32.29
X158.225 Y31.654
X158.184 Y31.013
X158.188 Y30.371
X158.238 Y29.73
X158.332 Y29.095
X158.471 Y28.468
X158.652 Y27.852
X158.876 Y27.25
X159.142 Y26.666
X159.449 Y26.102
X159.796 Y25.561
X160.18 Y25.047
X160.599 Y24.56
X161.051 Y24.104
X161.533 Y23.679
X162.043 Y23.289
X162.579 Y22.936
X162.765 Y22.832
X162.88 Y22.781
X163.001 Y22.749
X163.127 Y22.738
X170.536
X170.768 Y22.75
X171.027 Y22.784
X171.306 Y22.844
X171.63 Y22.941
X171.986 Y23.079
X172.401 Y23.281
X172.815 Y23.524
X173.276 Y23.848
X173.759 Y24.249
X174.219 Y24.698
X174.644 Y25.18
X175.033 Y25.69
X175.34 Y26.156
X175.407 Y26.283
X175.449 Y26.42
X175.462 Y26.563
G3 X175.134 Y26.87 Z-1.3 I-0.317 J-0.011
G1 X175.07 Y26.861
X175.009 Y26.839
X174.953 Y26.805
X174.911 Y26.773
X170.354 Y23.308
G3 X170.229 Y23.067 I0.192 J-0.253
X170.536 Y22.738 Z-1.5 I0.317 J-0.011
G1 X172.578
X172.728 Y22.746
X172.909 Y22.771
X173.128 Y22.82
X173.367 Y22.893
X173.63 Y22.998
X173.937 Y23.15
X174.259 Y23.342
X174.622 Y23.602
X175.028 Y23.944
X175.243 Y24.157
X175.362 Y24.311
X175.437 Y24.49
X175.462 Y24.683
G3 X175.134 Y24.989 Z-1.3 I-0.317 J-0.011
G1 X175.079 Y24.982
X175.025 Y24.966
X174.976 Y24.94
X174.908 Y24.897
X172.419 Y23.324
G3 X172.272 Y23.067 I0.17 J-0.268
X172.578 Y22.738 Z-1.5 I0.317 J-0.011
G1 X174.183
X174.354 Y22.747
X174.525 Y22.769
X174.698 Y22.806
X174.892 Y22.864
X174.991 Y22.903
X175.182 Y23.013
X175.333 Y23.175
X175.429 Y23.374
X175.462 Y23.593
G3 X175.134 Y23.899 Z-1.3 I-0.317 J-0.011
G1 X175.085 Y23.894
X175.037 Y23.881
X174.991 Y23.86
X174.905 Y23.812
X174.04 Y23.333
G3 X173.877 Y23.067 I0.154 J-0.278
X174.183 Y22.738 Z-1.5 I0.317 J-0.011
G1 X175.131
X175.168 Y22.741
X175.204 Y22.747
X175.241 Y22.758
X175.277 Y22.774
X175.314 Y22.796
X175.35 Y22.826
X175.39 Y22.869
X175.416 Y22.905
X175.435 Y22.942
X175.449 Y22.978
X175.458 Y23.015
X175.462 Y23.051
Y23.16
Y29.836
G3 X175.345 Y30.072 Z-1.391 I-0.317 J-0.011
G1 X175.168 Y30.214 Z-1.3
X174.975 Y30.37
X165.018 Y38.401
X164.825 Y38.557
X164.596 Y38.741 Z-1.418
X164.539 Y38.778 Z-1.445
X164.475 Y38.802 Z-1.473
X164.408 Y38.812 Z-1.5
X162.219
X162.07 Y38.804
X161.887 Y38.778
X161.666 Y38.729
X161.419 Y38.652
X161.155 Y38.546
X160.843 Y38.39
X160.525 Y38.199
X160.165 Y37.94
X159.771 Y37.606
X159.388 Y37.225
X158.986 Y36.755
X158.61 Y36.234
X158.273 Y35.687
X157.975 Y35.119
X157.715 Y34.531
X157.493 Y33.929
X157.309 Y33.313
X157.166 Y32.688
X157.064 Y32.054
X157.002 Y31.414
X156.982 Y30.772
X157.001 Y30.13
X157.059 Y29.491
X157.157 Y28.856
X157.293 Y28.229
X157.467 Y27.61
X157.68 Y27.005
X157.931 Y26.414
X158.22 Y25.84
X158.543 Y25.285
X158.901 Y24.752
X159.29 Y24.241
X159.709 Y23.755
X160.158 Y23.295
X160.559 Y22.93
X160.708 Y22.826
X160.877 Y22.761
X161.057 Y22.738
X163.127
G3 X163.303 Y23.312 I-0.011 J0.317
G1 X163.246 Y23.353 Z-1.492
X163.192 Y23.393 Z-1.469
X163.144 Y23.429 Z-1.431
X163.103 Y23.459 Z-1.38
X163.073 Y23.481 Z-1.32
X163.054 Y23.495 Z-1.253
X163.047 Y23.499 Z-1.182
Z5
X163.246 Y38.428
Z-0.865
Z-1.182
X163.239 Y38.432 Z-1.253
X163.219 Y38.444 Z-1.32
X163.186 Y38.463 Z-1.38
X163.143 Y38.489 Z-1.431
X163.091 Y38.52 Z-1.469
X163.034 Y38.554 Z-1.492
X162.973 Y38.59 Z-1.5
G3 X162.219 Y38.812 I-0.809 J-1.36
G1 X160.615
X160.444 Y38.803
X160.274 Y38.781
X160.102 Y38.744
X159.897 Y38.683
X159.673 Y38.595
X159.432 Y38.479
X159.151 Y38.313
X158.868 Y38.114
X158.543 Y37.844
X158.199 Y37.508
X157.85 Y37.108
X157.479 Y36.608
X157.14 Y36.063
X156.841 Y35.495
X156.58 Y34.908
X156.355 Y34.306
X156.166 Y33.693
X156.014 Y33.069
X155.9 Y32.437
X155.823 Y31.799
X155.783 Y31.158
X155.778 Y30.516
X155.81 Y29.875
X155.876 Y29.236
X155.977 Y28.602
X156.112 Y27.974
X156.281 Y27.354
X156.486 Y26.746
X156.726 Y26.15
X156.999 Y25.569
X157.305 Y25.004
X157.641 Y24.457
X158.007 Y23.929
X158.401 Y23.422
X158.772 Y22.994
X158.931 Y22.856
X159.123 Y22.768
X159.331 Y22.738
X161.057
G3 X161.234 Y23.312 I-0.011 J0.317
G1 X161.177 Y23.353 Z-1.492
X161.123 Y23.393 Z-1.469
X161.074 Y23.429 Z-1.431
X161.034 Y23.459 Z-1.38
X161.003 Y23.481 Z-1.32
X160.984 Y23.495 Z-1.253
X160.978 Y23.499 Z-1.182
Z5
X161.641 Y38.428
Z-0.865
Z-1.182
X161.634 Y38.432 Z-1.253
X161.614 Y38.444 Z-1.32
X161.582 Y38.463 Z-1.38
X161.538 Y38.489 Z-1.431
X161.487 Y38.52 Z-1.469
X161.429 Y38.554 Z-1.492
X161.368 Y38.59 Z-1.5
G3 X160.615 Y38.812 I-0.809 J-1.36
G1 X159.156
X158.949 Y38.801
X158.801 Y38.782
X158.627 Y38.744
X158.453 Y38.692
X158.247 Y38.612
X158.025 Y38.504
X157.787 Y38.363
X157.513 Y38.17
X157.237 Y37.94
X156.928 Y37.638
X156.593 Y37.254
X156.264 Y36.807
X155.925 Y36.261
X155.63 Y35.69
X155.374 Y35.101
X155.155 Y34.498
X154.972 Y33.882
X154.822 Y33.258
X154.707 Y32.626
X154.626 Y31.989
X154.577 Y31.349
X154.562 Y30.707
X154.581 Y30.065
X154.631 Y29.424
X154.714 Y28.788
X154.828 Y28.156
X154.973 Y27.53
X155.15 Y26.913
X155.358 Y26.305
X155.597 Y25.709
X155.865 Y25.125
X156.163 Y24.556
X156.489 Y24.004
X156.844 Y23.468
X157.158 Y23.04
X157.322 Y22.878
X157.527 Y22.774
X157.755 Y22.738
X159.331
G3 X159.508 Y23.312 I-0.011 J0.317
G1 X159.451 Y23.353 Z-1.492
X159.397 Y23.393 Z-1.469
X159.348 Y23.429 Z-1.431
X159.308 Y23.459 Z-1.38
X159.277 Y23.481 Z-1.32
X159.259 Y23.495 Z-1.253
X159.252 Y23.499 Z-1.182
Z5
X160.182 Y38.428
Z-0.865
Z-1.182
X160.175 Y38.432 Z-1.253
X160.155 Y38.444 Z-1.32
X160.123 Y38.463 Z-1.38
X160.079 Y38.489 Z-1.431
X160.028 Y38.52 Z-1.469
X159.97 Y38.554 Z-1.492
X159.909 Y38.59 Z-1.5
G3 X159.156 Y38.812 I-0.809 J-1.36
G1 X157.697
X157.547 Y38.804
X157.398 Y38.784
X157.246 Y38.752
X157.074 Y38.7
X156.874 Y38.621
X156.675 Y38.524
X156.437 Y38.383
X156.201 Y38.216
X155.925 Y37.986
X155.651 Y37.717
X155.34 Y37.359
X155.026 Y36.933
X154.705 Y36.414
X154.412 Y35.843
X154.16 Y35.252
X153.946 Y34.646
X153.766 Y34.03
X153.62 Y33.405
X153.505 Y32.773
X153.421 Y32.136
X153.369 Y31.496
X153.346 Y30.854
X153.355 Y30.212
X153.394 Y29.571
X153.462 Y28.933
X153.56 Y28.298
X153.687 Y27.668
X153.843 Y27.045
X154.027 Y26.43
X154.239 Y25.824
X154.479 Y25.228
X154.745 Y24.644
X155.039 Y24.073
X155.358 Y23.516
X155.647 Y23.065
X155.673 Y23.031
X155.836 Y22.874
X156.039 Y22.773
X156.263 Y22.738
X157.755
G3 X157.932 Y23.312 I-0.011 J0.317
G1 X157.875 Y23.353 Z-1.492
X157.82 Y23.393 Z-1.469
X157.772 Y23.429 Z-1.431
X157.731 Y23.459 Z-1.38
X157.701 Y23.481 Z-1.32
X157.682 Y23.495 Z-1.253
X157.676 Y23.499 Z-1.182
Z5
X158.723 Y38.428
Z-0.865
Z-1.182
X158.716 Y38.432 Z-1.253
X158.696 Y38.444 Z-1.32
X158.664 Y38.463 Z-1.38
X158.62 Y38.489 Z-1.431
X158.569 Y38.52 Z-1.469
X158.511 Y38.554 Z-1.492
X158.45 Y38.59 Z-1.5
G3 X157.697 Y38.812 I-0.809 J-1.36
G1 X156.303
X156.154 Y38.804
X156.005 Y38.781
X155.853 Y38.744
X155.672 Y38.684
X155.491 Y38.607
X155.281 Y38.498
X155.059 Y38.358
X154.819 Y38.179
X154.557 Y37.948
X154.283 Y37.665
X153.997 Y37.317
X153.689 Y36.874
X153.375 Y36.336
X153.097 Y35.757
X152.861 Y35.159
X152.662 Y34.549
X152.497 Y33.928
X152.364 Y33.3
X152.261 Y32.666
X152.188 Y32.028
X152.143 Y31.387
X152.127 Y30.745
X152.139 Y30.103
X152.179 Y29.462
X152.246 Y28.824
X152.339 Y28.188
X152.46 Y27.557
X152.607 Y26.932
X152.781 Y26.314
X152.982 Y25.704
X153.208 Y25.103
X153.459 Y24.512
X153.735 Y23.932
X154.035 Y23.365
X154.206 Y23.089
X154.324 Y22.943
X154.475 Y22.832
X154.65 Y22.762
X154.836 Y22.738
X156.263
G3 X156.439 Y23.312 I-0.011 J0.317
G1 X156.382 Y23.353 Z-1.492
X156.328 Y23.393 Z-1.469
X156.28 Y23.429 Z-1.431
X156.239 Y23.459 Z-1.38
X156.209 Y23.481 Z-1.32
X156.19 Y23.495 Z-1.253
X156.183 Y23.499 Z-1.182
Z5
X157.33 Y38.428
Z-0.865
Z-1.182
X157.323 Y38.432 Z-1.253
X157.303 Y38.444 Z-1.32
X157.27 Y38.463 Z-1.38
X157.227 Y38.489 Z-1.431
X157.175 Y38.52 Z-1.469
X157.118 Y38.554 Z-1.492
X157.057 Y38.59 Z-1.5
G3 X156.303 Y38.812 I-0.809 J-1.36
G1 X154.99
X154.841 Y38.804
X154.692 Y38.782
X154.546 Y38.747
X154.378 Y38.692
X154.195 Y38.616
X154.002 Y38.516
X153.777 Y38.376
X153.557 Y38.214
X153.294 Y37.984
X153.044 Y37.729
X152.756 Y37.383
X152.467 Y36.971
X152.174 Y36.473
X151.893 Y35.896
X151.656 Y35.299
X151.457 Y34.688
X151.292 Y34.068
X151.158 Y33.439
X151.054 Y32.806
X150.977 Y32.168
X150.928 Y31.528
X150.905 Y30.886
X150.909 Y30.244
X150.939 Y29.602
X150.995 Y28.963
X151.077 Y28.326
X151.183 Y27.692
X151.315 Y27.064
X151.471 Y26.441
X151.651 Y25.825
X151.856 Y25.216
X152.084 Y24.616
X152.335 Y24.025
X152.61 Y23.444
X152.796 Y23.115
X152.831 Y23.064
X152.949 Y22.928
X153.097 Y22.825
X153.265 Y22.76
X153.444 Y22.738
X154.836
G3 X155.012 Y23.312 I-0.011 J0.317
G1 X154.956 Y23.353 Z-1.492
X154.901 Y23.393 Z-1.469
X154.853 Y23.429 Z-1.431
X154.812 Y23.459 Z-1.38
X154.782 Y23.481 Z-1.32
X154.763 Y23.495 Z-1.253
X154.757 Y23.499 Z-1.182
Z5
X156.017 Y38.428
Z-0.865
Z-1.182
X156.01 Y38.432 Z-1.253
X155.99 Y38.444 Z-1.32
X155.957 Y38.463 Z-1.38
X155.914 Y38.489 Z-1.431
X155.862 Y38.52 Z-1.469
X155.805 Y38.554 Z-1.492
X155.744 Y38.59 Z-1.5
G3 X154.99 Y38.812 I-0.809 J-1.36
G1 X153.677
X153.527 Y38.804
X153.379 Y38.78
X153.232 Y38.743
X153.058 Y38.684
X152.885 Y38.61
X152.684 Y38.503
X152.474 Y38.369
X152.246 Y38.196
X152.001 Y37.977
X151.743 Y37.706
X151.475 Y37.375
X151.185 Y36.952
X150.895 Y36.445
X150.622 Y35.864
X150.393 Y35.264
X150.202 Y34.651
X150.045 Y34.028
X149.918 Y33.399
X149.819 Y32.764
X149.747 Y32.126
X149.701 Y31.485
X149.681 Y30.844
X149.685 Y30.201
X149.713 Y29.56
X149.766 Y28.92
X149.842 Y28.282
X149.942 Y27.648
X150.066 Y27.018
X150.213 Y26.392
X150.383 Y25.773
X150.575 Y25.16
X150.79 Y24.555
X151.026 Y23.958
X151.266 Y23.421
X151.436 Y23.111
X151.462 Y23.072
X151.58 Y22.933
X151.729 Y22.827
X151.9 Y22.761
X152.081 Y22.738
X153.444
G3 X153.621 Y23.312 I-0.011 J0.317
G1 X153.564 Y23.353 Z-1.492
X153.51 Y23.393 Z-1.469
X153.461 Y23.429 Z-1.431
X153.421 Y23.459 Z-1.38
X153.39 Y23.481 Z-1.32
X153.371 Y23.495 Z-1.253
X153.365 Y23.499 Z-1.182
Z5
X154.704 Y38.428
Z-0.865
Z-1.182
X154.697 Y38.432 Z-1.253
X154.677 Y38.444 Z-1.32
X154.644 Y38.463 Z-1.38
X154.601 Y38.489 Z-1.431
X154.549 Y38.52 Z-1.469
X154.492 Y38.554 Z-1.492
X154.431 Y38.59 Z-1.5
G3 X153.677 Y38.812 I-0.809 J-1.36
G1 X152.445
X152.287 Y38.804
X152.139 Y38.784
X151.992 Y38.752
X151.83 Y38.7
X151.658 Y38.63
X151.473 Y38.537
X151.26 Y38.408
X151.051 Y38.256
X150.803 Y38.044
X150.567 Y37.807
X150.294 Y37.485
X150.028 Y37.114
X149.75 Y36.653
X149.464 Y36.078
X149.225 Y35.482
X149.025 Y34.871
X148.86 Y34.251
X148.726 Y33.623
X148.621 Y32.989
X148.541 Y32.352
X148.487 Y31.712
X148.457 Y31.07
X148.452 Y30.428
X148.47 Y29.786
X148.51 Y29.146
X148.574 Y28.506
X148.659 Y27.87
X148.767 Y27.237
X148.897 Y26.608
X149.048 Y25.984
X149.221 Y25.365
X149.414 Y24.753
X149.629 Y24.148
X149.868 Y23.552
X150.039 Y23.207
X150.105 Y23.098
X150.223 Y22.949
X150.375 Y22.834
X150.551 Y22.763
X150.74 Y22.738
X152.081
G3 X152.258 Y23.312 I-0.011 J0.317
G1 X152.201 Y23.353 Z-1.492
X152.147 Y23.393 Z-1.469
X152.098 Y23.429 Z-1.431
X152.058 Y23.459 Z-1.38
X152.027 Y23.481 Z-1.32
X152.008 Y23.495 Z-1.253
X152.002 Y23.499 Z-1.182
Z5
X153.471 Y38.428
Z-0.865
Z-1.182
X153.464 Y38.432 Z-1.253
X153.444 Y38.444 Z-1.32
X153.411 Y38.463 Z-1.38
X153.368 Y38.489 Z-1.431
X153.316 Y38.52 Z-1.469
X153.259 Y38.554 Z-1.492
X153.198 Y38.59 Z-1.5
G3 X152.445 Y38.812 I-0.809 J-1.36
G1 X151.131
X150.982 Y38.804
X150.833 Y38.781
X150.682 Y38.743
X150.521 Y38.688
X150.347 Y38.612
X150.15 Y38.507
X149.952 Y38.38
X149.721 Y38.204
X149.499 Y38.005
X149.235 Y37.727
X148.988 Y37.422
X148.714 Y37.02
X148.431 Y36.524
X148.159 Y35.942
X147.932 Y35.342
X147.743 Y34.728
X147.589 Y34.104
X147.465 Y33.474
X147.368 Y32.839
X147.297 Y32.201
X147.25 Y31.561
X147.226 Y30.919
X147.225 Y30.277
X147.246 Y29.635
X147.288 Y28.994
X147.352 Y28.355
X147.437 Y27.719
X147.542 Y27.085
X147.668 Y26.455
X147.814 Y25.83
X147.98 Y25.21
X148.167 Y24.595
X148.375 Y23.988
X148.57 Y23.499
X148.724 Y23.189
X148.779 Y23.098
X148.897 Y22.949
X149.049 Y22.834
X149.225 Y22.763
X149.414 Y22.738
X150.74
G3 X150.917 Y23.312 I-0.011 J0.317
G1 X150.86 Y23.353 Z-1.492
X150.806 Y23.393 Z-1.469
X150.757 Y23.429 Z-1.431
X150.717 Y23.459 Z-1.38
X150.686 Y23.481 Z-1.32
X150.667 Y23.495 Z-1.253
X150.661 Y23.499 Z-1.182
Z5
X152.158 Y38.428
Z-0.865
Z-1.182
X152.151 Y38.432 Z-1.253
X152.131 Y38.444 Z-1.32
X152.098 Y38.463 Z-1.38
X152.055 Y38.489 Z-1.431
X152.003 Y38.52 Z-1.469
X151.946 Y38.554 Z-1.492
X151.885 Y38.59 Z-1.5
G3 X151.131 Y38.812 I-0.809 J-1.36
G1 X149.884
X149.734 Y38.804
X149.586 Y38.782
X149.44 Y38.747
X149.275 Y38.692
X149.11 Y38.622
X148.919 Y38.522
X148.72 Y38.396
X148.504 Y38.234
X148.269 Y38.027
X148.027 Y37.776
X147.768 Y37.46
X147.494 Y37.065
X147.229 Y36.608
X146.952 Y36.029
X146.722 Y35.429
X146.532 Y34.816
X146.376 Y34.193
X146.249 Y33.563
X146.15 Y32.929
X146.077 Y32.291
X146.026 Y31.651
X145.999 Y31.009
X145.993 Y30.367
X146.008 Y29.725
X146.043 Y29.084
X146.1 Y28.444
X146.176 Y27.806
X146.273 Y27.171
X146.389 Y26.54
X146.524 Y25.912
X146.678 Y25.289
X146.852 Y24.67
X147.048 Y24.059
X147.237 Y23.556
X147.391 Y23.23
X147.459 Y23.111
X147.576 Y22.957
X147.73 Y22.838
X147.909 Y22.764
X148.101 Y22.738
X149.414
G3 X149.591 Y23.312 I-0.011 J0.317
G1 X149.534 Y23.353 Z-1.492
X149.48 Y23.393 Z-1.469
X149.431 Y23.429 Z-1.431
X149.391 Y23.459 Z-1.38
X149.36 Y23.481 Z-1.32
X149.341 Y23.495 Z-1.253
X149.335 Y23.499 Z-1.182
Z5
X150.911 Y38.428
Z-0.865
Z-1.182
X150.904 Y38.432 Z-1.253
X150.883 Y38.444 Z-1.32
X150.851 Y38.463 Z-1.38
X150.808 Y38.489 Z-1.431
X150.756 Y38.52 Z-1.469
X150.698 Y38.554 Z-1.492
X150.638 Y38.59 Z-1.5
G3 X149.884 Y38.812 I-0.809 J-1.36
G1 X148.651
X148.501 Y38.804
X148.353 Y38.784
X148.207 Y38.75
X148.044 Y38.698
X147.882 Y38.631
X147.69 Y38.533
X147.496 Y38.412
X147.279 Y38.254
X147.055 Y38.059
X146.812 Y37.812
X146.561 Y37.511
X146.29 Y37.128
X146.03 Y36.69
X145.756 Y36.13
X145.521 Y35.532
X145.326 Y34.92
X145.166 Y34.298
X145.037 Y33.669
X144.935 Y33.035
X144.857 Y32.397
X144.803 Y31.757
X144.771 Y31.116
X144.76 Y30.474
X144.769 Y29.832
X144.798 Y29.19
X144.847 Y28.55
X144.916 Y27.912
X145.003 Y27.275
X145.11 Y26.642
X145.235 Y26.012
X145.378 Y25.386
X145.54 Y24.765
X145.724 Y24.149
X145.911 Y23.62
X146.064 Y23.278
X146.148 Y23.124
X146.265 Y22.964
X146.421 Y22.842
X146.602 Y22.765
X146.798 Y22.738
X148.101
G3 X148.278 Y23.312 I-0.011 J0.317
G1 X148.221 Y23.353 Z-1.492
X148.167 Y23.393 Z-1.469
X148.119 Y23.429 Z-1.431
X148.078 Y23.459 Z-1.38
X148.048 Y23.481 Z-1.32
X148.029 Y23.495 Z-1.253
X148.022 Y23.499 Z-1.182
Z5
X149.678 Y38.428
Z-0.865
Z-1.182
X149.671 Y38.432 Z-1.253
X149.651 Y38.444 Z-1.32
X149.618 Y38.463 Z-1.38
X149.575 Y38.489 Z-1.431
X149.523 Y38.52 Z-1.469
X149.466 Y38.554 Z-1.492
X149.405 Y38.59 Z-1.5
G3 X148.651 Y38.812 I-0.809 J-1.36
G1 X147.338
X147.188 Y38.804
X147.041 Y38.777
X146.885 Y38.734
X146.729 Y38.677
X146.55 Y38.594
X146.357 Y38.486
X146.154 Y38.349
X145.931 Y38.171
X145.704 Y37.958
X145.452 Y37.68
X145.199 Y37.352
X144.938 Y36.95
X144.664 Y36.444
X144.405 Y35.857
X144.191 Y35.251
X144.014 Y34.634
X143.869 Y34.008
X143.753 Y33.377
X143.663 Y32.741
X143.597 Y32.102
X143.553 Y31.461
X143.53 Y30.82
X143.527 Y30.177
X143.544 Y29.536
X143.58 Y28.894
X143.634 Y28.254
X143.707 Y27.616
X143.798 Y26.981
X143.906 Y26.348
X144.032 Y25.718
X144.177 Y25.092
X144.341 Y24.471
X144.531 Y23.858
X144.689 Y23.449
X144.817 Y23.184
X144.863 Y23.105
X144.981 Y22.953
X145.134 Y22.836
X145.312 Y22.763
X145.502 Y22.738
X146.798
G3 X146.975 Y23.312 I-0.011 J0.317
G1 X146.918 Y23.353 Z-1.492
X146.864 Y23.393 Z-1.469
X146.815 Y23.429 Z-1.431
X146.775 Y23.459 Z-1.38
X146.744 Y23.481 Z-1.32
X146.725 Y23.495 Z-1.253
X146.719 Y23.499 Z-1.182
Z5
X148.365 Y38.428
Z-0.865
Z-1.182
X148.358 Y38.432 Z-1.253
X148.338 Y38.444 Z-1.32
X148.305 Y38.463 Z-1.38
X148.262 Y38.489 Z-1.431
X148.21 Y38.52 Z-1.469
X148.152 Y38.554 Z-1.492
X148.092 Y38.59 Z-1.5
G3 X147.338 Y38.812 I-0.809 J-1.36
G1 X146.171
X146.014 Y38.804
X145.865 Y38.784
X145.719 Y38.751
X145.565 Y38.702
X145.393 Y38.631
X145.217 Y38.542
X145.012 Y38.416
X144.813 Y38.27
X144.578 Y38.067
X144.352 Y37.839
X144.09 Y37.526
X143.843 Y37.18
X143.575 Y36.729
X143.301 Y36.172
X143.064 Y35.575
X142.869 Y34.964
X142.708 Y34.342
X142.578 Y33.713
X142.475 Y33.079
X142.396 Y32.442
X142.341 Y31.802
X142.306 Y31.161
X142.292 Y30.519
X142.297 Y29.877
X142.32 Y29.235
X142.362 Y28.594
X142.421 Y27.955
X142.497 Y27.317
X142.591 Y26.682
X142.702 Y26.049
X142.83 Y25.42
X142.977 Y24.795
X143.146 Y24.175
X143.32 Y23.651
X143.465 Y23.31
X143.557 Y23.135
X143.673 Y22.972
X143.83 Y22.845
X144.014 Y22.766
X144.213 Y22.738
X145.502
G3 X145.679 Y23.312 I-0.011 J0.317
G1 X145.622 Y23.353 Z-1.492
X145.568 Y23.393 Z-1.469
X145.519 Y23.429 Z-1.431
X145.479 Y23.459 Z-1.38
X145.448 Y23.481 Z-1.32
X145.43 Y23.495 Z-1.253
X145.423 Y23.499 Z-1.182
Z5
X147.197 Y38.428
Z-0.865
Z-1.182
X147.191 Y38.432 Z-1.253
X147.17 Y38.444 Z-1.32
X147.138 Y38.463 Z-1.38
X147.095 Y38.489 Z-1.431
X147.043 Y38.52 Z-1.469
X146.985 Y38.554 Z-1.492
X146.925 Y38.59 Z-1.5
G3 X146.171 Y38.812 I-0.809 J-1.36
G1 X144.858
X144.708 Y38.804
X144.561 Y38.778
X144.406 Y38.735
X144.251 Y38.678
X144.071 Y38.596
X143.887 Y38.492
X143.683 Y38.356
X143.465 Y38.183
X143.237 Y37.969
X142.99 Y37.698
X142.736 Y37.369
X142.478 Y36.974
X142.206 Y36.473
X141.946 Y35.886
X141.73 Y35.281
X141.553 Y34.664
X141.408 Y34.038
X141.292 Y33.407
X141.201 Y32.771
X141.133 Y32.132
X141.087 Y31.492
X141.062 Y30.85
X141.056 Y30.208
X141.068 Y29.566
X141.097 Y28.924
X141.144 Y28.284
X141.208 Y27.645
X141.289 Y27.008
X141.386 Y26.373
X141.499 Y25.741
X141.63 Y25.112
X141.782 Y24.488
X141.961 Y23.872
X142.111 Y23.469
X142.233 Y23.207
X142.286 Y23.114
X142.403 Y22.958
X142.557 Y22.839
X142.737 Y22.764
X142.93 Y22.738
X144.213
G3 X144.39 Y23.312 I-0.011 J0.317
G1 X144.333 Y23.353 Z-1.492
X144.279 Y23.393 Z-1.469
X144.23 Y23.429 Z-1.431
X144.19 Y23.459 Z-1.38
X144.159 Y23.481 Z-1.32
X144.14 Y23.495 Z-1.253
X144.134 Y23.499 Z-1.182
Z5
X145.884 Y38.428
Z-0.865
Z-1.182
X145.878 Y38.432 Z-1.253
X145.857 Y38.444 Z-1.32
X145.825 Y38.463 Z-1.38
X145.782 Y38.489 Z-1.431
X145.73 Y38.52 Z-1.469
X145.672 Y38.554 Z-1.492
X145.612 Y38.59 Z-1.5
G3 X144.858 Y38.812 I-0.809 J-1.36
G1 X143.691
X143.536 Y38.804
X143.387 Y38.784
X143.241 Y38.751
X143.086 Y38.701
X142.917 Y38.631
X142.74 Y38.541
X142.537 Y38.416
X142.338 Y38.27
X142.103 Y38.067
X141.879 Y37.84
X141.618 Y37.528
X141.371 Y37.181
X141.105 Y36.733
X140.832 Y36.177
X140.597 Y35.579
X140.402 Y34.967
X140.242 Y34.346
X140.112 Y33.717
X140.009 Y33.083
X139.93 Y32.445
X139.873 Y31.806
X139.837 Y31.165
X139.82 Y30.523
X139.822 Y29.88
X139.841 Y29.239
X139.876 Y28.597
X139.929 Y27.957
X139.997 Y27.319
X140.082 Y26.682
X140.183 Y26.048
X140.3 Y25.417
X140.436 Y24.789
X140.596 Y24.167
X140.757 Y23.667
X140.897 Y23.328
X141.018 Y23.091
X141.136 Y22.944
X141.287 Y22.832
X141.462 Y22.762
X141.649 Y22.738
X142.93
G3 X143.107 Y23.312 I-0.011 J0.317
G1 X143.05 Y23.353 Z-1.492
X142.996 Y23.393 Z-1.469
X142.947 Y23.429 Z-1.431
X142.907 Y23.459 Z-1.38
X142.876 Y23.481 Z-1.32
X142.857 Y23.495 Z-1.253
X142.851 Y23.499 Z-1.182
Z5
X144.717 Y38.428
Z-0.865
Z-1.182
X144.71 Y38.432 Z-1.253
X144.69 Y38.444 Z-1.32
X144.658 Y38.463 Z-1.38
X144.615 Y38.489 Z-1.431
X144.563 Y38.52 Z-1.469
X144.505 Y38.554 Z-1.492
X144.444 Y38.59 Z-1.5
G3 X143.691 Y38.812 I-0.809 J-1.36
G1 X142.378
X142.228 Y38.804
X142.08 Y38.777
X141.926 Y38.733
X141.771 Y38.676
X141.589 Y38.592
X141.406 Y38.488
X141.201 Y38.35
X140.985 Y38.176
X140.756 Y37.96
X140.51 Y37.689
X140.255 Y37.356
X139.998 Y36.96
X139.728 Y36.456
X139.47 Y35.868
X139.257 Y35.262
X139.081 Y34.644
X138.937 Y34.019
X138.822 Y33.387
X138.731 Y32.751
X138.663 Y32.113
X138.617 Y31.472
X138.59 Y30.83
X138.581 Y30.188
X138.59 Y29.546
X138.615 Y28.904
X138.657 Y28.264
X138.714 Y27.624
X138.788 Y26.986
X138.876 Y26.35
X138.981 Y25.716
X139.104 Y25.086
X139.248 Y24.46
X139.423 Y23.842
X139.558 Y23.473
X139.683 Y23.2
X139.729 Y23.117
X139.847 Y22.96
X140.001 Y22.84
X140.181 Y22.764
X140.375 Y22.738
X141.649
G3 X141.825 Y23.312 I-0.011 J0.317
G1 X141.768 Y23.353 Z-1.492
X141.714 Y23.393 Z-1.469
X141.666 Y23.429 Z-1.431
X141.625 Y23.459 Z-1.38
X141.595 Y23.481 Z-1.32
X141.576 Y23.495 Z-1.253
X141.569 Y23.499 Z-1.182
Z5
X143.404 Y38.428
Z-0.865
Z-1.182
X143.397 Y38.432 Z-1.253
X143.377 Y38.444 Z-1.32
X143.345 Y38.463 Z-1.38
X143.301 Y38.489 Z-1.431
X143.25 Y38.52 Z-1.469
X143.192 Y38.554 Z-1.492
X143.131 Y38.59 Z-1.5
G3 X142.378 Y38.812 I-0.809 J-1.36
G1 X141.211
X141.061 Y38.804
X140.912 Y38.784
X140.766 Y38.751
X140.612 Y38.701
X140.441 Y38.63
X140.265 Y38.54
X140.061 Y38.414
X139.863 Y38.268
X139.629 Y38.064
X139.405 Y37.837
X139.144 Y37.524
X138.899 Y37.177
X138.633 Y36.727
X138.36 Y36.169
X138.126 Y35.571
X137.932 Y34.959
X137.773 Y34.337
X137.643 Y33.708
X137.54 Y33.074
X137.46 Y32.437
X137.403 Y31.797
X137.365 Y31.156
X137.346 Y30.514
X137.344 Y29.872
X137.359 Y29.23
X137.39 Y28.588
X137.437 Y27.948
X137.499 Y27.309
X137.576 Y26.671
X137.669 Y26.036
X137.779 Y25.403
X137.908 Y24.774
X138.061 Y24.15
X138.213 Y23.668
X138.348 Y23.334
X138.464 Y23.102
X138.469 Y23.095
X138.587 Y22.947
X138.739 Y22.834
X138.914 Y22.763
X139.102 Y22.738
X140.375
G3 X140.552 Y23.312 I-0.011 J0.317
G1 X140.495 Y23.353 Z-1.492
X140.441 Y23.393 Z-1.469
X140.393 Y23.429 Z-1.431
X140.352 Y23.459 Z-1.38
X140.322 Y23.481 Z-1.32
X140.303 Y23.495 Z-1.253
X140.296 Y23.499 Z-1.182
Z5
X142.237 Y38.428
Z-0.865
Z-1.182
X142.23 Y38.432 Z-1.253
X142.21 Y38.444 Z-1.32
X142.177 Y38.463 Z-1.38
X142.134 Y38.489 Z-1.431
X142.083 Y38.52 Z-1.469
X142.025 Y38.554 Z-1.492
X141.964 Y38.59 Z-1.5
G3 X141.211 Y38.812 I-0.809 J-1.36
G1 X139.963
X139.813 Y38.804
X139.665 Y38.783
X139.519 Y38.748
X139.365 Y38.697
X139.198 Y38.626
X139.012 Y38.53
X138.822 Y38.411
X138.602 Y38.247
X138.39 Y38.061
X138.139 Y37.802
X137.905 Y37.517
X137.641 Y37.139
X137.371 Y36.677
X137.105 Y36.124
X136.874 Y35.524
X136.684 Y34.911
X136.528 Y34.288
X136.401 Y33.658
X136.3 Y33.024
X136.222 Y32.387
X136.165 Y31.747
X136.128 Y31.106
X136.108 Y30.464
X136.106 Y29.822
X136.12 Y29.18
X136.15 Y28.538
X136.194 Y27.898
X136.254 Y27.258
X136.329 Y26.621
X136.419 Y25.985
X136.526 Y25.352
X136.653 Y24.722
X136.807 Y24.099
X136.958 Y23.626
X137.09 Y23.307
X137.174 Y23.143
X137.29 Y22.976
X137.447 Y22.847
X137.633 Y22.766
X137.834 Y22.738
X139.102
G3 X139.279 Y23.312 I-0.011 J0.317
G1 X139.222 Y23.353 Z-1.492
X139.168 Y23.393 Z-1.469
X139.119 Y23.429 Z-1.431
X139.079 Y23.459 Z-1.38
X139.048 Y23.481 Z-1.32
X139.029 Y23.495 Z-1.253
X139.023 Y23.499 Z-1.182
Z5
X140.99 Y38.428
Z-0.865
Z-1.182
X140.983 Y38.432 Z-1.253
X140.963 Y38.444 Z-1.32
X140.93 Y38.463 Z-1.38
X140.887 Y38.489 Z-1.431
X140.835 Y38.52 Z-1.469
X140.777 Y38.554 Z-1.492
X140.717 Y38.59 Z-1.5
G3 X139.963 Y38.812 I-0.809 J-1.36
G1 X138.73
X138.581 Y38.804
X138.432 Y38.783
X138.286 Y38.748
X138.132 Y38.697
X137.967 Y38.628
X137.777 Y38.529
X137.59 Y38.412
X137.369 Y38.248
X137.155 Y38.06
X136.907 Y37.804
X136.67 Y37.518
X136.405 Y37.138
X136.142 Y36.689
X135.876 Y36.135
X135.644 Y35.536
X135.454 Y34.923
X135.297 Y34.3
X135.17 Y33.671
X135.068 Y33.037
X134.99 Y32.399
X134.931 Y31.76
X134.892 Y31.119
X134.871 Y30.477
X134.867 Y29.835
X134.878 Y29.193
X134.905 Y28.551
X134.946 Y27.91
X135.003 Y27.271
X135.074 Y26.632
X135.16 Y25.996
X135.263 Y25.362
X135.387 Y24.732
X135.538 Y24.108
X135.686 Y23.642
X135.815 Y23.325
X135.905 Y23.146
X136.021 Y22.978
X136.178 Y22.848
X136.365 Y22.766
X136.567 Y22.738
X137.834
G3 X138.011 Y23.312 I-0.011 J0.317
G1 X137.954 Y23.353 Z-1.492
X137.9 Y23.393 Z-1.469
X137.851 Y23.429 Z-1.431
X137.81 Y23.459 Z-1.38
X137.78 Y23.481 Z-1.32
X137.761 Y23.495 Z-1.253
X137.755 Y23.499 Z-1.182
Z5
X139.757 Y38.428
Z-0.865
Z-1.182
X139.75 Y38.432 Z-1.253
X139.73 Y38.444 Z-1.32
X139.697 Y38.463 Z-1.38
X139.654 Y38.489 Z-1.431
X139.602 Y38.52 Z-1.469
X139.545 Y38.554 Z-1.492
X139.484 Y38.59 Z-1.5
G3 X138.73 Y38.812 I-0.809 J-1.36
G1 X137.483
X137.333 Y38.804
X137.185 Y38.782
X137.039 Y38.746
X136.885 Y38.694
X136.718 Y38.622
X136.527 Y38.521
X136.338 Y38.401
X136.116 Y38.233
X135.903 Y38.044
X135.651 Y37.781
X135.417 Y37.493
X135.153 Y37.11
X134.884 Y36.644
X134.619 Y36.083
X134.391 Y35.483
X134.204 Y34.868
X134.051 Y34.245
X133.926 Y33.615
X133.826 Y32.98
X133.749 Y32.343
X133.692 Y31.703
X133.653 Y31.062
X133.632 Y30.42
X133.627 Y29.778
X133.638 Y29.136
X133.663 Y28.494
X133.704 Y27.853
X133.758 Y27.214
X133.828 Y26.575
X133.912 Y25.939
X134.014 Y25.305
X134.137 Y24.674
X134.29 Y24.05
X134.435 Y23.602
X134.559 Y23.304
X134.642 Y23.141
X134.758 Y22.975
X134.915 Y22.847
X135.1 Y22.766
X135.301 Y22.738
X136.567
G3 X136.744 Y23.312 I-0.011 J0.317
G1 X136.687 Y23.353 Z-1.492
X136.632 Y23.393 Z-1.469
X136.584 Y23.429 Z-1.431
X136.543 Y23.459 Z-1.38
X136.513 Y23.481 Z-1.32
X136.494 Y23.495 Z-1.253
X136.488 Y23.499 Z-1.182
Z5
X138.509 Y38.428
Z-0.865
Z-1.182
X138.503 Y38.432 Z-1.253
X138.482 Y38.444 Z-1.32
X138.45 Y38.463 Z-1.38
X138.407 Y38.489 Z-1.431
X138.355 Y38.52 Z-1.469
X138.297 Y38.554 Z-1.492
X138.237 Y38.59 Z-1.5
G3 X137.483 Y38.812 I-0.809 J-1.36
G1 X136.25
X136.1 Y38.804
X135.952 Y38.782
X135.806 Y38.746
X135.649 Y38.693
X135.485 Y38.623
X135.293 Y38.522
X135.105 Y38.402
X134.885 Y38.237
X134.669 Y38.044
X134.422 Y37.787
X134.183 Y37.493
X133.917 Y37.108
X133.656 Y36.655
X133.389 Y36.092
X133.161 Y35.492
X132.973 Y34.877
X132.819 Y34.254
X132.694 Y33.624
X132.593 Y32.99
X132.515 Y32.353
X132.456 Y31.713
X132.416 Y31.072
X132.393 Y30.43
X132.387 Y29.788
X132.395 Y29.146
X132.418 Y28.504
X132.456 Y27.863
X132.507 Y27.223
X132.574 Y26.584
X132.655 Y25.947
X132.754 Y25.313
X132.875 Y24.682
X133.025 Y24.058
X133.168 Y23.613
X133.292 Y23.309
X133.377 Y23.143
X133.493 Y22.977
X133.65 Y22.848
X133.836 Y22.766
X134.037 Y22.738
X135.301
G3 X135.478 Y23.312 I-0.011 J0.317
G1 X135.421 Y23.353 Z-1.492
X135.367 Y23.393 Z-1.469
X135.318 Y23.429 Z-1.431
X135.278 Y23.459 Z-1.38
X135.247 Y23.481 Z-1.32
X135.228 Y23.495 Z-1.253
X135.222 Y23.499 Z-1.182
Z5
X137.277 Y38.428
Z-0.865
Z-1.182
X137.27 Y38.432 Z-1.253
X137.25 Y38.444 Z-1.32
X137.217 Y38.463 Z-1.38
X137.174 Y38.489 Z-1.431
X137.122 Y38.52 Z-1.469
X137.064 Y38.554 Z-1.492
X137.004 Y38.59 Z-1.5
G3 X136.25 Y38.812 I-0.809 J-1.36
G1 X135.003
X134.853 Y38.804
X134.705 Y38.781
X134.559 Y38.743
X134.402 Y38.689
X134.235 Y38.616
X134.042 Y38.513
X133.852 Y38.39
X133.63 Y38.22
X133.415 Y38.027
X133.164 Y37.761
X132.928 Y37.467
X132.663 Y37.077
X132.395 Y36.604
X132.129 Y36.032
X131.906 Y35.43
X131.722 Y34.815
X131.571 Y34.19
X131.448 Y33.56
X131.349 Y32.926
X131.272 Y32.288
X131.215 Y31.648
X131.175 Y31.007
X131.153 Y30.366
X131.146 Y29.724
X131.154 Y29.081
X131.176 Y28.44
X131.213 Y27.798
X131.264 Y27.158
X131.329 Y26.519
X131.41 Y25.882
X131.508 Y25.248
X131.629 Y24.617
X131.782 Y23.993
X131.92 Y23.572
X132.04 Y23.286
X132.117 Y23.138
X132.233 Y22.974
X132.39 Y22.846
X132.575 Y22.766
X132.774 Y22.738
X134.037
G3 X134.214 Y23.312 I-0.011 J0.317
G1 X134.157 Y23.353 Z-1.492
X134.103 Y23.393 Z-1.469
X134.054 Y23.429 Z-1.431
X134.014 Y23.459 Z-1.38
X133.983 Y23.481 Z-1.32
X133.964 Y23.495 Z-1.253
X133.958 Y23.499 Z-1.182
Z5
X136.029 Y38.428
Z-0.865
Z-1.182
X136.022 Y38.432 Z-1.253
X136.002 Y38.444 Z-1.32
X135.97 Y38.463 Z-1.38
X135.926 Y38.489 Z-1.431
X135.875 Y38.52 Z-1.469
X135.817 Y38.554 Z-1.492
X135.756 Y38.59 Z-1.5
G3 X135.003 Y38.812 I-0.809 J-1.36
G1 X133.77
X133.62 Y38.804
X133.472 Y38.781
X133.327 Y38.744
X133.166 Y38.689
X133.002 Y38.617
X132.81 Y38.514
X132.62 Y38.392
X132.401 Y38.225
X132.181 Y38.026
X131.936 Y37.767
X131.693 Y37.465
X131.427 Y37.073
X131.167 Y36.615
X130.898 Y36.039
X130.674 Y35.437
X130.49 Y34.822
X130.338 Y34.198
X130.214 Y33.568
X130.115 Y32.933
X130.037 Y32.296
X129.978 Y31.656
X129.937 Y31.015
X129.913 Y30.374
X129.904 Y29.731
X129.91 Y29.089
X129.931 Y28.447
X129.965 Y27.806
X130.013 Y27.166
X130.076 Y26.527
X130.154 Y25.889
X130.25 Y25.254
X130.369 Y24.623
X130.52 Y23.999
X130.657 Y23.579
X130.777 Y23.29
X130.855 Y23.14
X130.971 Y22.974
X131.128 Y22.847
X131.313 Y22.766
X131.513 Y22.738
X132.774
G3 X132.951 Y23.312 I-0.011 J0.317
G1 X132.894 Y23.353 Z-1.492
X132.84 Y23.393 Z-1.469
X132.792 Y23.429 Z-1.431
X132.751 Y23.459 Z-1.38
X132.721 Y23.481 Z-1.32
X132.702 Y23.495 Z-1.253
X132.695 Y23.499 Z-1.182
Z5
X134.796 Y38.428
Z-0.865
Z-1.182
X134.79 Y38.432 Z-1.253
X134.769 Y38.444 Z-1.32
X134.737 Y38.463 Z-1.38
X134.694 Y38.489 Z-1.431
X134.642 Y38.52 Z-1.469
X134.584 Y38.554 Z-1.492
X134.523 Y38.59 Z-1.5
G3 X133.77 Y38.812 I-0.809 J-1.36
G1 X132.523
X132.373 Y38.804
X132.225 Y38.779
X132.079 Y38.741
X131.919 Y38.684
X131.752 Y38.61
X131.557 Y38.504
X131.366 Y38.379
X131.143 Y38.205
X130.927 Y38.007
X130.676 Y37.738
X130.437 Y37.435
X130.171 Y37.038
X129.904 Y36.558
X129.637 Y35.974
X129.418 Y35.37
X129.237 Y34.754
X129.088 Y34.129
X128.967 Y33.499
X128.869 Y32.864
X128.793 Y32.227
X128.735 Y31.587
X128.695 Y30.946
X128.671 Y30.304
X128.662 Y29.662
X128.668 Y29.02
X128.688 Y28.378
X128.722 Y27.737
X128.77 Y27.096
X128.832 Y26.457
X128.91 Y25.82
X129.007 Y25.185
X129.126 Y24.554
X129.279 Y23.937
X129.412 Y23.539
X129.528 Y23.267
X129.598 Y23.135
X129.714 Y22.971
X129.87 Y22.845
X130.054 Y22.766
X130.253 Y22.738
X131.513
G3 X131.69 Y23.312 I-0.011 J0.317
G1 X131.633 Y23.353 Z-1.492
X131.579 Y23.393 Z-1.469
X131.53 Y23.429 Z-1.431
X131.49 Y23.459 Z-1.38
X131.459 Y23.481 Z-1.32
X131.44 Y23.495 Z-1.253
X131.434 Y23.499 Z-1.182
Z5
X133.549 Y38.428
Z-0.865
Z-1.182
X133.542 Y38.432 Z-1.253
X133.522 Y38.444 Z-1.32
X133.489 Y38.463 Z-1.38
X133.446 Y38.489 Z-1.431
X133.394 Y38.52 Z-1.469
X133.337 Y38.554 Z-1.492
X133.276 Y38.59 Z-1.5
G3 X132.523 Y38.812 I-0.809 J-1.36
G1 X131.29
X131.14 Y38.804
X130.992 Y38.78
X130.847 Y38.741
X130.683 Y38.684
X130.519 Y38.611
X130.327 Y38.506
X130.134 Y38.38
X129.916 Y38.211
X129.692 Y38.006
X129.449 Y37.745
X129.201 Y37.433
X128.934 Y37.034
X128.674 Y36.569
X128.407 Y35.985
X128.187 Y35.382
X128.006 Y34.766
X127.856 Y34.141
X127.733 Y33.511
X127.635 Y32.877
X127.557 Y32.239
X127.498 Y31.6
X127.456 Y30.959
X127.431 Y30.317
X127.42 Y29.675
X127.424 Y29.033
X127.442 Y28.391
X127.474 Y27.749
X127.519 Y27.109
X127.579 Y26.47
X127.655 Y25.832
X127.749 Y25.197
X127.868 Y24.565
X128.016 Y23.954
X128.148 Y23.554
X128.266 Y23.275
X128.337 Y23.137
X128.454 Y22.973
X128.61 Y22.846
X128.795 Y22.766
X128.995 Y22.738
X130.253
G3 X130.43 Y23.312 I-0.011 J0.317
G1 X130.373 Y23.353 Z-1.492
X130.319 Y23.393 Z-1.469
X130.27 Y23.429 Z-1.431
X130.23 Y23.459 Z-1.38
X130.199 Y23.481 Z-1.32
X130.181 Y23.495 Z-1.253
X130.174 Y23.499 Z-1.182
Z5
X132.316 Y38.428
Z-0.865
Z-1.182
X132.309 Y38.432 Z-1.253
X132.289 Y38.444 Z-1.32
X132.257 Y38.463 Z-1.38
X132.213 Y38.489 Z-1.431
X132.162 Y38.52 Z-1.469
X132.104 Y38.554 Z-1.492
X132.043 Y38.59 Z-1.5
G3 X131.29 Y38.812 I-0.809 J-1.36
G1 X130.123
X129.953 Y38.803
X129.804 Y38.784
X129.658 Y38.75
X129.498 Y38.699
X129.338 Y38.632
X129.155 Y38.539
X128.958 Y38.417
X128.752 Y38.266
X128.526 Y38.07
X128.296 Y37.836
X128.044 Y37.533
X127.789 Y37.173
X127.53 Y36.737
X127.258 Y36.182
X127.023 Y35.584
X126.829 Y34.972
X126.668 Y34.35
X126.536 Y33.722
X126.429 Y33.089
X126.343 Y32.452
X126.277 Y31.814
X126.228 Y31.173
X126.196 Y30.532
X126.179 Y29.89
X126.177 Y29.248
X126.188 Y28.606
X126.214 Y27.964
X126.253 Y27.323
X126.307 Y26.683
X126.376 Y26.045
X126.463 Y25.408
X126.572 Y24.776
X126.711 Y24.148
X126.843 Y23.697
X126.971 Y23.365
X127.082 Y23.133
X127.098 Y23.106
X127.216 Y22.954
X127.369 Y22.837
X127.547 Y22.763
X127.738 Y22.738
X128.995
G3 X129.172 Y23.312 I-0.011 J0.317
G1 X129.115 Y23.353 Z-1.492
X129.06 Y23.393 Z-1.469
X129.012 Y23.429 Z-1.431
X128.971 Y23.459 Z-1.38
X128.941 Y23.481 Z-1.32
X128.922 Y23.495 Z-1.253
X128.916 Y23.499 Z-1.182
Z5
X131.149 Y38.428
Z-0.865
Z-1.182
X131.142 Y38.432 Z-1.253
X131.122 Y38.444 Z-1.32
X131.089 Y38.463 Z-1.38
X131.046 Y38.489 Z-1.431
X130.995 Y38.52 Z-1.469
X130.937 Y38.554 Z-1.492
X130.876 Y38.59 Z-1.5
G3 X130.123 Y38.812 I-0.809 J-1.36
G1 X128.809
X128.66 Y38.804
X128.512 Y38.778
X128.359 Y38.736
X128.206 Y38.681
X128.028 Y38.6
X127.843 Y38.497
X127.641 Y38.362
X127.425 Y38.191
X127.2 Y37.982
X126.954 Y37.714
X126.704 Y37.393
X126.447 Y37
X126.176 Y36.504
X125.914 Y35.918
X125.697 Y35.313
X125.518 Y34.697
X125.369 Y34.072
X125.247 Y33.441
X125.149 Y32.807
X125.071 Y32.169
X125.012 Y31.53
X124.97 Y30.889
X124.944 Y30.247
X124.933 Y29.605
X124.935 Y28.963
X124.952 Y28.321
X124.982 Y27.679
X125.026 Y27.039
X125.085 Y26.399
X125.161 Y25.762
X125.257 Y25.127
X125.377 Y24.496
X125.529 Y23.884
X125.652 Y23.519
X125.77 Y23.245
X125.829 Y23.133
X125.945 Y22.97
X126.101 Y22.845
X126.285 Y22.765
X126.484 Y22.738
X127.738
G3 X127.915 Y23.312 I-0.011 J0.317
G1 X127.858 Y23.353 Z-1.492
X127.804 Y23.393 Z-1.469
X127.755 Y23.429 Z-1.431
X127.714 Y23.459 Z-1.38
X127.684 Y23.481 Z-1.32
X127.665 Y23.495 Z-1.253
X127.659 Y23.499 Z-1.182
Z5
X129.836 Y38.428
Z-0.865
Z-1.182
X129.829 Y38.432 Z-1.253
X129.809 Y38.444 Z-1.32
X129.776 Y38.463 Z-1.38
X129.733 Y38.489 Z-1.431
X129.681 Y38.52 Z-1.469
X129.624 Y38.554 Z-1.492
X129.563 Y38.59 Z-1.5
G3 X128.809 Y38.812 I-0.809 J-1.36
G1 X127.642
X127.486 Y38.804
X127.338 Y38.784
X127.191 Y38.751
X127.035 Y38.701
X126.869 Y38.632
X126.691 Y38.541
X126.491 Y38.417
X126.29 Y38.27
X126.057 Y38.068
X125.834 Y37.841
X125.574 Y37.531
X125.326 Y37.18
X125.06 Y36.733
X124.786 Y36.172
X124.55 Y35.575
X124.355 Y34.963
X124.193 Y34.341
X124.06 Y33.713
X123.951 Y33.08
X123.864 Y32.444
X123.796 Y31.806
X123.745 Y31.165
X123.711 Y30.524
X123.692 Y29.882
X123.687 Y29.24
X123.697 Y28.598
X123.72 Y27.956
X123.757 Y27.315
X123.808 Y26.675
X123.876 Y26.036
X123.962 Y25.4
X124.07 Y24.767
X124.207 Y24.139
X124.337 Y23.695
X124.463 Y23.365
X124.573 Y23.135
X124.589 Y23.107
X124.707 Y22.955
X124.86 Y22.837
X125.038 Y22.764
X125.23 Y22.738
X126.484
G3 X126.661 Y23.312 I-0.011 J0.317
G1 X126.604 Y23.353 Z-1.492
X126.55 Y23.393 Z-1.469
X126.501 Y23.429 Z-1.431
X126.461 Y23.459 Z-1.38
X126.43 Y23.481 Z-1.32
X126.411 Y23.495 Z-1.253
X126.405 Y23.499 Z-1.182
Z5
X128.669 Y38.428
Z-0.865
Z-1.182
X128.662 Y38.432 Z-1.253
X128.642 Y38.444 Z-1.32
X128.609 Y38.463 Z-1.38
X128.566 Y38.489 Z-1.431
X128.514 Y38.52 Z-1.469
X128.457 Y38.554 Z-1.492
X128.396 Y38.59 Z-1.5
G3 X127.642 Y38.812 I-0.809 J-1.36
G1 X126.329
X126.179 Y38.804
X126.032 Y38.777
X125.878 Y38.733
X125.723 Y38.676
X125.541 Y38.591
X125.358 Y38.487
X125.153 Y38.348
X124.937 Y38.174
X124.707 Y37.958
X124.462 Y37.685
X124.206 Y37.351
X123.949 Y36.951
X123.676 Y36.442
X123.418 Y35.854
X123.205 Y35.248
X123.028 Y34.631
X122.881 Y34.005
X122.761 Y33.375
X122.663 Y32.74
X122.585 Y32.103
X122.525 Y31.463
X122.483 Y30.822
X122.456 Y30.181
X122.444 Y29.539
X122.445 Y28.897
X122.461 Y28.255
X122.49 Y27.613
X122.534 Y26.972
X122.593 Y26.333
X122.669 Y25.695
X122.765 Y25.06
X122.887 Y24.43
X123.035 Y23.849
X123.156 Y23.495
X123.271 Y23.23
X123.324 Y23.13
X123.441 Y22.969
X123.596 Y22.844
X123.78 Y22.765
X123.977 Y22.738
X125.23
G3 X125.406 Y23.312 I-0.011 J0.317
G1 X125.349 Y23.353 Z-1.492
X125.295 Y23.393 Z-1.469
X125.247 Y23.429 Z-1.431
X125.206 Y23.459 Z-1.38
X125.176 Y23.481 Z-1.32
X125.157 Y23.495 Z-1.253
X125.15 Y23.499 Z-1.182
Z5
X127.356 Y38.428
Z-0.865
Z-1.182
X127.349 Y38.432 Z-1.253
X127.329 Y38.444 Z-1.32
X127.296 Y38.463 Z-1.38
X127.253 Y38.489 Z-1.431
X127.201 Y38.52 Z-1.469
X127.144 Y38.554 Z-1.492
X127.083 Y38.59 Z-1.5
G3 X126.329 Y38.812 I-0.809 J-1.36
G1 X125.162
X125.012 Y38.804
X124.864 Y38.784
X124.718 Y38.75
X124.563 Y38.7
X124.392 Y38.628
X124.216 Y38.538
X124.012 Y38.411
X123.813 Y38.264
X123.578 Y38.059
X123.354 Y37.83
X123.092 Y37.515
X122.845 Y37.164
X122.577 Y36.708
X122.299 Y36.138
X122.066 Y35.54
X121.872 Y34.928
X121.711 Y34.306
X121.577 Y33.678
X121.468 Y33.045
X121.38 Y32.409
X121.311 Y31.771
X121.259 Y31.131
X121.224 Y30.489
X121.204 Y29.847
X121.198 Y29.205
X121.206 Y28.563
X121.227 Y27.921
X121.263 Y27.28
X121.314 Y26.64
X121.381 Y26.001
X121.466 Y25.365
X121.574 Y24.732
X121.712 Y24.105
X121.839 Y23.674
X121.964 Y23.352
X122.074 Y23.123
X122.084 Y23.105
X122.202 Y22.953
X122.355 Y22.837
X122.533 Y22.763
X122.724 Y22.738
X123.977
G3 X124.154 Y23.312 I-0.011 J0.317
G1 X124.097 Y23.353 Z-1.492
X124.043 Y23.393 Z-1.469
X123.995 Y23.429 Z-1.431
X123.954 Y23.459 Z-1.38
X123.924 Y23.481 Z-1.32
X123.905 Y23.495 Z-1.253
X123.898 Y23.499 Z-1.182
Z5
X126.189 Y38.428
Z-0.865
Z-1.182
X126.182 Y38.432 Z-1.253
X126.162 Y38.444 Z-1.32
X126.129 Y38.463 Z-1.38
X126.086 Y38.489 Z-1.431
X126.034 Y38.52 Z-1.469
X125.976 Y38.554 Z-1.492
X125.916 Y38.59 Z-1.5
G3 X125.162 Y38.812 I-0.809 J-1.36
G1 X123.915
X123.765 Y38.804
X123.616 Y38.783
X123.471 Y38.747
X123.316 Y38.696
X123.148 Y38.625
X122.961 Y38.526
X122.771 Y38.407
X122.55 Y38.242
X122.337 Y38.054
X122.085 Y37.793
X121.849 Y37.505
X121.583 Y37.121
X121.31 Y36.652
X121.037 Y36.082
X120.807 Y35.482
X120.616 Y34.869
X120.458 Y34.247
X120.327 Y33.618
X120.22 Y32.985
X120.133 Y32.349
X120.065 Y31.71
X120.015 Y31.07
X119.98 Y30.429
X119.96 Y29.787
X119.954 Y29.145
X119.962 Y28.503
X119.984 Y27.861
X120.02 Y27.22
X120.071 Y26.579
X120.138 Y25.941
X120.224 Y25.304
X120.332 Y24.671
X120.473 Y24.045
X120.604 Y23.623
X120.727 Y23.314
X120.808 Y23.15
X120.924 Y22.981
X121.081 Y22.85
X121.269 Y22.767
X121.472 Y22.738
X122.724
G3 X122.901 Y23.312 I-0.011 J0.317
G1 X122.844 Y23.353 Z-1.492
X122.79 Y23.393 Z-1.469
X122.741 Y23.429 Z-1.431
X122.7 Y23.459 Z-1.38
X122.67 Y23.481 Z-1.32
X122.651 Y23.495 Z-1.253
X122.645 Y23.499 Z-1.182
Z5
X124.941 Y38.428
Z-0.865
Z-1.182
X124.934 Y38.432 Z-1.253
X124.914 Y38.444 Z-1.32
X124.882 Y38.463 Z-1.38
X124.838 Y38.489 Z-1.431
X124.787 Y38.52 Z-1.469
X124.729 Y38.554 Z-1.492
X124.668 Y38.59 Z-1.5
G3 X123.915 Y38.812 I-0.809 J-1.36
G1 X122.682
X122.532 Y38.804
X122.384 Y38.783
X122.238 Y38.748
X122.082 Y38.696
X121.918 Y38.627
X121.726 Y38.527
X121.538 Y38.409
X121.318 Y38.245
X121.101 Y38.054
X120.854 Y37.798
X120.612 Y37.504
X120.343 Y37.119
X120.078 Y36.664
X119.804 Y36.094
X119.574 Y35.494
X119.382 Y34.881
X119.223 Y34.259
X119.091 Y33.631
X118.983 Y32.998
X118.895 Y32.362
X118.826 Y31.723
X118.775 Y31.083
X118.738 Y30.442
X118.717 Y29.8
X118.71 Y29.158
X118.717 Y28.516
X118.737 Y27.874
X118.772 Y27.233
X118.821 Y26.592
X118.886 Y25.954
X118.969 Y25.317
X119.077 Y24.684
X119.217 Y24.057
X119.35 Y23.625
X119.468 Y23.327
X119.555 Y23.151
X119.67 Y22.981
X119.828 Y22.85
X120.016 Y22.767
X120.219 Y22.738
X121.472
G3 X121.649 Y23.312 I-0.011 J0.317
G1 X121.592 Y23.353 Z-1.492
X121.538 Y23.393 Z-1.469
X121.489 Y23.429 Z-1.431
X121.449 Y23.459 Z-1.38
X121.418 Y23.481 Z-1.32
X121.399 Y23.495 Z-1.253
X121.393 Y23.499 Z-1.182
Z5
X123.708 Y38.428
Z-0.865
Z-1.182
X123.701 Y38.432 Z-1.253
X123.681 Y38.444 Z-1.32
X123.649 Y38.463 Z-1.38
X123.606 Y38.489 Z-1.431
X123.554 Y38.52 Z-1.469
X123.496 Y38.554 Z-1.492
X123.435 Y38.59 Z-1.5
G3 X122.682 Y38.812 I-0.809 J-1.36
G1 X121.434
X121.285 Y38.804
X121.136 Y38.782
X120.991 Y38.746
X120.835 Y38.693
X120.668 Y38.621
X120.475 Y38.519
X120.285 Y38.399
X120.062 Y38.23
X119.847 Y38.039
X119.595 Y37.775
X119.356 Y37.481
X119.089 Y37.093
X118.817 Y36.621
X118.544 Y36.042
X118.317 Y35.441
X118.128 Y34.827
X117.971 Y34.204
X117.841 Y33.576
X117.734 Y32.942
X117.648 Y32.306
X117.58 Y31.667
X117.529 Y31.027
X117.494 Y30.386
X117.473 Y29.744
X117.466 Y29.102
X117.473 Y28.46
X117.493 Y27.818
X117.528 Y27.177
X117.577 Y26.536
X117.643 Y25.898
X117.727 Y25.261
X117.836 Y24.628
X117.979 Y24.002
X118.109 Y23.59
X118.224 Y23.306
X118.305 Y23.146
X118.421 Y22.978
X118.578 Y22.849
X118.764 Y22.766
X118.966 Y22.738
X120.219
G3 X120.396 Y23.312 I-0.011 J0.317
G1 X120.339 Y23.353 Z-1.492
X120.285 Y23.393 Z-1.469
X120.236 Y23.429 Z-1.431
X120.196 Y23.459 Z-1.38
X120.165 Y23.481 Z-1.32
X120.146 Y23.495 Z-1.253
X120.14 Y23.499 Z-1.182
Z5
X122.461 Y38.428
Z-0.865
Z-1.182
X122.454 Y38.432 Z-1.253
X122.434 Y38.444 Z-1.32
X122.401 Y38.463 Z-1.38
X122.358 Y38.489 Z-1.431
X122.306 Y38.52 Z-1.469
X122.249 Y38.554 Z-1.492
X122.188 Y38.59 Z-1.5
G3 X121.434 Y38.812 I-0.809 J-1.36
G1 X120.202
X120.052 Y38.804
X119.903 Y38.782
X119.758 Y38.747
X119.599 Y38.693
X119.435 Y38.623
X119.243 Y38.522
X119.053 Y38.402
X118.834 Y38.238
X118.614 Y38.043
X118.368 Y37.787
X118.123 Y37.486
X117.853 Y37.096
X117.59 Y36.641
X117.314 Y36.062
X117.086 Y35.462
X116.896 Y34.848
X116.738 Y34.226
X116.606 Y33.597
X116.498 Y32.964
X116.411 Y32.328
X116.342 Y31.689
X116.289 Y31.049
X116.252 Y30.408
X116.23 Y29.766
X116.222 Y29.124
X116.227 Y28.482
X116.246 Y27.84
X116.279 Y27.199
X116.327 Y26.558
X116.39 Y25.919
X116.473 Y25.283
X116.58 Y24.649
X116.72 Y24.028
X116.851 Y23.608
X116.968 Y23.316
X117.051 Y23.149
X117.167 Y22.98
X117.324 Y22.849
X117.511 Y22.767
X117.714 Y22.738
X118.966
G3 X119.143 Y23.312 I-0.011 J0.317
G1 X119.086 Y23.353 Z-1.492
X119.032 Y23.393 Z-1.469
X118.984 Y23.429 Z-1.431
X118.943 Y23.459 Z-1.38
X118.913 Y23.481 Z-1.32
X118.894 Y23.495 Z-1.253
X118.887 Y23.499 Z-1.182
Z5
X121.228 Y38.428
Z-0.865
Z-1.182
X121.221 Y38.432 Z-1.253
X121.201 Y38.444 Z-1.32
X121.169 Y38.463 Z-1.38
X121.125 Y38.489 Z-1.431
X121.074 Y38.52 Z-1.469
X121.016 Y38.554 Z-1.492
X120.955 Y38.59 Z-1.5
G3 X120.202 Y38.812 I-0.809 J-1.36
G1 X118.954
X118.804 Y38.804
X118.656 Y38.781
X118.511 Y38.745
X118.352 Y38.691
X118.186 Y38.618
X117.991 Y38.515
X117.801 Y38.393
X117.578 Y38.223
X117.362 Y38.03
X117.111 Y37.765
X116.869 Y37.467
X116.601 Y37.074
X116.33 Y36.6
X116.057 Y36.018
X115.832 Y35.417
X115.644 Y34.803
X115.488 Y34.18
X115.358 Y33.551
X115.251 Y32.918
X115.164 Y32.281
X115.096 Y31.643
X115.044 Y31.003
X115.007 Y30.362
X114.985 Y29.72
X114.977 Y29.078
X114.983 Y28.436
X115.002 Y27.794
X115.035 Y27.152
X115.083 Y26.512
X115.147 Y25.873
X115.23 Y25.236
X115.338 Y24.603
X115.48 Y23.988
X115.608 Y23.582
X115.723 Y23.301
X115.801 Y23.145
X115.917 Y22.978
X116.074 Y22.848
X116.261 Y22.766
X116.463 Y22.738
X117.714
G3 X117.891 Y23.312 I-0.011 J0.317
G1 X117.834 Y23.353 Z-1.492
X117.78 Y23.393 Z-1.469
X117.731 Y23.429 Z-1.431
X117.691 Y23.459 Z-1.38
X117.66 Y23.481 Z-1.32
X117.641 Y23.495 Z-1.253
X117.635 Y23.499 Z-1.182
Z5
X119.981 Y38.428
Z-0.865
Z-1.182
X119.974 Y38.432 Z-1.253
X119.954 Y38.444 Z-1.32
X119.921 Y38.463 Z-1.38
X119.878 Y38.489 Z-1.431
X119.826 Y38.52 Z-1.469
X119.769 Y38.554 Z-1.492
X119.708 Y38.59 Z-1.5
G3 X118.954 Y38.812 I-0.809 J-1.36
G1 X117.721
X117.572 Y38.804
X117.423 Y38.782
X117.278 Y38.746
X117.117 Y38.691
X116.954 Y38.621
X116.761 Y38.519
X116.57 Y38.398
X116.352 Y38.233
X116.129 Y38.034
X115.885 Y37.779
X115.637 Y37.474
X115.367 Y37.081
X115.103 Y36.622
X114.829 Y36.041
X114.601 Y35.441
X114.412 Y34.827
X114.254 Y34.205
X114.123 Y33.576
X114.015 Y32.943
X113.927 Y32.307
X113.857 Y31.668
X113.804 Y31.029
X113.766 Y30.387
X113.742 Y29.746
X113.733 Y29.104
X113.737 Y28.461
X113.754 Y27.819
X113.786 Y27.178
X113.832 Y26.538
X113.894 Y25.898
X113.976 Y25.261
X114.083 Y24.628
X114.222 Y24.015
X114.35 Y23.601
X114.467 Y23.312
X114.548 Y23.148
X114.664 Y22.98
X114.822 Y22.849
X115.009 Y22.767
X115.211 Y22.738
X116.463
G3 X116.639 Y23.312 I-0.011 J0.317
G1 X116.582 Y23.353 Z-1.492
X116.528 Y23.393 Z-1.469
X116.48 Y23.429 Z-1.431
X116.439 Y23.459 Z-1.38
X116.409 Y23.481 Z-1.32
X116.39 Y23.495 Z-1.253
X116.383 Y23.499 Z-1.182
Z5
X118.748 Y38.428
Z-0.865
Z-1.182
X118.741 Y38.432 Z-1.253
X118.721 Y38.444 Z-1.32
X118.688 Y38.463 Z-1.38
X118.645 Y38.489 Z-1.431
X118.593 Y38.52 Z-1.469
X118.536 Y38.554 Z-1.492
X118.475 Y38.59 Z-1.5
G3 X117.721 Y38.812 I-0.809 J-1.36
G1 X116.474
X116.324 Y38.804
X116.176 Y38.781
X116.031 Y38.744
X115.871 Y38.689
X115.704 Y38.616
X115.509 Y38.512
X115.319 Y38.389
X115.096 Y38.219
X114.878 Y38.022
X114.627 Y37.758
X114.384 Y37.455
X114.115 Y37.059
X113.843 Y36.581
X113.572 Y35.999
X113.347 Y35.397
X113.16 Y34.783
X113.004 Y34.16
X112.874 Y33.531
X112.767 Y32.898
X112.68 Y32.262
X112.611 Y31.623
X112.558 Y30.983
X112.521 Y30.342
X112.497 Y29.7
X112.488 Y29.058
X112.492 Y28.416
X112.51 Y27.774
X112.541 Y27.133
X112.588 Y26.492
X112.651 Y25.853
X112.734 Y25.216
X112.841 Y24.583
X112.982 Y23.974
X113.109 Y23.574
X113.223 Y23.297
X113.3 Y23.145
X113.416 Y22.977
X113.573 Y22.848
X113.759 Y22.766
X113.961 Y22.738
X115.211
G3 X115.388 Y23.312 I-0.011 J0.317
G1 X115.331 Y23.353 Z-1.492
X115.277 Y23.393 Z-1.469
X115.228 Y23.429 Z-1.431
X115.188 Y23.459 Z-1.38
X115.157 Y23.481 Z-1.32
X115.139 Y23.495 Z-1.253
X115.132 Y23.499 Z-1.182
Z5
X117.5 Y38.428
Z-0.865
Z-1.182
X117.494 Y38.432 Z-1.253
X117.473 Y38.444 Z-1.32
X117.441 Y38.463 Z-1.38
X117.398 Y38.489 Z-1.431
X117.346 Y38.52 Z-1.469
X117.288 Y38.554 Z-1.492
X117.228 Y38.59 Z-1.5
G3 X116.474 Y38.812 I-0.809 J-1.36
G1 X115.241
X115.091 Y38.804
X114.943 Y38.781
X114.798 Y38.745
X114.636 Y38.69
X114.472 Y38.619
X114.28 Y38.517
X114.087 Y38.394
X113.87 Y38.228
X113.645 Y38.028
X113.401 Y37.771
X113.152 Y37.463
X112.881 Y37.067
X112.617 Y36.605
X112.344 Y36.024
X112.117 Y35.423
X111.928 Y34.809
X111.771 Y34.187
X111.639 Y33.558
X111.531 Y32.925
X111.442 Y32.289
X111.372 Y31.651
X111.318 Y31.011
X111.279 Y30.37
X111.254 Y29.728
X111.243 Y29.086
X111.246 Y28.444
X111.262 Y27.802
X111.293 Y27.16
X111.338 Y26.52
X111.399 Y25.88
X111.48 Y25.243
X111.587 Y24.61
X111.724 Y24.003
X111.852 Y23.595
X111.968 Y23.308
X112.048 Y23.148
X112.164 Y22.979
X112.321 Y22.849
X112.508 Y22.767
X112.71 Y22.738
X113.961
G3 X114.138 Y23.312 I-0.011 J0.317
G1 X114.081 Y23.353 Z-1.492
X114.026 Y23.393 Z-1.469
X113.978 Y23.429 Z-1.431
X113.937 Y23.459 Z-1.38
X113.907 Y23.481 Z-1.32
X113.888 Y23.495 Z-1.253
X113.882 Y23.499 Z-1.182
Z5
X116.268 Y38.428
Z-0.865
Z-1.182
X116.261 Y38.432 Z-1.253
X116.241 Y38.444 Z-1.32
X116.208 Y38.463 Z-1.38
X116.165 Y38.489 Z-1.431
X116.113 Y38.52 Z-1.469
X116.056 Y38.554 Z-1.492
X115.995 Y38.59 Z-1.5
G3 X115.241 Y38.812 I-0.809 J-1.36
G1 X113.994
X113.844 Y38.804
X113.696 Y38.781
X113.551 Y38.743
X113.389 Y38.687
X113.223 Y38.614
X113.028 Y38.509
X112.836 Y38.385
X112.614 Y38.215
X112.394 Y38.016
X112.144 Y37.751
X111.899 Y37.445
X111.629 Y37.046
X111.357 Y36.565
X111.087 Y35.982
X110.863 Y35.38
X110.676 Y34.766
X110.52 Y34.143
X110.39 Y33.514
X110.283 Y32.881
X110.195 Y32.245
X110.125 Y31.606
X110.072 Y30.967
X110.033 Y30.325
X110.009 Y29.684
X109.998 Y29.042
X110.001 Y28.399
X110.018 Y27.758
X110.048 Y27.116
X110.094 Y26.475
X110.156 Y25.836
X110.238 Y25.199
X110.346 Y24.566
X110.486 Y23.963
X110.612 Y23.567
X110.725 Y23.293
X110.8 Y23.144
X110.916 Y22.977
X111.073 Y22.848
X111.259 Y22.766
X111.461 Y22.738
X112.71
G3 X112.887 Y23.312 I-0.011 J0.317
G1 X112.83 Y23.353 Z-1.492
X112.776 Y23.393 Z-1.469
X112.728 Y23.429 Z-1.431
X112.687 Y23.459 Z-1.38
X112.657 Y23.481 Z-1.32
X112.638 Y23.495 Z-1.253
X112.631 Y23.499 Z-1.182
Z5
X115.02 Y38.428
Z-0.865
Z-1.182
X115.013 Y38.432 Z-1.253
X114.993 Y38.444 Z-1.32
X114.961 Y38.463 Z-1.38
X114.918 Y38.489 Z-1.431
X114.866 Y38.52 Z-1.469
X114.808 Y38.554 Z-1.492
X114.747 Y38.59 Z-1.5
G3 X113.994 Y38.812 I-0.809 J-1.36
G1 X112.761
X112.611 Y38.804
X112.463 Y38.781
X112.318 Y38.744
X112.155 Y38.689
X111.991 Y38.618
X111.799 Y38.515
X111.605 Y38.39
X111.388 Y38.225
X111.161 Y38.022
X110.918 Y37.765
X110.667 Y37.454
X110.396 Y37.056
X110.131 Y36.591
X109.859 Y36.009
X109.633 Y35.408
X109.444 Y34.794
X109.286 Y34.172
X109.155 Y33.543
X109.046 Y32.91
X108.957 Y32.274
X108.886 Y31.636
X108.831 Y30.996
X108.791 Y30.355
X108.766 Y29.714
X108.754 Y29.071
X108.755 Y28.429
X108.77 Y27.787
X108.8 Y27.146
X108.844 Y26.505
X108.904 Y25.866
X108.985 Y25.229
X109.092 Y24.595
X109.228 Y23.994
X109.355 Y23.59
X109.47 Y23.305
X109.549 Y23.147
X109.664 Y22.979
X109.822 Y22.849
X110.009 Y22.767
X110.211 Y22.738
X111.461
G3 X111.637 Y23.312 I-0.011 J0.317
G1 X111.58 Y23.353 Z-1.492
X111.526 Y23.393 Z-1.469
X111.478 Y23.429 Z-1.431
X111.437 Y23.459 Z-1.38
X111.407 Y23.481 Z-1.32
X111.388 Y23.495 Z-1.253
X111.381 Y23.499 Z-1.182
Z5
X113.787 Y38.428
Z-0.865
Z-1.182
X113.781 Y38.432 Z-1.253
X113.76 Y38.444 Z-1.32
X113.728 Y38.463 Z-1.38
X113.685 Y38.489 Z-1.431
X113.633 Y38.52 Z-1.469
X113.575 Y38.554 Z-1.492
X113.515 Y38.59 Z-1.5
G3 X112.761 Y38.812 I-0.809 J-1.36
G1 X111.514
X111.364 Y38.804
X111.216 Y38.78
X111.07 Y38.743
X110.908 Y38.686
X110.742 Y38.613
X110.547 Y38.507
X110.354 Y38.382
X110.132 Y38.212
X109.91 Y38.011
X109.662 Y37.746
X109.415 Y37.437
X109.144 Y37.036
X108.871 Y36.552
X108.602 Y35.969
X108.378 Y35.367
X108.192 Y34.753
X108.036 Y34.13
X107.906 Y33.501
X107.798 Y32.868
X107.71 Y32.232
X107.639 Y31.593
X107.585 Y30.954
X107.545 Y30.313
X107.52 Y29.671
X107.508 Y29.029
X107.51 Y28.387
X107.526 Y27.745
X107.555 Y27.103
X107.6 Y26.463
X107.661 Y25.823
X107.743 Y25.186
X107.851 Y24.553
X107.99 Y23.954
X108.115 Y23.562
X108.227 Y23.29
X108.302 Y23.144
X108.418 Y22.977
X108.575 Y22.848
X108.761 Y22.766
X108.962 Y22.738
X110.211
G3 X110.388 Y23.312 I-0.011 J0.317
G1 X110.331 Y23.353 Z-1.492
X110.277 Y23.393 Z-1.469
X110.228 Y23.429 Z-1.431
X110.188 Y23.459 Z-1.38
X110.157 Y23.481 Z-1.32
X110.138 Y23.495 Z-1.253
X110.132 Y23.499 Z-1.182
Z5
X112.54 Y38.428
Z-0.865
Z-1.182
X112.533 Y38.432 Z-1.253
X112.513 Y38.444 Z-1.32
X112.481 Y38.463 Z-1.38
X112.437 Y38.489 Z-1.431
X112.386 Y38.52 Z-1.469
X112.328 Y38.554 Z-1.492
X112.267 Y38.59 Z-1.5
G3 X111.514 Y38.812 I-0.809 J-1.36
G1 X110.281
X110.131 Y38.804
X109.983 Y38.781
X109.837 Y38.744
X109.674 Y38.688
X109.51 Y38.616
X109.318 Y38.514
X109.123 Y38.388
X108.906 Y38.222
X108.678 Y38.018
X108.436 Y37.761
X108.184 Y37.448
X107.912 Y37.048
X107.646 Y36.58
X107.374 Y35.999
X107.149 Y35.397
X106.96 Y34.783
X106.802 Y34.161
X106.671 Y33.532
X106.561 Y32.9
X106.472 Y32.264
X106.4 Y31.626
X106.344 Y30.986
X106.303 Y30.345
X106.277 Y29.703
X106.264 Y29.061
Y28.419
X106.278 Y27.777
X106.307 Y27.135
X106.35 Y26.495
X106.41 Y25.855
X106.49 Y25.218
X106.596 Y24.585
X106.732 Y23.987
X106.858 Y23.586
X106.972 Y23.303
X107.051 Y23.147
X107.166 Y22.979
X107.324 Y22.849
X107.511 Y22.767
X107.713 Y22.738
X108.962
G3 X109.139 Y23.312 I-0.011 J0.317
G1 X109.082 Y23.353 Z-1.492
X109.028 Y23.393 Z-1.469
X108.979 Y23.429 Z-1.431
X108.939 Y23.459 Z-1.38
X108.908 Y23.481 Z-1.32
X108.889 Y23.495 Z-1.253
X108.883 Y23.499 Z-1.182
Z5
X111.307 Y38.428
Z-0.865
Z-1.182
X111.3 Y38.432 Z-1.253
X111.28 Y38.444 Z-1.32
X111.248 Y38.463 Z-1.38
X111.204 Y38.489 Z-1.431
X111.153 Y38.52 Z-1.469
X111.095 Y38.554 Z-1.492
X111.034 Y38.59 Z-1.5
G3 X110.281 Y38.812 I-0.809 J-1.36
G1 X109.033
X108.884 Y38.804
X108.735 Y38.78
X108.59 Y38.742
X108.427 Y38.685
X108.261 Y38.612
X108.066 Y38.506
X107.872 Y38.381
X107.651 Y38.21
X107.428 Y38.008
X107.179 Y37.743
X106.932 Y37.432
X106.66 Y37.029
X106.387 Y36.544
X106.118 Y35.96
X105.895 Y35.358
X105.708 Y34.744
X105.552 Y34.121
X105.421 Y33.492
X105.313 Y32.859
X105.224 Y32.223
X105.153 Y31.585
X105.098 Y30.945
X105.057 Y30.304
X105.031 Y29.663
X105.018 Y29.021
X105.019 Y28.378
X105.034 Y27.736
X105.062 Y27.095
X105.106 Y26.454
X105.167 Y25.815
X105.248 Y25.178
X105.355 Y24.545
X105.494 Y23.949
X105.619 Y23.559
X105.731 Y23.288
X105.804 Y23.143
X105.92 Y22.977
X106.077 Y22.848
X106.263 Y22.766
X106.465 Y22.738
X107.713
G3 X107.89 Y23.312 I-0.011 J0.317
G1 X107.833 Y23.353 Z-1.492
X107.779 Y23.393 Z-1.469
X107.73 Y23.429 Z-1.431
X107.69 Y23.459 Z-1.38
X107.659 Y23.481 Z-1.32
X107.64 Y23.495 Z-1.253
X107.634 Y23.499 Z-1.182
Z5
X110.06 Y38.428
Z-0.865
Z-1.182
X110.053 Y38.432 Z-1.253
X110.033 Y38.444 Z-1.32
X110 Y38.463 Z-1.38
X109.957 Y38.489 Z-1.431
X109.905 Y38.52 Z-1.469
X109.848 Y38.554 Z-1.492
X109.787 Y38.59 Z-1.5
G3 X109.033 Y38.812 I-0.809 J-1.36
G1 X107.801
X107.651 Y38.804
X107.503 Y38.781
X107.357 Y38.744
X107.193 Y38.687
X107.029 Y38.616
X106.837 Y38.513
X106.641 Y38.387
X106.425 Y38.221
X106.196 Y38.015
X105.954 Y37.759
X105.701 Y37.444
X105.428 Y37.043
X105.162 Y36.574
X104.891 Y35.992
X104.665 Y35.391
X104.476 Y34.777
X104.318 Y34.155
X104.186 Y33.526
X104.076 Y32.893
X103.986 Y32.258
X103.913 Y31.62
X103.857 Y30.98
X103.815 Y30.339
X103.788 Y29.697
X103.774 Y29.055
X103.773 Y28.413
X103.787 Y27.771
X103.814 Y27.13
X103.856 Y26.489
X103.915 Y25.849
X103.995 Y25.212
X104.101 Y24.579
X104.237 Y23.983
X104.362 Y23.585
X104.476 Y23.302
X104.554 Y23.147
X104.669 Y22.979
X104.827 Y22.849
X105.014 Y22.767
X105.216 Y22.738
X106.465
G3 X106.641 Y23.312 I-0.011 J0.317
G1 X106.584 Y23.353 Z-1.492
X106.53 Y23.393 Z-1.469
X106.482 Y23.429 Z-1.431
X106.441 Y23.459 Z-1.38
X106.411 Y23.481 Z-1.32
X106.392 Y23.495 Z-1.253
X106.385 Y23.499 Z-1.182
Z5
X108.827 Y38.428
Z-0.865
Z-1.182
X108.82 Y38.432 Z-1.253
X108.8 Y38.444 Z-1.32
X108.767 Y38.463 Z-1.38
X108.724 Y38.489 Z-1.431
X108.673 Y38.52 Z-1.469
X108.615 Y38.554 Z-1.492
X108.554 Y38.59 Z-1.5
G3 X107.801 Y38.812 I-0.809 J-1.36
G1 X106.553
X106.403 Y38.804
X106.255 Y38.78
X106.11 Y38.742
X105.946 Y38.685
X105.781 Y38.612
X105.585 Y38.506
X105.391 Y38.38
X105.17 Y38.21
X104.946 Y38.006
X104.698 Y37.742
X104.449 Y37.43
X104.177 Y37.026
X103.904 Y36.539
X103.635 Y35.956
X103.411 Y35.354
X103.224 Y34.74
X103.068 Y34.117
X102.937 Y33.488
X102.828 Y32.855
X102.738 Y32.219
X102.666 Y31.581
X102.61 Y30.941
X102.569 Y30.301
X102.542 Y29.659
X102.528 Y29.017
Y28.375
X102.542 Y27.733
X102.57 Y27.091
X102.613 Y26.45
X102.673 Y25.811
X102.753 Y25.174
X102.86 Y24.541
X102.999 Y23.947
X103.123 Y23.558
X103.234 Y23.288
X103.308 Y23.144
X103.424 Y22.977
X103.581 Y22.848
X103.767 Y22.766
X103.968 Y22.738
X105.216
G3 X105.393 Y23.312 I-0.011 J0.317
G1 X105.336 Y23.353 Z-1.492
X105.282 Y23.393 Z-1.469
X105.233 Y23.429 Z-1.431
X105.193 Y23.459 Z-1.38
X105.162 Y23.481 Z-1.32
X105.143 Y23.495 Z-1.253
X105.137 Y23.499 Z-1.182
Z5
X107.58 Y38.428
Z-0.865
Z-1.182
X107.573 Y38.432 Z-1.253
X107.553 Y38.444 Z-1.32
X107.52 Y38.463 Z-1.38
X107.477 Y38.489 Z-1.431
X107.425 Y38.52 Z-1.469
X107.367 Y38.554 Z-1.492
X107.307 Y38.59 Z-1.5
G3 X106.553 Y38.812 I-0.809 J-1.36
G1 X105.32
X105.171 Y38.804
X105.022 Y38.781
X104.877 Y38.744
X104.713 Y38.687
X104.549 Y38.616
X104.357 Y38.513
X104.16 Y38.387
X103.944 Y38.221
X103.715 Y38.015
X103.473 Y37.759
X103.219 Y37.443
X102.946 Y37.042
X102.679 Y36.572
X102.408 Y35.99
X102.182 Y35.389
X101.993 Y34.775
X101.834 Y34.153
X101.702 Y33.524
X101.591 Y32.892
X101.5 Y32.256
X101.427 Y31.618
X101.369 Y30.978
X101.327 Y30.338
X101.298 Y29.696
X101.284 Y29.054
X101.282 Y28.412
X101.295 Y27.77
X101.321 Y27.128
X101.363 Y26.487
X101.421 Y25.848
X101.5 Y25.21
X101.606 Y24.577
X101.741 Y23.983
X101.866 Y23.585
X101.98 Y23.303
X102.057 Y23.147
X102.173 Y22.979
X102.331 Y22.849
X102.518 Y22.767
X102.72 Y22.738
X103.968
G3 X104.145 Y23.312 I-0.011 J0.317
G1 X104.088 Y23.353 Z-1.492
X104.034 Y23.393 Z-1.469
X103.985 Y23.429 Z-1.431
X103.945 Y23.459 Z-1.38
X103.914 Y23.481 Z-1.32
X103.895 Y23.495 Z-1.253
X103.889 Y23.499 Z-1.182
Z5
X106.347 Y38.428
Z-0.865
Z-1.182
X106.34 Y38.432 Z-1.253
X106.32 Y38.444 Z-1.32
X106.287 Y38.463 Z-1.38
X106.244 Y38.489 Z-1.431
X106.192 Y38.52 Z-1.469
X106.135 Y38.554 Z-1.492
X106.074 Y38.59 Z-1.5
G3 X105.32 Y38.812 I-0.809 J-1.36
G1 X104.073
X103.923 Y38.804
X103.775 Y38.78
X103.63 Y38.742
X103.466 Y38.685
X103.3 Y38.612
X103.105 Y38.507
X102.911 Y38.38
X102.69 Y38.21
X102.465 Y38.007
X102.217 Y37.743
X101.968 Y37.43
X101.695 Y37.026
X101.421 Y36.539
X101.152 Y35.956
X100.928 Y35.354
X100.741 Y34.74
X100.584 Y34.117
X100.452 Y33.489
X100.343 Y32.856
X100.252 Y32.22
X100.18 Y31.582
X100.123 Y30.942
X100.081 Y30.301
X100.053 Y29.66
X100.038 Y29.018
X100.037 Y28.376
X100.05 Y27.734
X100.077 Y27.092
X100.119 Y26.451
X100.178 Y25.812
X100.258 Y25.175
X100.365 Y24.541
X100.503 Y23.948
X100.627 Y23.56
X100.738 Y23.289
X100.812 Y23.144
X100.928 Y22.977
X101.085 Y22.848
X101.271 Y22.766
X101.472 Y22.738
X102.72
G3 X102.897 Y23.312 I-0.011 J0.317
G1 X102.84 Y23.353 Z-1.492
X102.786 Y23.393 Z-1.469
X102.737 Y23.429 Z-1.431
X102.696 Y23.459 Z-1.38
X102.666 Y23.481 Z-1.32
X102.647 Y23.495 Z-1.253
X102.641 Y23.499 Z-1.182
Z5
X105.099 Y38.428
Z-0.865
Z-1.182
X105.093 Y38.432 Z-1.253
X105.072 Y38.444 Z-1.32
X105.04 Y38.463 Z-1.38
X104.997 Y38.489 Z-1.431
X104.945 Y38.52 Z-1.469
X104.887 Y38.554 Z-1.492
X104.826 Y38.59 Z-1.5
G3 X104.073 Y38.812 I-0.809 J-1.36
G1 X102.84
X102.69 Y38.804
X102.542 Y38.781
X102.397 Y38.744
X102.232 Y38.688
X102.069 Y38.616
X101.877 Y38.514
X101.68 Y38.387
X101.464 Y38.222
X101.234 Y38.016
X100.992 Y37.76
X100.738 Y37.445
X100.465 Y37.043
X100.198 Y36.574
X99.926 Y35.992
X99.7 Y35.391
X99.51 Y34.777
X99.351 Y34.155
X99.217 Y33.527
X99.106 Y32.894
X99.014 Y32.259
X98.94 Y31.621
X98.882 Y30.981
X98.838 Y30.341
X98.809 Y29.699
X98.794 Y29.057
X98.791 Y28.415
X98.803 Y27.773
X98.828 Y27.131
X98.869 Y26.49
X98.927 Y25.851
X99.005 Y25.213
X99.111 Y24.58
X99.245 Y23.986
X99.37 Y23.587
X99.483 Y23.305
X99.562 Y23.148
X99.678 Y22.98
X99.835 Y22.849
X100.022 Y22.767
X100.224 Y22.738
X101.472
G3 X101.649 Y23.312 I-0.011 J0.317
G1 X101.592 Y23.353 Z-1.492
X101.538 Y23.393 Z-1.469
X101.489 Y23.429 Z-1.431
X101.449 Y23.459 Z-1.38
X101.418 Y23.481 Z-1.32
X101.399 Y23.495 Z-1.253
X101.393 Y23.499 Z-1.182
Z5
X103.867 Y38.428
Z-0.865
Z-1.182
X103.86 Y38.432 Z-1.253
X103.84 Y38.444 Z-1.32
X103.807 Y38.463 Z-1.38
X103.764 Y38.489 Z-1.431
X103.712 Y38.52 Z-1.469
X103.654 Y38.554 Z-1.492
X103.594 Y38.59 Z-1.5
G3 X102.84 Y38.812 I-0.809 J-1.36
G1 X101.593
X101.443 Y38.804
X101.295 Y38.78
X101.15 Y38.743
X100.986 Y38.686
X100.82 Y38.613
X100.625 Y38.508
X100.43 Y38.382
X100.21 Y38.212
X99.985 Y38.009
X99.737 Y37.745
X99.488 Y37.433
X99.215 Y37.029
X98.94 Y36.543
X98.671 Y35.96
X98.446 Y35.358
X98.258 Y34.744
X98.1 Y34.122
X97.968 Y33.493
X97.858 Y32.861
X97.767 Y32.225
X97.693 Y31.587
X97.635 Y30.947
X97.592 Y30.307
X97.563 Y29.665
X97.548 Y29.023
X97.546 Y28.381
X97.558 Y27.739
X97.584 Y27.097
X97.625 Y26.456
X97.684 Y25.817
X97.764 Y25.18
X97.869 Y24.546
X98.007 Y23.952
X98.131 Y23.563
X98.242 Y23.291
X98.316 Y23.145
X98.432 Y22.977
X98.589 Y22.848
X98.776 Y22.766
X98.977 Y22.738
X100.224
G3 X100.401 Y23.312 I-0.011 J0.317
G1 X100.344 Y23.353 Z-1.492
X100.29 Y23.393 Z-1.469
X100.242 Y23.429 Z-1.431
X100.201 Y23.459 Z-1.38
X100.171 Y23.481 Z-1.32
X100.152 Y23.495 Z-1.253
X100.145 Y23.499 Z-1.182
Z5
X102.619 Y38.428
Z-0.865
Z-1.182
X102.612 Y38.432 Z-1.253
X102.592 Y38.444 Z-1.32
X102.56 Y38.463 Z-1.38
X102.516 Y38.489 Z-1.431
X102.465 Y38.52 Z-1.469
X102.407 Y38.554 Z-1.492
X102.346 Y38.59 Z-1.5
G3 X101.593 Y38.812 I-0.809 J-1.36
G1 X100.36
X100.21 Y38.804
X100.062 Y38.781
X99.916 Y38.745
X99.752 Y38.688
X99.589 Y38.617
X99.397 Y38.515
X99.2 Y38.389
X98.984 Y38.224
X98.755 Y38.019
X98.512 Y37.764
X98.258 Y37.449
X97.985 Y37.048
X97.717 Y36.579
X97.445 Y35.997
X97.218 Y35.397
X97.027 Y34.783
X96.867 Y34.161
X96.733 Y33.533
X96.621 Y32.901
X96.529 Y32.265
X96.453 Y31.628
X96.394 Y30.988
X96.35 Y30.348
X96.32 Y29.706
X96.303 Y29.064
X96.3 Y28.422
X96.311 Y27.78
X96.336 Y27.138
X96.376 Y26.497
X96.433 Y25.858
X96.51 Y25.22
X96.615 Y24.587
X96.749 Y23.991
X96.873 Y23.591
X96.987 Y23.308
X97.067 Y23.149
X97.182 Y22.98
X97.34 Y22.849
X97.527 Y22.767
X97.73 Y22.738
X98.977
G3 X99.154 Y23.312 I-0.011 J0.317
G1 X99.097 Y23.353 Z-1.492
X99.043 Y23.393 Z-1.469
X98.994 Y23.429 Z-1.431
X98.954 Y23.459 Z-1.38
X98.923 Y23.481 Z-1.32
X98.904 Y23.495 Z-1.253
X98.898 Y23.499 Z-1.182
Z5
X101.386 Y38.428
Z-0.865
Z-1.182
X101.38 Y38.432 Z-1.253
X101.359 Y38.444 Z-1.32
X101.327 Y38.463 Z-1.38
X101.284 Y38.489 Z-1.431
X101.232 Y38.52 Z-1.469
X101.174 Y38.554 Z-1.492
X101.113 Y38.59 Z-1.5
G3 X100.36 Y38.812 I-0.809 J-1.36
G1 X99.112
X98.963 Y38.804
X98.815 Y38.781
X98.669 Y38.743
X98.506 Y38.687
X98.34 Y38.614
X98.145 Y38.509
X97.951 Y38.384
X97.73 Y38.215
X97.506 Y38.012
X97.258 Y37.749
X97.008 Y37.438
X96.735 Y37.035
X96.46 Y36.55
X96.19 Y35.967
X95.965 Y35.366
X95.776 Y34.752
X95.617 Y34.13
X95.484 Y33.502
X95.373 Y32.869
X95.281 Y32.234
X95.206 Y31.596
X95.148 Y30.956
X95.104 Y30.316
X95.074 Y29.674
X95.058 Y29.032
X95.055 Y28.39
X95.066 Y27.748
X95.091 Y27.106
X95.132 Y26.465
X95.19 Y25.826
X95.269 Y25.188
X95.374 Y24.555
X95.511 Y23.959
X95.635 Y23.568
X95.746 Y23.295
X95.821 Y23.146
X95.937 Y22.978
X96.094 Y22.848
X96.281 Y22.766
X96.483 Y22.738
X97.73
G3 X97.906 Y23.312 I-0.011 J0.317
G1 X97.849 Y23.353 Z-1.492
X97.795 Y23.393 Z-1.469
X97.747 Y23.429 Z-1.431
X97.706 Y23.459 Z-1.38
X97.676 Y23.481 Z-1.32
X97.657 Y23.495 Z-1.253
X97.65 Y23.499 Z-1.182
Z5
X100.139 Y38.428
Z-0.865
Z-1.182
X100.132 Y38.432 Z-1.253
X100.112 Y38.444 Z-1.32
X100.079 Y38.463 Z-1.38
X100.036 Y38.489 Z-1.431
X99.984 Y38.52 Z-1.469
X99.927 Y38.554 Z-1.492
X99.866 Y38.59 Z-1.5
G3 X99.112 Y38.812 I-0.809 J-1.36
G1 X97.88
X97.73 Y38.804
X97.582 Y38.781
X97.436 Y38.745
X97.272 Y38.689
X97.109 Y38.619
X96.917 Y38.517
X96.721 Y38.392
X96.505 Y38.228
X96.276 Y38.023
X96.033 Y37.769
X95.779 Y37.455
X95.506 Y37.055
X95.238 Y36.588
X94.964 Y36.007
X94.736 Y35.406
X94.545 Y34.793
X94.384 Y34.171
X94.249 Y33.544
X94.136 Y32.911
X94.043 Y32.276
X93.967 Y31.638
X93.907 Y30.999
X93.862 Y30.358
X93.831 Y29.717
X93.813 Y29.075
X93.809 Y28.433
X93.819 Y27.791
X93.843 Y27.149
X93.882 Y26.508
X93.938 Y25.868
X94.015 Y25.231
X94.119 Y24.597
X94.253 Y24
X94.377 Y23.597
X94.491 Y23.312
X94.572 Y23.15
X94.687 Y22.981
X94.845 Y22.85
X95.032 Y22.767
X95.235 Y22.738
X96.483
G3 X96.659 Y23.312 I-0.011 J0.317
G1 X96.602 Y23.353 Z-1.492
X96.548 Y23.393 Z-1.469
X96.5 Y23.429 Z-1.431
X96.459 Y23.459 Z-1.38
X96.429 Y23.481 Z-1.32
X96.41 Y23.495 Z-1.253
X96.403 Y23.499 Z-1.182
Z5
X98.906 Y38.428
Z-0.865
Z-1.182
X98.899 Y38.432 Z-1.253
X98.879 Y38.444 Z-1.32
X98.847 Y38.463 Z-1.38
X98.803 Y38.489 Z-1.431
X98.752 Y38.52 Z-1.469
X98.694 Y38.554 Z-1.492
X98.633 Y38.59 Z-1.5
G3 X97.88 Y38.812 I-0.809 J-1.36
G1 X96.632
X96.482 Y38.804
X96.334 Y38.781
X96.189 Y38.744
X96.026 Y38.688
X95.861 Y38.616
X95.665 Y38.511
X95.472 Y38.387
X95.251 Y38.218
X95.027 Y38.017
X94.779 Y37.755
X94.529 Y37.445
X94.256 Y37.044
X93.981 Y36.561
X93.71 Y35.979
X93.483 Y35.378
X93.294 Y34.764
X93.134 Y34.142
X93 Y33.514
X92.888 Y32.882
X92.795 Y32.246
X92.72 Y31.609
X92.66 Y30.969
X92.615 Y30.329
X92.585 Y29.687
X92.568 Y29.045
X92.564 Y28.403
X92.574 Y27.761
X92.599 Y27.119
X92.638 Y26.478
X92.696 Y25.839
X92.773 Y25.201
X92.878 Y24.567
X93.014 Y23.969
X93.138 Y23.575
X93.25 Y23.299
X93.326 Y23.147
X93.442 Y22.979
X93.6 Y22.849
X93.786 Y22.766
X93.989 Y22.738
X95.235
G3 X95.412 Y23.312 I-0.011 J0.317
G1 X95.355 Y23.353 Z-1.492
X95.301 Y23.393 Z-1.469
X95.252 Y23.429 Z-1.431
X95.212 Y23.459 Z-1.38
X95.181 Y23.481 Z-1.32
X95.163 Y23.495 Z-1.253
X95.156 Y23.499 Z-1.182
Z5
X97.659 Y38.428
Z-0.865
Z-1.182
X97.652 Y38.432 Z-1.253
X97.632 Y38.444 Z-1.32
X97.599 Y38.463 Z-1.38
X97.556 Y38.489 Z-1.431
X97.504 Y38.52 Z-1.469
X97.447 Y38.554 Z-1.492
X97.386 Y38.59 Z-1.5
G3 X96.632 Y38.812 I-0.809 J-1.36
G1 X95.399
X95.25 Y38.804
X95.101 Y38.782
X94.956 Y38.746
X94.793 Y38.691
X94.629 Y38.621
X94.437 Y38.519
X94.242 Y38.395
X94.026 Y38.232
X93.797 Y38.029
X93.555 Y37.775
X93.301 Y37.463
X93.027 Y37.065
X92.759 Y36.6
X92.484 Y36.019
X92.255 Y35.419
X92.063 Y34.806
X91.901 Y34.185
X91.765 Y33.557
X91.652 Y32.925
X91.557 Y32.29
X91.48 Y31.653
X91.419 Y31.013
X91.373 Y30.373
X91.342 Y29.731
X91.323 Y29.089
X91.319 Y28.447
X91.327 Y27.805
X91.35 Y27.163
X91.389 Y26.522
X91.444 Y25.883
X91.52 Y25.245
X91.623 Y24.611
X91.756 Y24.011
X91.881 Y23.605
X91.995 Y23.317
X92.077 Y23.151
X92.193 Y22.981
X92.351 Y22.85
X92.538 Y22.767
X92.742 Y22.738
X93.989
G3 X94.165 Y23.312 I-0.011 J0.317
G1 X94.108 Y23.353 Z-1.492
X94.054 Y23.393 Z-1.469
X94.006 Y23.429 Z-1.431
X93.965 Y23.459 Z-1.38
X93.935 Y23.481 Z-1.32
X93.916 Y23.495 Z-1.253
X93.909 Y23.499 Z-1.182
Z5
X96.426 Y38.428
Z-0.865
Z-1.182
X96.419 Y38.432 Z-1.253
X96.399 Y38.444 Z-1.32
X96.366 Y38.463 Z-1.38
X96.323 Y38.489 Z-1.431
X96.271 Y38.52 Z-1.469
X96.214 Y38.554 Z-1.492
X96.153 Y38.59 Z-1.5
G3 X95.399 Y38.812 I-0.809 J-1.36
G1 X94.152
X94.002 Y38.804
X93.854 Y38.781
X93.709 Y38.745
X93.547 Y38.69
X93.381 Y38.618
X93.186 Y38.514
X92.993 Y38.391
X92.772 Y38.223
X92.549 Y38.024
X92.3 Y37.762
X92.052 Y37.455
X91.779 Y37.055
X91.503 Y36.574
X91.23 Y35.993
X91.003 Y35.393
X90.812 Y34.78
X90.651 Y34.158
X90.516 Y33.53
X90.403 Y32.898
X90.309 Y32.262
X90.233 Y31.625
X90.173 Y30.985
X90.127 Y30.345
X90.096 Y29.704
X90.078 Y29.062
X90.073 Y28.419
X90.083 Y27.777
X90.106 Y27.136
X90.145 Y26.495
X90.201 Y25.855
X90.278 Y25.217
X90.381 Y24.583
X90.518 Y23.981
X90.642 Y23.583
X90.754 Y23.305
X90.832 Y23.148
X90.948 Y22.98
X91.105 Y22.849
X91.292 Y22.767
X91.495 Y22.738
X92.742
G3 X92.918 Y23.312 I-0.011 J0.317
G1 X92.861 Y23.353 Z-1.492
X92.807 Y23.393 Z-1.469
X92.759 Y23.429 Z-1.431
X92.718 Y23.459 Z-1.38
X92.688 Y23.481 Z-1.32
X92.669 Y23.495 Z-1.253
X92.662 Y23.499 Z-1.182
Z5
X95.179 Y38.428
Z-0.865
Z-1.182
X95.172 Y38.432 Z-1.253
X95.151 Y38.444 Z-1.32
X95.119 Y38.463 Z-1.38
X95.076 Y38.489 Z-1.431
X95.024 Y38.52 Z-1.469
X94.966 Y38.554 Z-1.492
X94.906 Y38.59 Z-1.5
G3 X94.152 Y38.812 I-0.809 J-1.36
G1 X92.919
X92.769 Y38.804
X92.621 Y38.782
X92.475 Y38.747
X92.313 Y38.692
X92.15 Y38.623
X91.958 Y38.522
X91.764 Y38.399
X91.547 Y38.236
X91.32 Y38.035
X91.077 Y37.783
X90.823 Y37.473
X90.55 Y37.078
X90.282 Y36.615
X90.005 Y36.035
X89.775 Y35.435
X89.582 Y34.823
X89.419 Y34.202
X89.282 Y33.574
X89.167 Y32.943
X89.072 Y32.307
X88.994 Y31.67
X88.932 Y31.031
X88.885 Y30.39
X88.852 Y29.749
X88.833 Y29.107
X88.828 Y28.465
X88.836 Y27.823
X88.858 Y27.181
X88.895 Y26.54
X88.95 Y25.9
X89.025 Y25.262
X89.127 Y24.628
X89.259 Y24.025
X89.385 Y23.613
X89.499 Y23.323
X89.583 Y23.153
X89.699 Y22.982
X89.856 Y22.85
X90.044 Y22.767
X90.248 Y22.738
X91.495
G3 X91.672 Y23.312 I-0.011 J0.317
G1 X91.615 Y23.353 Z-1.492
X91.561 Y23.393 Z-1.469
X91.512 Y23.429 Z-1.431
X91.471 Y23.459 Z-1.38
X91.441 Y23.481 Z-1.32
X91.422 Y23.495 Z-1.253
X91.416 Y23.499 Z-1.182
Z5
X93.946 Y38.428
Z-0.865
Z-1.182
X93.939 Y38.432 Z-1.253
X93.919 Y38.444 Z-1.32
X93.886 Y38.463 Z-1.38
X93.843 Y38.489 Z-1.431
X93.791 Y38.52 Z-1.469
X93.734 Y38.554 Z-1.492
X93.673 Y38.59 Z-1.5
G3 X92.919 Y38.812 I-0.809 J-1.36
G1 X91.672
X91.522 Y38.804
X91.374 Y38.782
X91.228 Y38.746
X91.068 Y38.692
X90.902 Y38.62
X90.707 Y38.517
X90.515 Y38.395
X90.293 Y38.228
X90.072 Y38.031
X89.823 Y37.77
X89.575 Y37.466
X89.302 Y37.069
X89.026 Y36.591
X88.752 Y36.011
X88.523 Y35.411
X88.331 Y34.798
X88.169 Y34.176
X88.033 Y33.549
X87.919 Y32.917
X87.824 Y32.282
X87.747 Y31.644
X87.685 Y31.005
X87.639 Y30.364
X87.606 Y29.723
X87.588 Y29.081
X87.582 Y28.439
X87.591 Y27.797
X87.614 Y27.155
X87.652 Y26.514
X87.707 Y25.874
X87.783 Y25.237
X87.885 Y24.603
X88.02 Y23.996
X88.145 Y23.593
X88.257 Y23.312
X88.338 Y23.15
X88.454 Y22.981
X88.611 Y22.85
X88.799 Y22.767
X89.001 Y22.738
X90.248
G3 X90.425 Y23.312 I-0.011 J0.317
G1 X90.368 Y23.353 Z-1.492
X90.314 Y23.393 Z-1.469
X90.265 Y23.429 Z-1.431
X90.225 Y23.459 Z-1.38
X90.194 Y23.481 Z-1.32
X90.175 Y23.495 Z-1.253
X90.169 Y23.499 Z-1.182
Z5
X92.698 Y38.428
Z-0.865
Z-1.182
X92.691 Y38.432 Z-1.253
X92.671 Y38.444 Z-1.32
X92.639 Y38.463 Z-1.38
X92.596 Y38.489 Z-1.431
X92.544 Y38.52 Z-1.469
X92.486 Y38.554 Z-1.492
X92.425 Y38.59 Z-1.5
G3 X91.672 Y38.812 I-0.809 J-1.36
G1 X90.439
X90.289 Y38.804
X90.141 Y38.783
X89.995 Y38.748
X89.834 Y38.694
X89.671 Y38.625
X89.478 Y38.525
X89.286 Y38.404
X89.068 Y38.242
X88.843 Y38.044
X88.599 Y37.792
X88.347 Y37.485
X88.073 Y37.092
X87.805 Y36.632
X87.527 Y36.053
X87.295 Y35.454
X87.1 Y34.843
X86.936 Y34.222
X86.798 Y33.594
X86.683 Y32.963
X86.586 Y32.328
X86.508 Y31.691
X86.445 Y31.051
X86.397 Y30.411
X86.363 Y29.77
X86.343 Y29.128
X86.337 Y28.486
X86.344 Y27.844
X86.365 Y27.202
X86.402 Y26.561
X86.456 Y25.921
X86.53 Y25.283
X86.631 Y24.649
X86.762 Y24.04
X86.888 Y23.623
X87.003 Y23.33
X87.089 Y23.154
X87.204 Y22.983
X87.362 Y22.851
X87.551 Y22.767
X87.755 Y22.738
X89.001
G3 X89.178 Y23.312 I-0.011 J0.317
G1 X89.121 Y23.353 Z-1.492
X89.067 Y23.393 Z-1.469
X89.019 Y23.429 Z-1.431
X88.978 Y23.459 Z-1.38
X88.948 Y23.481 Z-1.32
X88.929 Y23.495 Z-1.253
X88.922 Y23.499 Z-1.182
Z5
X91.465 Y38.428
Z-0.865
Z-1.182
X91.459 Y38.432 Z-1.253
X91.438 Y38.444 Z-1.32
X91.406 Y38.463 Z-1.38
X91.363 Y38.489 Z-1.431
X91.311 Y38.52 Z-1.469
X91.253 Y38.554 Z-1.492
X91.193 Y38.59 Z-1.5
G3 X90.439 Y38.812 I-0.809 J-1.36
G1 X89.192
X89.042 Y38.804
X88.893 Y38.783
X88.748 Y38.747
X88.589 Y38.694
X88.423 Y38.623
X88.228 Y38.521
X88.037 Y38.401
X87.815 Y38.234
X87.595 Y38.04
X87.345 Y37.78
X87.098 Y37.479
X86.826 Y37.085
X86.55 Y36.611
X86.274 Y36.031
X86.043 Y35.432
X85.85 Y34.819
X85.687 Y34.198
X85.55 Y33.571
X85.434 Y32.939
X85.339 Y32.304
X85.26 Y31.667
X85.198 Y31.028
X85.151 Y30.387
X85.117 Y29.746
X85.098 Y29.104
X85.092 Y28.462
X85.099 Y27.82
X85.121 Y27.178
X85.158 Y26.537
X85.213 Y25.897
X85.287 Y25.259
X85.388 Y24.625
X85.523 Y24.013
X85.648 Y23.605
X85.761 Y23.32
X85.844 Y23.152
X85.959 Y22.982
X86.117 Y22.85
X86.305 Y22.767
X86.508 Y22.738
X87.755
G3 X87.932 Y23.312 I-0.011 J0.317
G1 X87.875 Y23.353 Z-1.492
X87.82 Y23.393 Z-1.469
X87.772 Y23.429 Z-1.431
X87.731 Y23.459 Z-1.38
X87.701 Y23.481 Z-1.32
X87.682 Y23.495 Z-1.253
X87.676 Y23.499 Z-1.182
Z5
X90.218 Y38.428
Z-0.865
Z-1.182
X90.211 Y38.432 Z-1.253
X90.191 Y38.444 Z-1.32
X90.159 Y38.463 Z-1.38
X90.115 Y38.489 Z-1.431
X90.064 Y38.52 Z-1.469
X90.006 Y38.554 Z-1.492
X89.945 Y38.59 Z-1.5
G3 X89.192 Y38.812 I-0.809 J-1.36
G1 X87.959
X87.809 Y38.804
X87.66 Y38.784
X87.514 Y38.749
X87.355 Y38.697
X87.192 Y38.628
X86.999 Y38.529
X86.808 Y38.41
X86.59 Y38.248
X86.367 Y38.053
X86.122 Y37.802
X85.871 Y37.499
X85.597 Y37.109
X85.329 Y36.653
X85.049 Y36.075
X84.816 Y35.476
X84.62 Y34.865
X84.454 Y34.244
X84.315 Y33.617
X84.198 Y32.986
X84.101 Y32.351
X84.021 Y31.714
X83.958 Y31.075
X83.909 Y30.435
X83.874 Y29.793
X83.854 Y29.151
X83.846 Y28.509
X83.853 Y27.867
X83.873 Y27.225
X83.909 Y26.584
X83.961 Y25.944
X84.034 Y25.306
X84.134 Y24.672
X84.265 Y24.058
X84.392 Y23.635
X84.507 Y23.337
X84.621 Y23.104
X84.739 Y22.952
X84.891 Y22.836
X85.069 Y22.763
X85.259 Y22.738
X86.508
G3 X86.685 Y23.312 I-0.011 J0.317
G1 X86.628 Y23.353 Z-1.492
X86.574 Y23.393 Z-1.469
X86.526 Y23.429 Z-1.431
X86.485 Y23.459 Z-1.38
X86.454 Y23.481 Z-1.32
X86.436 Y23.495 Z-1.253
X86.429 Y23.499 Z-1.182
Z5
X88.985 Y38.428
Z-0.865
Z-1.182
X88.978 Y38.432 Z-1.253
X88.958 Y38.444 Z-1.32
X88.926 Y38.463 Z-1.38
X88.883 Y38.489 Z-1.431
X88.831 Y38.52 Z-1.469
X88.773 Y38.554 Z-1.492
X88.712 Y38.59 Z-1.5
G3 X87.959 Y38.812 I-0.809 J-1.36
G1 X86.711
X86.562 Y38.804
X86.413 Y38.783
X86.267 Y38.748
X86.11 Y38.696
X85.944 Y38.626
X85.75 Y38.525
X85.56 Y38.406
X85.337 Y38.241
X85.119 Y38.049
X84.868 Y37.791
X84.623 Y37.493
X84.351 Y37.103
X84.075 Y36.633
X83.797 Y36.054
X83.564 Y35.455
X83.369 Y34.844
X83.205 Y34.223
X83.067 Y33.596
X82.95 Y32.964
X82.854 Y32.329
X82.774 Y31.692
X82.711 Y31.053
X82.663 Y30.413
X82.629 Y29.771
X82.608 Y29.129
X82.601 Y28.487
X82.608 Y27.845
X82.629 Y27.203
X82.665 Y26.562
X82.718 Y25.922
X82.792 Y25.284
X82.891 Y24.65
X83.025 Y24.033
X83.15 Y23.621
X83.269 Y23.318
X83.349 Y23.154
X83.465 Y22.983
X83.623 Y22.851
X83.811 Y22.767
X84.015 Y22.738
X85.259
G3 X85.436 Y23.312 I-0.011 J0.317
G1 X85.379 Y23.353 Z-1.492
X85.325 Y23.393 Z-1.469
X85.276 Y23.429 Z-1.431
X85.236 Y23.459 Z-1.38
X85.205 Y23.481 Z-1.32
X85.186 Y23.495 Z-1.253
X85.18 Y23.499 Z-1.182
Z5
X87.738 Y38.428
Z-0.865
Z-1.182
X87.731 Y38.432 Z-1.253
X87.711 Y38.444 Z-1.32
X87.678 Y38.463 Z-1.38
X87.635 Y38.489 Z-1.431
X87.583 Y38.52 Z-1.469
X87.526 Y38.554 Z-1.492
X87.465 Y38.59 Z-1.5
G3 X86.711 Y38.812 I-0.809 J-1.36
G1 X85.479
X85.329 Y38.804
X85.18 Y38.784
X85.034 Y38.75
X84.876 Y38.699
X84.713 Y38.631
X84.521 Y38.533
X84.331 Y38.416
X84.113 Y38.255
X83.891 Y38.063
X83.645 Y37.813
X83.396 Y37.514
X83.123 Y37.127
X82.854 Y36.675
X82.572 Y36.098
X82.337 Y35.501
X82.139 Y34.89
X81.973 Y34.269
X81.832 Y33.643
X81.714 Y33.012
X81.616 Y32.377
X81.535 Y31.74
X81.471 Y31.101
X81.421 Y30.461
X81.386 Y29.819
X81.364 Y29.178
X81.356 Y28.535
X81.361 Y27.893
X81.381 Y27.251
X81.415 Y26.61
X81.467 Y25.97
X81.539 Y25.332
X81.637 Y24.697
X81.768 Y24.074
X81.895 Y23.645
X82.011 Y23.345
X82.124 Y23.111
X82.127 Y23.105
X82.245 Y22.953
X82.398 Y22.837
X82.576 Y22.763
X82.767 Y22.738
X84.015
G3 X84.192 Y23.312 I-0.011 J0.317
G1 X84.135 Y23.353 Z-1.492
X84.08 Y23.393 Z-1.469
X84.032 Y23.429 Z-1.431
X83.991 Y23.459 Z-1.38
X83.961 Y23.481 Z-1.32
X83.942 Y23.495 Z-1.253
X83.936 Y23.499 Z-1.182
Z5
X86.505 Y38.428
Z-0.865
Z-1.182
X86.498 Y38.432 Z-1.253
X86.478 Y38.444 Z-1.32
X86.446 Y38.463 Z-1.38
X86.402 Y38.489 Z-1.431
X86.351 Y38.52 Z-1.469
X86.293 Y38.554 Z-1.492
X86.232 Y38.59 Z-1.5
G3 X85.479 Y38.812 I-0.809 J-1.36
G1 X84.166
X84.016 Y38.804
X83.868 Y38.777
X83.713 Y38.733
X83.556 Y38.675
X83.376 Y38.591
X83.184 Y38.482
X82.979 Y38.343
X82.754 Y38.163
X82.526 Y37.947
X82.27 Y37.663
X82.014 Y37.329
X81.747 Y36.915
X81.464 Y36.387
X81.206 Y35.799
X80.99 Y35.194
X80.808 Y34.578
X80.655 Y33.955
X80.526 Y33.326
X80.417 Y32.693
X80.328 Y32.057
X80.255 Y31.419
X80.198 Y30.779
X80.155 Y30.138
X80.127 Y29.497
X80.112 Y28.855
X80.11 Y28.213
X80.123 Y27.57
X80.15 Y26.929
X80.194 Y26.288
X80.256 Y25.649
X80.341 Y25.012
X80.455 Y24.38
X80.591 Y23.833
X80.706 Y23.492
X80.817 Y23.232
X80.868 Y23.134
X80.985 Y22.971
X81.141 Y22.845
X81.325 Y22.766
X81.524 Y22.738
X82.767
G3 X82.943 Y23.312 I-0.011 J0.317
G1 X82.886 Y23.353 Z-1.492
X82.832 Y23.393 Z-1.469
X82.784 Y23.429 Z-1.431
X82.743 Y23.459 Z-1.38
X82.713 Y23.481 Z-1.32
X82.694 Y23.495 Z-1.253
X82.687 Y23.499 Z-1.182
Z5
X85.192 Y38.428
Z-0.865
Z-1.182
X85.185 Y38.432 Z-1.253
X85.165 Y38.444 Z-1.32
X85.132 Y38.463 Z-1.38
X85.089 Y38.489 Z-1.431
X85.037 Y38.52 Z-1.469
X84.98 Y38.554 Z-1.492
X84.919 Y38.59 Z-1.5
G3 X84.166 Y38.812 I-0.809 J-1.36
G1 X82.998
X82.846 Y38.804
X82.697 Y38.785
X82.551 Y38.751
X82.398 Y38.702
X82.224 Y38.631
X82.049 Y38.542
X81.844 Y38.416
X81.642 Y38.269
X81.41 Y38.069
X81.176 Y37.832
X80.914 Y37.521
X80.66 Y37.164
X80.382 Y36.699
X80.098 Y36.123
X79.86 Y35.526
X79.66 Y34.916
X79.491 Y34.296
X79.349 Y33.67
X79.229 Y33.039
X79.129 Y32.405
X79.047 Y31.768
X78.981 Y31.129
X78.931 Y30.489
X78.894 Y29.848
X78.872 Y29.206
X78.863 Y28.564
X78.868 Y27.922
X78.888 Y27.28
X78.923 Y26.639
X78.975 Y25.999
X79.048 Y25.361
X79.145 Y24.726
X79.275 Y24.097
X79.396 Y23.679
X79.516 Y23.361
X79.623 Y23.134
X79.637 Y23.11
X79.754 Y22.956
X79.908 Y22.838
X80.087 Y22.764
X80.279 Y22.738
X81.524
G3 X81.701 Y23.312 I-0.011 J0.317
G1 X81.644 Y23.353 Z-1.492
X81.59 Y23.393 Z-1.469
X81.541 Y23.429 Z-1.431
X81.501 Y23.459 Z-1.38
X81.47 Y23.481 Z-1.32
X81.451 Y23.495 Z-1.253
X81.445 Y23.499 Z-1.182
Z5
X84.025 Y38.428
Z-0.865
Z-1.182
X84.018 Y38.432 Z-1.253
X83.998 Y38.444 Z-1.32
X83.965 Y38.463 Z-1.38
X83.922 Y38.489 Z-1.431
X83.87 Y38.52 Z-1.469
X83.813 Y38.554 Z-1.492
X83.752 Y38.59 Z-1.5
G3 X82.998 Y38.812 I-0.809 J-1.36
G1 X81.685
X81.535 Y38.804
X81.388 Y38.777
X81.233 Y38.734
X81.077 Y38.677
X80.896 Y38.594
X80.709 Y38.489
X80.505 Y38.352
X80.282 Y38.174
X80.053 Y37.96
X79.798 Y37.68
X79.541 Y37.347
X79.273 Y36.936
X78.989 Y36.412
X78.729 Y35.825
X78.511 Y35.221
X78.327 Y34.605
X78.172 Y33.982
X78.041 Y33.354
X77.931 Y32.721
X77.84 Y32.085
X77.766 Y31.447
X77.708 Y30.808
X77.664 Y30.167
X77.635 Y29.526
X77.62 Y28.884
X77.618 Y28.241
X77.63 Y27.599
X77.658 Y26.958
X77.702 Y26.317
X77.764 Y25.678
X77.849 Y25.041
X77.961 Y24.409
X78.097 Y23.854
X78.212 Y23.507
X78.323 Y23.244
X78.379 Y23.137
X78.496 Y22.972
X78.652 Y22.846
X78.837 Y22.766
X79.036 Y22.738
X80.279
G3 X80.456 Y23.312 I-0.011 J0.317
G1 X80.399 Y23.353 Z-1.492
X80.345 Y23.393 Z-1.469
X80.296 Y23.429 Z-1.431
X80.256 Y23.459 Z-1.38
X80.225 Y23.481 Z-1.32
X80.206 Y23.495 Z-1.253
X80.2 Y23.499 Z-1.182
Z5
X82.712 Y38.428
Z-0.865
Z-1.182
X82.705 Y38.432 Z-1.253
X82.685 Y38.444 Z-1.32
X82.652 Y38.463 Z-1.38
X82.609 Y38.489 Z-1.431
X82.557 Y38.52 Z-1.469
X82.5 Y38.554 Z-1.492
X82.439 Y38.59 Z-1.5
G3 X81.685 Y38.812 I-0.809 J-1.36
G1 X80.518
X80.36 Y38.804
X80.212 Y38.784
X80.065 Y38.751
X79.911 Y38.702
X79.738 Y38.631
X79.562 Y38.541
X79.356 Y38.414
X79.155 Y38.268
X78.919 Y38.065
X78.688 Y37.831
X78.423 Y37.515
X78.17 Y37.159
X77.892 Y36.693
X77.608 Y36.117
X77.37 Y35.521
X77.17 Y34.91
X77.001 Y34.291
X76.858 Y33.665
X76.738 Y33.034
X76.637 Y32.4
X76.555 Y31.763
X76.489 Y31.124
X76.438 Y30.484
X76.402 Y29.843
X76.38 Y29.201
X76.371 Y28.559
X76.377 Y27.917
X76.397 Y27.275
X76.433 Y26.634
X76.486 Y25.994
X76.559 Y25.356
X76.657 Y24.721
X76.788 Y24.092
X76.909 Y23.674
X77.029 Y23.358
X77.137 Y23.13
X77.149 Y23.109
X77.267 Y22.956
X77.42 Y22.838
X77.599 Y22.764
