(Cigar Case 3mm Ball Mill)
(1/8 ball mill)
(Machine)
(  vendor: Makera)
(  model: Carvera 3-axis)
(  description: Makera Carvera 3-axis)
(T2  D=3.175 CR=1.587 - ZMIN=-10.495 - ball end mill)
G90 G94
G17
G21
(When using Fusion for Personal Use, the feedrate of rapid)
(moves is reduced to match the feedrate of cutting moves,)
(which can increase machining time. Unrestricted rapid moves)
(are available with a Fusion Subscription.)

(Parallel1)
T2 M6
S5000 M3
G54
G0 X178.117 Y20.276
Z15
G1 Z2 F800
Z0.317 F200
G18 G3 X177.8 Z0 I-0.317 K0 F800
G1 X25.4
X25.364 Z0.004
X25.33 Z0.016
X25.296 Z0.028
X25.26 Z0.032
X25.222 Y20.284
X25.19 Y20.305
X25.168 Y20.338
X25.16 Y20.376
X25.168 Y20.414
X25.19 Y20.447
X25.222 Y20.468
X25.26 Y20.476
X25.27
X25.305 Z0.028
X25.339 Z0.016
X25.34
X25.369 Z0.005
X25.4 Z0
X25.597 Z-0.012
X177.519 Z-0.013
X177.8 Z0
X177.832 Z0.005
X177.863 Z0.016
X177.897 Z0.028
X177.933 Z0.032
X177.971 Y20.484
X178.003 Y20.505
X178.025 Y20.538
X178.033 Y20.576
X178.025 Y20.614
X178.003 Y20.647
X177.971 Y20.668
X177.933 Y20.676
X177.93
X177.894 Z0.028
X177.86 Z0.016
X177.831 Z0.005
X177.8 Z0
X177.604 Z-0.012
X177.397 Z-0.051
X25.792 Z-0.049
X25.609 Z-0.014
X25.4 Z0
X25.37 Z0.005
X25.341 Z0.016
X25.307 Z0.028
X25.271 Z0.032
X25.233 Y20.684
X25.2 Y20.705
X25.178 Y20.738
X25.171 Y20.776
X25.178 Y20.814
X25.2 Y20.847
X25.233 Y20.868
X25.271 Y20.876
X25.272
X25.308 Z0.028
X25.342 Z0.016
X25.37 Z0.005
X25.4 Z0
X25.636 Z-0.018
X25.821 Z-0.057
X25.998 Z-0.117
X177.194 Z-0.118
X177.434 Z-0.043
X177.604 Z-0.012
X177.8 Z0
X177.831 Z0.005
X177.86 Z0.016
X177.894 Z0.028
X177.93 Z0.032
X177.968 Y20.884
X178.001 Y20.905
X178.022 Y20.938
X178.03 Y20.976
X178.022 Y21.014
X178.001 Y21.047
X177.968 Y21.068
X177.93 Y21.076
X177.894 Z0.028
X177.86 Z0.016
X177.831 Z0.005
X177.8 Z0
X177.604 Z-0.012
X177.434 Z-0.043
X177.267 Z-0.092
X177.047 Z-0.19
X176.997 Z-0.217
X26.197 Z-0.215
X26.027 Z-0.129
X25.852 Z-0.066
X25.668 Z-0.023
X25.48 Z-0.002
X25.4 Z0
X25.366 Z0.005
X25.334 Z0.016
X25.3 Z0.028
X25.264 Z0.032
X25.226 Y21.084
X25.194 Y21.105
X25.172 Y21.138
X25.164 Y21.176
X25.172 Y21.214
X25.194 Y21.247
X25.226 Y21.268
X25.264 Y21.276
X25.267
X25.303 Z0.028
X25.337 Z0.016
X25.368 Z0.005
X25.4 Z0
X25.531 Z-0.005
X25.719 Z-0.032
X25.9 Z-0.081
X26.073 Z-0.15
X26.236 Z-0.238
X26.401 Z-0.355
X176.799
X176.951 Z-0.246
X177.105 Z-0.16
X177.267 Z-0.092
X177.434 Z-0.043
X177.604 Z-0.012
X177.8 Z0
X177.831 Z0.005
X177.86 Z0.016
X177.894 Z0.028
X177.93 Z0.032
X177.968 Y21.284
X178.001 Y21.305
X178.022 Y21.338
X178.03 Y21.376
X178.022 Y21.414
X178.001 Y21.447
X177.968 Y21.468
X177.93 Y21.476
X177.894 Z0.028
X177.86 Z0.016
X177.831 Z0.005
X177.8 Z0
X177.604 Z-0.012
X177.434 Z-0.043
X177.267 Z-0.092
X177.105 Z-0.16
X176.951 Z-0.246
X176.806 Z-0.35
X176.633 Z-0.511
X176.598 Z-0.549
X26.599 Z-0.547
X26.459 Z-0.405
X26.317 Z-0.292
X26.161 Z-0.194
X25.993 Z-0.115
X25.816 Z-0.055
X25.631 Z-0.017
X25.4 Z0
X25.37 Z0.005
X25.342 Z0.016
X25.308 Z0.028
X25.272 Z0.032
X25.271
X25.232 Y21.484
X25.2 Y21.505
X25.178 Y21.538
X25.171 Y21.576
X25.178 Y21.614
X25.2 Y21.647
X25.232 Y21.668
X25.271 Y21.676
X25.307 Z0.028
X25.341 Z0.016
X25.369 Z0.005
X25.4 Z0
X25.608 Z-0.014
X25.793 Z-0.049
X25.971 Z-0.106
X26.14 Z-0.183
X26.298 Z-0.278
X26.442 Z-0.39
X26.571 Z-0.516
X26.684 Z-0.654
X26.8 Z-0.839
X176.398 Z-0.841
X176.421 Z-0.802
X176.551 Z-0.608
X176.672 Z-0.471
X176.806 Z-0.35
X176.951 Z-0.246
X177.105 Z-0.16
X177.267 Z-0.092
X177.434 Z-0.043
X177.604 Z-0.012
X177.8 Z0
X177.831 Z0.005
X177.86 Z0.016
X177.894 Z0.028
X177.93 Z0.032
X177.968 Y21.684
X178.001 Y21.705
X178.022 Y21.738
X178.03 Y21.776
X178.022 Y21.814
X178.001 Y21.847
X177.968 Y21.868
X177.93 Y21.876
X177.894 Z0.028
X177.86 Z0.016
X177.831 Z0.005
X177.8 Z0
X177.604 Z-0.012
X177.434 Z-0.043
X177.267 Z-0.092
X177.105 Z-0.16
X176.951 Z-0.246
X176.806 Z-0.35
X176.672 Z-0.471
X176.551 Z-0.608
X176.445 Z-0.76
X176.356 Z-0.929
X176.284 Z-1.115
X176.259 Z-1.207
X176.233 Z-1.331
X176.216 Z-1.482
X176.211 Z-1.999
X26.988
X26.983 Z-1.467
X26.959 Z-1.286
X26.917 Z-1.12
X26.875 Z-1.002
X26.792 Z-0.825
X26.701 Z-0.677
X26.591 Z-0.538
X26.465 Z-0.41
X26.323 Z-0.296
X26.167 Z-0.198
X26 Z-0.118
X25.823 Z-0.057
X25.638 Z-0.018
X25.449 Z-0.001
X25.4 Z0
X25.365 Z0.004
X25.333 Z0.016
X25.299 Z0.028
X25.263 Z0.032
X25.224 Y21.884
X25.192 Y21.905
X25.17 Y21.938
X25.163 Y21.976
X25.17 Y22.014
X25.192 Y22.047
X25.224 Y22.068
X25.263 Y22.076
X25.299 Z0.028
X25.333 Z0.016
X25.365 Z0.004
X25.4 Z0
X25.449 Z-0.001
X25.638 Z-0.018
X25.823 Z-0.057
X26 Z-0.118
X26.167 Z-0.198
X26.323 Z-0.296
X26.465 Z-0.41
X26.591 Z-0.538
X26.701 Z-0.677
X26.792 Z-0.825
X26.877 Z-1.005
X26.919 Z-1.126
X26.961 Z-1.299
X26.985 Z-1.506
X26.988 Z-3.503
X176.212
X176.213 Z-3.498
X176.216 Z-1.482
X176.233 Z-1.331
X176.259 Z-1.207
X176.284 Z-1.115
X176.356 Z-0.929
X176.445 Z-0.76
X176.551 Z-0.608
X176.672 Z-0.471
X176.806 Z-0.35
X176.951 Z-0.246
X177.105 Z-0.16
X177.267 Z-0.092
X177.434 Z-0.043
X177.604 Z-0.012
X177.8 Z0
X177.831 Z0.005
X177.86 Z0.016
X177.894 Z0.028
X177.93 Z0.032
X177.968 Y22.084
X178.001 Y22.105
X178.022 Y22.138
X178.03 Y22.176
X178.022 Y22.214
X178.001 Y22.247
X177.968 Y22.268
X177.93 Y22.276
X177.894 Z0.028
X177.86 Z0.016
X177.831 Z0.005
X177.8 Z0
X177.604 Z-0.012
X177.434 Z-0.043
X177.267 Z-0.092
X177.105 Z-0.16
X176.951 Z-0.246
X176.806 Z-0.35
X176.672 Z-0.471
X176.551 Z-0.608
X176.445 Z-0.76
X176.356 Z-0.929
X176.284 Z-1.115
X176.259 Z-1.207
X176.233 Z-1.331
X176.216 Z-1.482
Z-1.487
X176.212 Z-4.266
X26.988
X26.985 Z-1.506
X26.961 Z-1.299
X26.919 Z-1.126
X26.877 Z-1.005
X26.792 Z-0.825
X26.701 Z-0.677
X26.591 Z-0.538
X26.465 Z-0.41
X26.323 Z-0.296
X26.167 Z-0.198
X26 Z-0.118
X25.823 Z-0.057
X25.638 Z-0.018
X25.449 Z-0.001
X25.4 Z0
X25.365 Z0.004
X25.333 Z0.016
X25.299 Z0.028
X25.263 Z0.032
X25.224 Y22.284
X25.192 Y22.305
X25.17 Y22.338
X25.163 Y22.376
X25.17 Y22.414
X25.192 Y22.447
X25.224 Y22.468
X25.263 Y22.476
X25.299 Z0.028
X25.333 Z0.016
X25.365 Z0.004
X25.4 Z0
X25.449 Z-0.001
X25.638 Z-0.018
X25.823 Z-0.057
X26 Z-0.118
X26.167 Z-0.198
X26.323 Z-0.296
X26.465 Z-0.41
X26.591 Z-0.538
X26.701 Z-0.677
X26.792 Z-0.825
X26.877 Z-1.005
X26.919 Z-1.126
X26.961 Z-1.299
X26.985 Z-1.506
X26.988 Z-4.832
X176.212
X176.213 Z-4.827
X176.216 Z-1.482
X176.233 Z-1.331
X176.259 Z-1.207
X176.284 Z-1.115
X176.356 Z-0.929
X176.445 Z-0.76
X176.551 Z-0.608
X176.672 Z-0.471
X176.806 Z-0.35
X176.951 Z-0.246
X177.105 Z-0.16
X177.267 Z-0.092
X177.434 Z-0.043
X177.604 Z-0.012
X177.8 Z0
X177.831 Z0.005
X177.86 Z0.016
X177.894 Z0.028
X177.93 Z0.032
X177.968 Y22.484
X178.001 Y22.505
X178.022 Y22.538
X178.03 Y22.576
X178.022 Y22.614
X178.001 Y22.647
X177.968 Y22.668
X177.93 Y22.676
X177.894 Z0.028
X177.86 Z0.016
X177.831 Z0.005
X177.8 Z0
X177.604 Z-0.012
X177.434 Z-0.043
X177.267 Z-0.092
X177.105 Z-0.16
X176.951 Z-0.246
X176.806 Z-0.35
X176.672 Z-0.471
X176.551 Z-0.608
X176.445 Z-0.76
X176.356 Z-0.929
X176.284 Z-1.115
X176.259 Z-1.207
X176.233 Z-1.331
X176.216 Z-1.482
Z-1.487
X176.212 Z-5.305
X26.988
X26.985 Z-1.506
X26.961 Z-1.299
X26.919 Z-1.126
X26.877 Z-1.005
X26.792 Z-0.825
X26.701 Z-0.677
X26.591 Z-0.538
X26.465 Z-0.41
X26.323 Z-0.296
X26.167 Z-0.198
X26 Z-0.118
X25.823 Z-0.057
X25.638 Z-0.018
X25.449 Z-0.001
X25.4 Z0
X25.365 Z0.004
X25.333 Z0.016
X25.299 Z0.028
X25.263 Z0.032
X25.224 Y22.684
X25.192 Y22.705
X25.17 Y22.738
X25.163 Y22.776
X25.17 Y22.814
X25.192 Y22.847
X25.224 Y22.868
X25.263 Y22.876
X25.299 Z0.028
X25.333 Z0.016
X25.365 Z0.004
X25.4 Z0
X25.449 Z-0.001
X25.638 Z-0.018
X25.823 Z-0.057
X26 Z-0.118
X26.167 Z-0.198
X26.323 Z-0.296
X26.465 Z-0.41
X26.591 Z-0.538
X26.701 Z-0.677
X26.792 Z-0.825
X26.877 Z-1.005
X26.919 Z-1.126
X26.961 Z-1.299
X26.985 Z-1.506
X26.988 Z-5.708
X176.212
Z-5.703
X176.216 Z-1.482
X176.233 Z-1.331
X176.259 Z-1.207
X176.284 Z-1.115
X176.356 Z-0.929
X176.445 Z-0.76
X176.551 Z-0.608
X176.672 Z-0.471
X176.806 Z-0.35
X176.951 Z-0.246
X177.105 Z-0.16
X177.267 Z-0.092
X177.434 Z-0.043
X177.604 Z-0.012
X177.8 Z0
X177.831 Z0.005
X177.86 Z0.016
X177.894 Z0.028
X177.93 Z0.032
X177.968 Y22.884
X178.001 Y22.905
X178.022 Y22.938
X178.03 Y22.976
X178.022 Y23.014
X178.001 Y23.047
X177.968 Y23.068
X177.93 Y23.076
X177.894 Z0.028
X177.86 Z0.016
X177.831 Z0.005
X177.8 Z0
X177.604 Z-0.012
X177.434 Z-0.043
X177.267 Z-0.092
X177.105 Z-0.16
X176.951 Z-0.246
X176.806 Z-0.35
X176.672 Z-0.471
X176.551 Z-0.608
X176.445 Z-0.76
X176.356 Z-0.929
X176.284 Z-1.115
X176.259 Z-1.207
X176.223 Z-1.406
X176.212 Z-1.587
Z-1.592
Z-6.067
X26.988
Z-6.062
X26.985 Z-1.506
X26.961 Z-1.299
X26.919 Z-1.126
X26.877 Z-1.005
X26.792 Z-0.825
X26.701 Z-0.677
X26.591 Z-0.538
X26.465 Z-0.41
X26.323 Z-0.296
X26.167 Z-0.198
X26 Z-0.118
X25.823 Z-0.057
X25.638 Z-0.018
X25.449 Z-0.001
X25.4 Z0
X25.365 Z0.004
X25.333 Z0.016
X25.299 Z0.028
X25.263 Z0.032
X25.224 Y23.083
X25.192 Y23.105
X25.17 Y23.138
X25.163 Y23.176
X25.17 Y23.214
X25.192 Y23.247
X25.224 Y23.268
X25.263 Y23.276
X25.299 Z0.028
X25.333 Z0.016
X25.365 Z0.004
X25.4 Z0
X25.449 Z-0.001
X25.638 Z-0.018
X25.823 Z-0.057
X26 Z-0.118
X26.167 Z-0.198
X26.323 Z-0.296
X26.465 Z-0.41
X26.591 Z-0.538
X26.701 Z-0.677
X26.792 Z-0.825
X26.877 Z-1.005
X26.919 Z-1.126
X26.961 Z-1.299
X26.985 Z-1.506
X26.988 Z-6.396
X176.212
Z-6.391
Z-1.587
X176.223 Z-1.406
X176.259 Z-1.207
X176.284 Z-1.115
X176.356 Z-0.929
X176.445 Z-0.76
X176.551 Z-0.608
X176.672 Z-0.471
X176.806 Z-0.35
X176.951 Z-0.246
X177.105 Z-0.16
X177.267 Z-0.092
X177.434 Z-0.043
X177.604 Z-0.012
X177.8 Z0
X177.831 Z0.005
X177.86 Z0.016
X177.894 Z0.028
X177.93 Z0.032
X177.968 Y23.283
X178.001 Y23.305
X178.022 Y23.338
X178.03 Y23.376
X178.022 Y23.414
X178.001 Y23.447
X177.968 Y23.468
X177.93 Y23.476
X177.894 Z0.028
X177.86 Z0.016
X177.831 Z0.005
X177.8 Z0
X177.604 Z-0.012
X177.434 Z-0.043
X177.267 Z-0.092
X177.105 Z-0.16
X176.951 Z-0.246
X176.806 Z-0.35
X176.672 Z-0.471
X176.551 Z-0.608
X176.445 Z-0.76
X176.356 Z-0.929
X176.284 Z-1.115
X176.259 Z-1.207
X176.223 Z-1.406
X176.212 Z-1.587
Z-1.592
Z-6.698
X26.988
Z-6.693
X26.985 Z-1.506
X26.961 Z-1.299
X26.919 Z-1.126
X26.877 Z-1.005
X26.792 Z-0.825
X26.701 Z-0.677
X26.591 Z-0.538
X26.465 Z-0.41
X26.323 Z-0.296
X26.167 Z-0.198
X26 Z-0.118
X25.823 Z-0.057
X25.638 Z-0.018
X25.449 Z-0.001
X25.4 Z0
X25.365 Z0.004
X25.333 Z0.016
X25.299 Z0.028
X25.263 Z0.032
X25.224 Y23.483
X25.192 Y23.505
X25.17 Y23.538
X25.163 Y23.576
X25.17 Y23.614
X25.192 Y23.647
X25.224 Y23.668
X25.263 Y23.676
X25.299 Z0.028
X25.333 Z0.016
X25.365 Z0.004
X25.4 Z0
X25.449 Z-0.001
X25.638 Z-0.018
X25.823 Z-0.057
X26 Z-0.118
X26.167 Z-0.198
X26.323 Z-0.296
X26.465 Z-0.41
X26.591 Z-0.538
X26.701 Z-0.677
X26.792 Z-0.825
X26.877 Z-1.005
X26.919 Z-1.126
X26.961 Z-1.299
X26.985 Z-1.506
Z-1.511
X26.988 Z-6.968
X176.212
Z-6.963
Z-1.587
X176.223 Z-1.406
X176.259 Z-1.207
X176.284 Z-1.115
X176.356 Z-0.929
X176.445 Z-0.76
X176.551 Z-0.608
X176.672 Z-0.471
X176.806 Z-0.35
X176.951 Z-0.246
X177.105 Z-0.16
X177.267 Z-0.092
X177.434 Z-0.043
X177.604 Z-0.012
X177.8 Z0
X177.831 Z0.005
X177.86 Z0.016
X177.894 Z0.028
X177.93 Z0.032
X177.968 Y23.683
X178.001 Y23.705
X178.022 Y23.738
X178.03 Y23.776
X178.022 Y23.814
X178.001 Y23.847
X177.968 Y23.868
X177.93 Y23.876
X177.894 Z0.028
X177.86 Z0.016
X177.831 Z0.005
X177.8 Z0
X177.604 Z-0.012
X177.434 Z-0.043
X177.267 Z-0.092
X177.105 Z-0.16
X176.951 Z-0.246
X176.806 Z-0.35
X176.672 Z-0.471
X176.551 Z-0.608
X176.445 Z-0.76
X176.356 Z-0.929
X176.284 Z-1.115
X176.259 Z-1.207
X176.223 Z-1.406
X176.212 Z-1.587
Z-1.592
Z-7.226
X26.988
Z-7.221
X26.985 Z-1.506
X26.961 Z-1.299
X26.919 Z-1.126
X26.877 Z-1.005
X26.792 Z-0.825
X26.701 Z-0.677
X26.591 Z-0.538
X26.465 Z-0.41
X26.323 Z-0.296
X26.167 Z-0.198
X26 Z-0.118
X25.823 Z-0.057
X25.638 Z-0.018
X25.449 Z-0.001
X25.4 Z0
X25.365 Z0.004
X25.333 Z0.016
X25.299 Z0.028
X25.263 Z0.032
X25.224 Y23.883
X25.192 Y23.905
X25.17 Y23.938
X25.163 Y23.976
X25.17 Y24.014
X25.192 Y24.047
X25.224 Y24.068
X25.263 Y24.076
X25.299 Z0.028
X25.333 Z0.016
X25.365 Z0.004
X25.4 Z0
X25.449 Z-0.001
X25.638 Z-0.018
X25.823 Z-0.057
X26 Z-0.118
X26.167 Z-0.198
X26.323 Z-0.296
X26.465 Z-0.41
X26.591 Z-0.538
X26.701 Z-0.677
X26.792 Z-0.825
X26.877 Z-1.005
X26.919 Z-1.126
X26.961 Z-1.299
X26.985 Z-1.506
Z-1.511
X26.988 Z-7.459
X176.212
Z-7.454
Z-1.587
X176.223 Z-1.406
X176.259 Z-1.207
X176.284 Z-1.115
X176.356 Z-0.929
X176.445 Z-0.76
X176.551 Z-0.608
X176.672 Z-0.471
X176.806 Z-0.35
X176.951 Z-0.246
X177.105 Z-0.16
X177.267 Z-0.092
X177.434 Z-0.043
X177.604 Z-0.012
X177.8 Z0
X177.831 Z0.005
X177.86 Z0.016
X177.894 Z0.028
X177.93 Z0.032
X177.968 Y24.083
X178.001 Y24.105
X178.022 Y24.138
X178.03 Y24.176
X178.022 Y24.214
X178.001 Y24.247
X177.968 Y24.268
X177.93 Y24.276
X177.894 Z0.028
X177.86 Z0.016
X177.831 Z0.005
X177.8 Z0
X177.604 Z-0.012
X177.434 Z-0.043
X177.267 Z-0.092
X177.105 Z-0.16
X176.951 Z-0.246
X176.806 Z-0.35
X176.672 Z-0.471
X176.551 Z-0.608
X176.445 Z-0.76
X176.356 Z-0.929
X176.284 Z-1.115
X176.259 Z-1.207
X176.223 Z-1.406
X176.212 Z-1.587
Z-1.592
Z-7.681
X26.988
X26.985 Z-1.506
X26.961 Z-1.299
X26.919 Z-1.126
X26.877 Z-1.005
X26.792 Z-0.825
X26.701 Z-0.677
X26.591 Z-0.538
X26.465 Z-0.41
X26.323 Z-0.296
X26.167 Z-0.198
X26 Z-0.118
X25.823 Z-0.057
X25.638 Z-0.018
X25.449 Z-0.001
X25.4 Z0
X25.365 Z0.004
X25.333 Z0.016
X25.299 Z0.028
X25.263 Z0.032
X25.224 Y24.283
X25.192 Y24.305
X25.17 Y24.338
X25.163 Y24.376
X25.17 Y24.414
X25.192 Y24.447
X25.224 Y24.468
X25.263 Y24.476
X25.299 Z0.028
X25.333 Z0.016
X25.365 Z0.004
X25.4 Z0
X25.449 Z-0.001
X25.638 Z-0.018
X25.823 Z-0.057
X26 Z-0.118
X26.167 Z-0.198
X26.323 Z-0.296
X26.465 Z-0.41
X26.591 Z-0.538
X26.701 Z-0.677
X26.792 Z-0.825
X26.877 Z-1.005
X26.919 Z-1.126
X26.961 Z-1.299
X26.985 Z-1.506
X26.988 Z-7.887
X176.212
Z-7.882
Z-1.587
X176.223 Z-1.406
X176.259 Z-1.207
X176.284 Z-1.115
X176.356 Z-0.929
X176.445 Z-0.76
X176.551 Z-0.608
X176.672 Z-0.471
X176.806 Z-0.35
X176.951 Z-0.246
X177.105 Z-0.16
X177.267 Z-0.092
X177.434 Z-0.043
X177.604 Z-0.012
X177.8 Z0
X177.831 Z0.005
X177.86 Z0.016
X177.894 Z0.028
X177.93 Z0.032
X177.968 Y24.483
X178.001 Y24.505
X178.022 Y24.538
X178.03 Y24.576
X178.022 Y24.614
X178.001 Y24.647
X177.968 Y24.668
X177.93 Y24.676
X177.894 Z0.028
X177.86 Z0.016
X177.831 Z0.005
X177.8 Z0
X177.604 Z-0.012
X177.434 Z-0.043
X177.267 Z-0.092
X177.105 Z-0.16
X176.951 Z-0.246
X176.806 Z-0.35
X176.672 Z-0.471
X176.551 Z-0.608
X176.445 Z-0.76
X176.356 Z-0.929
X176.284 Z-1.115
X176.259 Z-1.207
X176.223 Z-1.406
X176.212 Z-1.587
Z-1.592
Z-8.081
X26.988
Z-8.076
X26.985 Z-1.506
X26.961 Z-1.299
X26.919 Z-1.126
X26.877 Z-1.005
X26.792 Z-0.825
X26.701 Z-0.677
X26.591 Z-0.538
X26.465 Z-0.41
X26.323 Z-0.296
X26.167 Z-0.198
X26 Z-0.118
X25.823 Z-0.057
X25.638 Z-0.018
X25.449 Z-0.001
X25.4 Z0
X25.365 Z0.004
X25.333 Z0.016
X25.299 Z0.028
X25.263 Z0.032
X25.224 Y24.683
X25.192 Y24.705
X25.17 Y24.738
X25.163 Y24.776
X25.17 Y24.814
X25.192 Y24.847
X25.224 Y24.868
X25.263 Y24.876
X25.299 Z0.028
X25.333 Z0.016
X25.365 Z0.004
X25.4 Z0
X25.449 Z-0.001
X25.638 Z-0.018
X25.823 Z-0.057
X26 Z-0.118
X26.167 Z-0.198
X26.323 Z-0.296
X26.465 Z-0.41
X26.591 Z-0.538
X26.701 Z-0.677
X26.792 Z-0.825
X26.877 Z-1.005
X26.919 Z-1.126
X26.961 Z-1.299
X26.985 Z-1.506
X26.988 Z-8.263
X176.212
Z-8.258
Z-1.587
X176.223 Z-1.406
X176.259 Z-1.207
X176.284 Z-1.115
X176.356 Z-0.929
X176.445 Z-0.76
X176.551 Z-0.608
X176.672 Z-0.471
X176.806 Z-0.35
X176.951 Z-0.246
X177.105 Z-0.16
X177.267 Z-0.092
X177.434 Z-0.043
X177.604 Z-0.012
X177.8 Z0
X177.831 Z0.005
X177.86 Z0.016
X177.894 Z0.028
X177.93 Z0.032
X177.968 Y24.883
X178.001 Y24.905
X178.022 Y24.938
X178.03 Y24.976
X178.022 Y25.014
X178.001 Y25.047
X177.968 Y25.068
X177.93 Y25.076
X177.894 Z0.028
X177.86 Z0.016
X177.831 Z0.005
X177.8 Z0
X177.604 Z-0.012
X177.434 Z-0.043
X177.267 Z-0.092
X177.105 Z-0.16
X176.951 Z-0.246
X176.806 Z-0.35
X176.672 Z-0.471
X176.551 Z-0.608
X176.445 Z-0.76
X176.356 Z-0.929
X176.284 Z-1.115
X176.259 Z-1.207
X176.223 Z-1.406
X176.212 Z-1.587
Z-1.592
Z-8.435
X26.988
Z-8.43
X26.985 Z-1.506
X26.961 Z-1.299
X26.919 Z-1.126
X26.877 Z-1.005
X26.792 Z-0.825
X26.701 Z-0.677
X26.591 Z-0.538
X26.465 Z-0.41
X26.323 Z-0.296
X26.167 Z-0.198
X26 Z-0.118
X25.823 Z-0.057
X25.638 Z-0.018
X25.449 Z-0.001
X25.4 Z0
X25.365 Z0.004
X25.333 Z0.016
X25.299 Z0.028
X25.263 Z0.032
X25.224 Y25.083
X25.192 Y25.105
X25.17 Y25.138
X25.163 Y25.176
X25.17 Y25.214
X25.192 Y25.247
X25.224 Y25.268
X25.263 Y25.276
X25.299 Z0.028
X25.333 Z0.016
X25.365 Z0.004
X25.4 Z0
X25.449 Z-0.001
X25.638 Z-0.018
X25.823 Z-0.057
X26 Z-0.118
X26.167 Z-0.198
X26.323 Z-0.296
X26.465 Z-0.41
X26.591 Z-0.538
X26.701 Z-0.677
X26.792 Z-0.825
X26.877 Z-1.005
X26.919 Z-1.126
X26.961 Z-1.299
X26.985 Z-1.506
Z-1.511
X26.988 Z-8.596
X176.212
Z-8.591
Z-1.587
X176.223 Z-1.406
X176.259 Z-1.207
X176.284 Z-1.115
X176.356 Z-0.929
X176.445 Z-0.76
X176.551 Z-0.608
X176.672 Z-0.471
X176.806 Z-0.35
X176.951 Z-0.246
X177.105 Z-0.16
X177.267 Z-0.092
X177.434 Z-0.043
X177.604 Z-0.012
X177.8 Z0
X177.831 Z0.005
X177.86 Z0.016
X177.894 Z0.028
X177.93 Z0.032
X177.968 Y25.283
X178.001 Y25.305
X178.022 Y25.338
X178.03 Y25.376
X178.022 Y25.414
X178.001 Y25.446
X177.968 Y25.468
X177.93 Y25.476
X177.894 Z0.028
X177.86 Z0.016
X177.831 Z0.005
X177.8 Z0
X177.604 Z-0.012
X177.434 Z-0.043
X177.267 Z-0.092
X177.105 Z-0.16
X176.951 Z-0.246
X176.806 Z-0.35
X176.672 Z-0.471
X176.551 Z-0.608
X176.445 Z-0.76
X176.356 Z-0.929
X176.284 Z-1.115
X176.259 Z-1.207
X176.223 Z-1.406
X176.212 Z-1.587
Z-1.592
Z-8.75
X26.988
Z-8.745
X26.985 Z-1.506
X26.961 Z-1.299
X26.919 Z-1.126
X26.877 Z-1.005
X26.792 Z-0.825
X26.701 Z-0.677
X26.591 Z-0.538
X26.465 Z-0.41
X26.323 Z-0.296
X26.167 Z-0.198
X26 Z-0.118
X25.823 Z-0.057
X25.638 Z-0.018
X25.449 Z-0.001
X25.4 Z0
X25.365 Z0.004
X25.333 Z0.016
X25.299 Z0.028
X25.263 Z0.032
X25.224 Y25.483
X25.192 Y25.505
X25.17 Y25.538
X25.163 Y25.576
X25.17 Y25.614
X25.192 Y25.646
X25.224 Y25.668
X25.263 Y25.676
X25.299 Z0.028
X25.333 Z0.016
X25.365 Z0.004
X25.4 Z0
X25.449 Z-0.001
X25.638 Z-0.018
X25.823 Z-0.057
X26 Z-0.118
X26.167 Z-0.198
X26.323 Z-0.296
X26.465 Z-0.41
X26.591 Z-0.538
X26.701 Z-0.677
X26.792 Z-0.825
X26.877 Z-1.005
X26.919 Z-1.126
X26.961 Z-1.299
X26.985 Z-1.506
Z-1.511
X26.988 Z-8.891
X176.212
Z-8.886
Z-1.587
X176.223 Z-1.406
X176.259 Z-1.207
X176.284 Z-1.115
X176.356 Z-0.929
X176.445 Z-0.76
X176.551 Z-0.608
X176.672 Z-0.471
X176.806 Z-0.35
X176.951 Z-0.246
X177.105 Z-0.16
X177.267 Z-0.092
X177.434 Z-0.043
X177.604 Z-0.012
X177.8 Z0
X177.831 Z0.005
X177.86 Z0.016
X177.894 Z0.028
X177.93 Z0.032
X177.968 Y25.683
X178.001 Y25.705
X178.022 Y25.738
X178.03 Y25.776
X178.022 Y25.814
X178.001 Y25.846
X177.968 Y25.868
X177.93 Y25.876
X177.894 Z0.028
X177.86 Z0.016
X177.831 Z0.005
X177.8 Z0
X177.604 Z-0.012
X177.434 Z-0.043
X177.267 Z-0.092
X177.105 Z-0.16
X176.951 Z-0.246
X176.806 Z-0.35
X176.672 Z-0.471
X176.551 Z-0.608
X176.445 Z-0.76
X176.356 Z-0.929
X176.284 Z-1.115
X176.259 Z-1.207
X176.223 Z-1.406
X176.212 Z-1.587
Z-1.592
Z-9.031
X26.988
Z-9.026
X26.985 Z-1.506
X26.961 Z-1.299
X26.919 Z-1.126
X26.877 Z-1.005
X26.792 Z-0.825
X26.701 Z-0.677
X26.591 Z-0.538
X26.465 Z-0.41
X26.323 Z-0.296
X26.167 Z-0.198
X26 Z-0.118
X25.823 Z-0.057
X25.638 Z-0.018
X25.449 Z-0.001
X25.4 Z0
X25.365 Z0.004
X25.333 Z0.016
X25.299 Z0.028
X25.263 Z0.032
X25.224 Y25.883
X25.192 Y25.905
X25.17 Y25.937
X25.163 Y25.976
X25.17 Y26.014
X25.192 Y26.046
X25.224 Y26.068
X25.263 Y26.076
X25.299 Z0.028
X25.333 Z0.016
X25.365 Z0.004
X25.4 Z0
X25.449 Z-0.001
X25.638 Z-0.018
X25.823 Z-0.057
X26 Z-0.118
X26.167 Z-0.198
X26.323 Z-0.296
X26.465 Z-0.41
X26.591 Z-0.538
X26.701 Z-0.677
X26.792 Z-0.825
X26.877 Z-1.005
X26.919 Z-1.126
X26.961 Z-1.299
X26.985 Z-1.506
X26.988 Z-9.155
X176.212
Z-9.15
Z-1.587
X176.223 Z-1.406
X176.259 Z-1.207
X176.284 Z-1.115
X176.356 Z-0.929
X176.445 Z-0.76
X176.551 Z-0.608
X176.672 Z-0.471
X176.806 Z-0.35
X176.951 Z-0.246
X177.105 Z-0.16
X177.267 Z-0.092
X177.434 Z-0.043
X177.604 Z-0.012
X177.8 Z0
X177.831 Z0.005
X177.86 Z0.016
X177.894 Z0.028
X177.93 Z0.032
X177.968 Y26.083
X178.001 Y26.105
X178.022 Y26.137
X178.03 Y26.176
X178.022 Y26.214
X178.001 Y26.246
X177.968 Y26.268
X177.93 Y26.276
X177.894 Z0.028
X177.86 Z0.016
X177.831 Z0.005
X177.8 Z0
X177.604 Z-0.012
X177.434 Z-0.043
X177.267 Z-0.092
X177.105 Z-0.16
X176.951 Z-0.246
X176.806 Z-0.35
X176.672 Z-0.471
X176.551 Z-0.608
X176.445 Z-0.76
X176.356 Z-0.929
X176.284 Z-1.115
X176.259 Z-1.207
X176.223 Z-1.406
X176.212 Z-1.587
Z-1.592
Z-9.278
X26.988
Z-9.273
X26.985 Z-1.506
X26.961 Z-1.299
X26.919 Z-1.126
X26.877 Z-1.005
X26.792 Z-0.825
X26.701 Z-0.677
X26.591 Z-0.538
X26.465 Z-0.41
X26.323 Z-0.296
X26.167 Z-0.198
X26 Z-0.118
X25.823 Z-0.057
X25.638 Z-0.018
X25.449 Z-0.001
X25.4 Z0
X25.365 Z0.004
X25.333 Z0.016
X25.299 Z0.028
X25.263 Z0.032
X25.224 Y26.283
X25.192 Y26.305
X25.17 Y26.337
X25.163 Y26.376
X25.17 Y26.414
X25.192 Y26.446
X25.224 Y26.468
X25.263 Y26.476
X25.299 Z0.028
X25.333 Z0.016
X25.365 Z0.004
X25.4 Z0
X25.449 Z-0.001
X25.638 Z-0.018
X25.823 Z-0.057
X26 Z-0.118
X26.167 Z-0.198
X26.323 Z-0.296
X26.465 Z-0.41
X26.591 Z-0.538
X26.701 Z-0.677
X26.792 Z-0.825
X26.877 Z-1.005
X26.919 Z-1.126
X26.961 Z-1.299
X26.985 Z-1.506
Z-1.511
X26.988 Z-9.389
X176.212
Z-9.384
Z-1.587
X176.223 Z-1.406
X176.259 Z-1.207
X176.284 Z-1.115
X176.356 Z-0.929
X176.445 Z-0.76
X176.551 Z-0.608
X176.672 Z-0.471
X176.806 Z-0.35
X176.951 Z-0.246
X177.105 Z-0.16
X177.267 Z-0.092
X177.434 Z-0.043
X177.604 Z-0.012
X177.8 Z0
X177.831 Z0.005
X177.86 Z0.016
X177.894 Z0.028
X177.93 Z0.032
X177.968 Y26.483
X178.001 Y26.505
X178.022 Y26.537
X178.03 Y26.576
X178.022 Y26.614
X178.001 Y26.646
X177.968 Y26.668
X177.93 Y26.676
X177.894 Z0.028
X177.86 Z0.016
X177.831 Z0.005
X177.8 Z0
X177.604 Z-0.012
X177.434 Z-0.043
X177.267 Z-0.092
X177.105 Z-0.16
X176.951 Z-0.246
X176.806 Z-0.35
X176.672 Z-0.471
X176.551 Z-0.608
X176.445 Z-0.76
X176.356 Z-0.929
X176.284 Z-1.115
X176.259 Z-1.207
X176.223 Z-1.406
X176.212 Z-1.587
Z-1.592
Z-9.497
X26.988
X26.984 Z-1.485
X26.961 Z-1.299
X26.919 Z-1.126
X26.877 Z-1.005
X26.792 Z-0.825
X26.701 Z-0.677
X26.591 Z-0.538
X26.465 Z-0.41
X26.323 Z-0.296
X26.167 Z-0.198
X26 Z-0.118
X25.823 Z-0.057
X25.638 Z-0.018
X25.449 Z-0.001
X25.4 Z0
X25.365 Z0.004
X25.333 Z0.016
X25.299 Z0.028
X25.263 Z0.032
X25.224 Y26.683
X25.192 Y26.705
X25.17 Y26.737
X25.163 Y26.776
X25.17 Y26.814
X25.192 Y26.846
X25.224 Y26.868
X25.263 Y26.876
X25.299 Z0.028
X25.333 Z0.016
X25.365 Z0.004
X25.4 Z0
X25.449 Z-0.001
X25.638 Z-0.018
X25.823 Z-0.057
X26 Z-0.118
X26.167 Z-0.198
X26.323 Z-0.296
X26.465 Z-0.41
X26.591 Z-0.538
X26.701 Z-0.677
X26.792 Z-0.825
X26.877 Z-1.005
X26.919 Z-1.126
X26.961 Z-1.299
X26.984 Z-1.485
Z-1.49
X26.988 Z-9.599
X176.212
Z-9.594
Z-1.587
X176.223 Z-1.406
X176.259 Z-1.207
X176.284 Z-1.115
X176.356 Z-0.929
X176.445 Z-0.76
X176.551 Z-0.608
X176.672 Z-0.471
X176.806 Z-0.35
X176.951 Z-0.246
X177.105 Z-0.16
X177.267 Z-0.092
X177.434 Z-0.043
X177.604 Z-0.012
X177.8 Z0
X177.831 Z0.005
X177.86 Z0.016
X177.894 Z0.028
X177.93 Z0.032
X177.968 Y26.883
X178.001 Y26.905
X178.022 Y26.937
X178.03 Y26.976
X178.022 Y27.014
X178.001 Y27.046
X177.968 Y27.068
X177.93 Y27.076
X177.894 Z0.028
X177.86 Z0.016
X177.831 Z0.005
X177.8 Z0
X177.604 Z-0.012
X177.434 Z-0.043
X177.267 Z-0.092
X177.105 Z-0.16
X176.951 Z-0.246
X176.806 Z-0.35
X176.672 Z-0.471
X176.551 Z-0.608
X176.445 Z-0.76
X176.356 Z-0.929
X176.284 Z-1.115
X176.259 Z-1.207
X176.223 Z-1.406
X176.212 Z-1.587
Z-1.592
Z-9.691
X26.988
X26.984 Z-1.485
X26.961 Z-1.299
X26.919 Z-1.126
X26.877 Z-1.005
X26.792 Z-0.825
X26.701 Z-0.677
X26.591 Z-0.538
X26.465 Z-0.41
X26.323 Z-0.296
X26.167 Z-0.198
X26 Z-0.118
X25.823 Z-0.057
X25.638 Z-0.018
X25.449 Z-0.001
X25.4 Z0
X25.365 Z0.004
X25.333 Z0.016
X25.299 Z0.028
X25.263 Z0.032
X25.224 Y27.083
X25.192 Y27.105
X25.17 Y27.137
X25.163 Y27.176
X25.17 Y27.214
X25.192 Y27.246
X25.224 Y27.268
X25.263 Y27.276
X25.299 Z0.028
X25.333 Z0.016
X25.365 Z0.004
X25.4 Z0
X25.449 Z-0.001
X25.638 Z-0.018
X25.823 Z-0.057
X26 Z-0.118
X26.167 Z-0.198
X26.323 Z-0.296
X26.465 Z-0.41
X26.591 Z-0.538
X26.701 Z-0.677
X26.792 Z-0.825
X26.877 Z-1.005
X26.919 Z-1.126
X26.961 Z-1.299
X26.984 Z-1.485
Z-1.49
X26.988 Z-9.783
X176.212
Z-9.778
Z-1.587
X176.223 Z-1.406
X176.259 Z-1.207
X176.284 Z-1.115
X176.356 Z-0.929
X176.445 Z-0.76
X176.551 Z-0.608
X176.672 Z-0.471
X176.806 Z-0.35
X176.951 Z-0.246
X177.105 Z-0.16
X177.267 Z-0.092
X177.434 Z-0.043
X177.604 Z-0.012
X177.8 Z0
X177.831 Z0.005
X177.86 Z0.016
X177.894 Z0.028
X177.93 Z0.032
X177.968 Y27.283
X178.001 Y27.305
X178.022 Y27.337
X178.03 Y27.376
X178.022 Y27.414
X178.001 Y27.446
X177.968 Y27.468
X177.93 Y27.476
X177.894 Z0.028
X177.86 Z0.016
X177.831 Z0.005
X177.8 Z0
X177.604 Z-0.012
X177.434 Z-0.043
X177.267 Z-0.092
X177.105 Z-0.16
X176.951 Z-0.246
X176.806 Z-0.35
X176.672 Z-0.471
X176.551 Z-0.608
X176.445 Z-0.76
X176.356 Z-0.929
X176.284 Z-1.115
X176.259 Z-1.207
X176.223 Z-1.406
X176.212 Z-1.587
Z-1.592
Z-9.862
X26.988
Z-9.857
X26.984 Z-1.485
X26.961 Z-1.299
X26.919 Z-1.126
X26.877 Z-1.005
X26.792 Z-0.825
X26.701 Z-0.677
X26.591 Z-0.538
X26.465 Z-0.41
X26.323 Z-0.296
X26.167 Z-0.198
X26 Z-0.118
X25.823 Z-0.057
X25.638 Z-0.018
X25.449 Z-0.001
X25.4 Z0
X25.365 Z0.004
X25.333 Z0.016
X25.299 Z0.028
X25.263 Z0.032
X25.224 Y27.483
X25.192 Y27.505
X25.17 Y27.537
X25.163 Y27.576
X25.17 Y27.614
X25.192 Y27.646
X25.224 Y27.668
X25.263 Y27.676
X25.299 Z0.028
X25.333 Z0.016
X25.365 Z0.004
X25.4 Z0
X25.449 Z-0.001
X25.638 Z-0.018
X25.823 Z-0.057
X26 Z-0.118
X26.167 Z-0.198
X26.323 Z-0.296
X26.465 Z-0.41
X26.591 Z-0.538
X26.701 Z-0.677
X26.792 Z-0.825
X26.877 Z-1.005
X26.919 Z-1.126
X26.961 Z-1.299
X26.984 Z-1.485
Z-1.49
X26.988 Z-9.939
X176.212
Z-9.934
Z-1.587
X176.223 Z-1.406
X176.259 Z-1.207
X176.284 Z-1.115
X176.356 Z-0.929
X176.445 Z-0.76
X176.551 Z-0.608
X176.672 Z-0.471
X176.806 Z-0.35
X176.951 Z-0.246
X177.105 Z-0.16
X177.267 Z-0.092
X177.434 Z-0.043
X177.604 Z-0.012
X177.8 Z0
X177.831 Z0.005
X177.86 Z0.016
X177.894 Z0.028
X177.93 Z0.032
X177.968 Y27.683
X178.001 Y27.705
X178.022 Y27.737
X178.03 Y27.776
X178.022 Y27.814
X178.001 Y27.846
X177.968 Y27.868
X177.93 Y27.876
X177.894 Z0.028
X177.86 Z0.016
X177.831 Z0.005
X177.8 Z0
X177.604 Z-0.012
X177.434 Z-0.043
X177.267 Z-0.092
X177.105 Z-0.16
X176.951 Z-0.246
X176.806 Z-0.35
X176.672 Z-0.471
X176.551 Z-0.608
X176.445 Z-0.76
X176.356 Z-0.929
X176.284 Z-1.115
X176.259 Z-1.207
X176.223 Z-1.406
X176.212 Z-1.587
Z-1.592
Z-10.013
X26.988
Z-10.008
X26.984 Z-1.485
X26.961 Z-1.299
X26.919 Z-1.126
X26.877 Z-1.005
X26.792 Z-0.825
X26.701 Z-0.677
X26.591 Z-0.538
X26.465 Z-0.41
X26.323 Z-0.296
X26.167 Z-0.198
X26 Z-0.118
X25.823 Z-0.057
X25.638 Z-0.018
X25.449 Z-0.001
X25.4 Z0
X25.365 Z0.004
X25.333 Z0.016
X25.299 Z0.028
X25.263 Z0.032
X25.224 Y27.883
X25.192 Y27.905
X25.17 Y27.937
X25.163 Y27.976
X25.17 Y28.014
X25.192 Y28.046
X25.224 Y28.068
X25.263 Y28.076
X25.299 Z0.028
X25.333 Z0.016
X25.365 Z0.004
X25.4 Z0
X25.449 Z-0.001
X25.638 Z-0.018
X25.823 Z-0.057
X26 Z-0.118
X26.167 Z-0.198
X26.323 Z-0.296
X26.465 Z-0.41
X26.591 Z-0.538
X26.701 Z-0.677
X26.792 Z-0.825
X26.877 Z-1.005
X26.919 Z-1.126
X26.961 Z-1.299
X26.984 Z-1.485
Z-1.49
X26.988 Z-10.076
X176.212
Z-10.071
Z-1.587
X176.223 Z-1.406
X176.259 Z-1.207
X176.284 Z-1.115
X176.356 Z-0.929
X176.445 Z-0.76
X176.551 Z-0.608
X176.672 Z-0.471
X176.806 Z-0.35
X176.951 Z-0.246
X177.105 Z-0.16
X177.267 Z-0.092
X177.434 Z-0.043
X177.604 Z-0.012
X177.8 Z0
X177.831 Z0.005
X177.86 Z0.016
X177.894 Z0.028
X177.93 Z0.032
X177.968 Y28.083
X178.001 Y28.105
X178.022 Y28.137
X178.03 Y28.176
X178.022 Y28.214
X178.001 Y28.246
X177.968 Y28.268
X177.93 Y28.276
X177.894 Z0.028
X177.86 Z0.016
X177.831 Z0.005
X177.8 Z0
X177.604 Z-0.012
X177.434 Z-0.043
X177.267 Z-0.092
X177.105 Z-0.16
X176.951 Z-0.246
X176.806 Z-0.35
X176.672 Z-0.471
X176.551 Z-0.608
X176.445 Z-0.76
X176.356 Z-0.929
X176.284 Z-1.115
X176.259 Z-1.207
X176.223 Z-1.406
X176.212 Z-1.587
Z-1.592
Z-10.14
X26.988
Z-10.135
X26.984 Z-1.485
X26.961 Z-1.299
X26.919 Z-1.126
X26.877 Z-1.005
X26.792 Z-0.825
X26.701 Z-0.677
X26.591 Z-0.538
X26.465 Z-0.41
X26.323 Z-0.296
X26.167 Z-0.198
X26 Z-0.118
X25.823 Z-0.057
X25.638 Z-0.018
X25.449 Z-0.001
X25.4 Z0
X25.365 Z0.004
X25.333 Z0.016
X25.299 Z0.028
X25.263 Z0.032
X25.224 Y28.283
X25.192 Y28.305
X25.17 Y28.337
X25.163 Y28.376
X25.17 Y28.414
X25.192 Y28.446
X25.224 Y28.468
X25.263 Y28.476
X25.299 Z0.028
X25.333 Z0.016
X25.365 Z0.004
X25.4 Z0
X25.449 Z-0.001
X25.638 Z-0.018
X25.823 Z-0.057
X26 Z-0.118
X26.167 Z-0.198
X26.323 Z-0.296
X26.465 Z-0.41
X26.591 Z-0.538
X26.701 Z-0.677
X26.792 Z-0.825
X26.877 Z-1.005
X26.919 Z-1.126
X26.961 Z-1.299
X26.984 Z-1.485
X26.988 Z-10.194
X176.212
Z-10.189
Z-1.587
X176.223 Z-1.406
X176.259 Z-1.207
X176.284 Z-1.115
X176.356 Z-0.929
X176.445 Z-0.76
X176.551 Z-0.608
X176.672 Z-0.471
X176.806 Z-0.35
X176.951 Z-0.246
X177.105 Z-0.16
X177.267 Z-0.092
X177.434 Z-0.043
X177.604 Z-0.012
X177.8 Z0
X177.831 Z0.005
X177.86 Z0.016
X177.894 Z0.028
X177.93 Z0.032
X177.968 Y28.483
X178.001 Y28.505
X178.022 Y28.537
X178.03 Y28.576
X178.022 Y28.614
X178.001 Y28.646
X177.968 Y28.668
X177.93 Y28.676
X177.894 Z0.028
X177.86 Z0.016
X177.831 Z0.005
X177.8 Z0
X177.604 Z-0.012
X177.434 Z-0.043
X177.267 Z-0.092
X177.105 Z-0.16
X176.951 Z-0.246
X176.806 Z-0.35
X176.672 Z-0.471
X176.551 Z-0.608
X176.445 Z-0.76
X176.356 Z-0.929
X176.284 Z-1.115
X176.259 Z-1.207
X176.223 Z-1.406
X176.212 Z-1.587
Z-1.592
Z-10.244
X26.988
X26.984 Z-1.485
X26.961 Z-1.299
X26.919 Z-1.126
X26.877 Z-1.005
X26.792 Z-0.825
X26.701 Z-0.677
X26.591 Z-0.538
X26.465 Z-0.41
X26.323 Z-0.296
X26.167 Z-0.198
X26 Z-0.118
X25.823 Z-0.057
X25.638 Z-0.018
X25.449 Z-0.001
X25.4 Z0
X25.365 Z0.004
X25.333 Z0.016
X25.299 Z0.028
X25.263 Z0.032
X25.224 Y28.683
X25.192 Y28.705
X25.17 Y28.737
X25.163 Y28.776
X25.17 Y28.814
X25.192 Y28.846
X25.224 Y28.868
X25.263 Y28.876
X25.299 Z0.028
X25.333 Z0.016
X25.365 Z0.004
X25.4 Z0
X25.449 Z-0.001
X25.638 Z-0.018
X25.823 Z-0.057
X26 Z-0.118
X26.167 Z-0.198
X26.323 Z-0.296
X26.465 Z-0.41
X26.591 Z-0.538
X26.701 Z-0.677
X26.792 Z-0.825
X26.877 Z-1.005
X26.919 Z-1.126
X26.961 Z-1.299
X26.984 Z-1.485
X26.988 Z-10.294
X176.212
Z-10.289
Z-1.587
X176.223 Z-1.406
X176.259 Z-1.207
X176.284 Z-1.115
X176.356 Z-0.929
X176.445 Z-0.76
X176.551 Z-0.608
X176.672 Z-0.471
X176.806 Z-0.35
X176.951 Z-0.246
X177.105 Z-0.16
X177.267 Z-0.092
X177.434 Z-0.043
X177.604 Z-0.012
X177.8 Z0
X177.831 Z0.005
X177.86 Z0.016
X177.894 Z0.028
X177.93 Z0.032
X177.968 Y28.883
X178.001 Y28.905
X178.022 Y28.937
X178.03 Y28.976
X178.022 Y29.014
X178.001 Y29.046
X177.968 Y29.068
X177.93 Y29.076
X177.894 Z0.028
X177.86 Z0.016
X177.831 Z0.005
X177.8 Z0
X177.604 Z-0.012
X177.434 Z-0.043
X177.267 Z-0.092
X177.105 Z-0.16
X176.951 Z-0.246
X176.806 Z-0.35
X176.672 Z-0.471
X176.551 Z-0.608
X176.445 Z-0.76
X176.356 Z-0.929
X176.284 Z-1.115
X176.259 Z-1.207
X176.223 Z-1.406
X176.212 Z-1.587
Z-1.592
Z-10.332
X26.988
Z-10.327
X26.984 Z-1.485
X26.961 Z-1.299
X26.919 Z-1.126
X26.877 Z-1.005
X26.792 Z-0.825
X26.701 Z-0.677
X26.591 Z-0.538
X26.465 Z-0.41
X26.323 Z-0.296
X26.167 Z-0.198
X26 Z-0.118
X25.823 Z-0.057
X25.638 Z-0.018
X25.449 Z-0.001
X25.4 Z0
X25.365 Z0.004
X25.333 Z0.016
X25.299 Z0.028
X25.263 Z0.032
X25.224 Y29.083
X25.192 Y29.105
X25.17 Y29.137
X25.163 Y29.176
X25.17 Y29.214
X25.192 Y29.246
X25.224 Y29.268
X25.263 Y29.276
X25.299 Z0.028
X25.333 Z0.016
X25.365 Z0.004
X25.4 Z0
X25.449 Z-0.001
X25.638 Z-0.018
X25.823 Z-0.057
X26 Z-0.118
X26.167 Z-0.198
X26.323 Z-0.296
X26.465 Z-0.41
X26.591 Z-0.538
X26.701 Z-0.677
X26.792 Z-0.825
X26.877 Z-1.005
X26.919 Z-1.126
X26.961 Z-1.299
X26.984 Z-1.485
Z-1.49
X26.988 Z-10.369
X176.212
Z-10.364
Z-1.587
X176.223 Z-1.406
X176.259 Z-1.207
X176.284 Z-1.115
X176.356 Z-0.929
X176.445 Z-0.76
X176.551 Z-0.608
X176.672 Z-0.471
X176.806 Z-0.35
X176.951 Z-0.246
X177.105 Z-0.16
X177.267 Z-0.092
X177.434 Z-0.043
X177.604 Z-0.012
X177.8 Z0
X177.831 Z0.005
X177.86 Z0.016
X177.894 Z0.028
X177.93 Z0.032
X177.968 Y29.283
X178.001 Y29.305
X178.022 Y29.337
X178.03 Y29.376
X178.022 Y29.414
X178.001 Y29.446
X177.968 Y29.468
X177.93 Y29.476
X177.894 Z0.028
X177.86 Z0.016
X177.831 Z0.005
X177.8 Z0
X177.604 Z-0.012
X177.434 Z-0.043
X177.267 Z-0.092
X177.105 Z-0.16
X176.951 Z-0.246
X176.806 Z-0.35
X176.672 Z-0.471
X176.551 Z-0.608
X176.445 Z-0.76
X176.356 Z-0.929
X176.284 Z-1.115
X176.259 Z-1.207
X176.223 Z-1.406
X176.212 Z-1.587
Z-1.592
Z-10.402
X26.988
X26.984 Z-1.485
X26.961 Z-1.299
X26.919 Z-1.126
X26.877 Z-1.005
X26.792 Z-0.825
X26.701 Z-0.677
X26.591 Z-0.538
X26.465 Z-0.41
X26.323 Z-0.296
X26.167 Z-0.198
X26 Z-0.118
X25.823 Z-0.057
X25.638 Z-0.018
X25.449 Z-0.001
X25.4 Z0
X25.365 Z0.004
X25.333 Z0.016
X25.299 Z0.028
X25.263 Z0.032
X25.224 Y29.483
X25.192 Y29.505
X25.17 Y29.537
X25.163 Y29.576
X25.17 Y29.614
X25.192 Y29.646
X25.224 Y29.668
X25.263 Y29.676
X25.299 Z0.028
X25.333 Z0.016
X25.365 Z0.004
X25.4 Z0
X25.449 Z-0.001
X25.638 Z-0.018
X25.823 Z-0.057
X26 Z-0.118
X26.167 Z-0.198
X26.323 Z-0.296
X26.465 Z-0.41
X26.591 Z-0.538
X26.701 Z-0.677
X26.792 Z-0.825
X26.877 Z-1.005
X26.919 Z-1.126
X26.961 Z-1.299
X26.984 Z-1.485
Z-1.49
X26.988 Z-10.427
X176.212
Z-10.422
Z-1.587
X176.223 Z-1.406
X176.259 Z-1.207
X176.284 Z-1.115
X176.356 Z-0.929
X176.445 Z-0.76
X176.551 Z-0.608
X176.672 Z-0.471
X176.806 Z-0.35
X176.951 Z-0.246
X177.105 Z-0.16
X177.267 Z-0.092
X177.434 Z-0.043
X177.604 Z-0.012
X177.8 Z0
X177.831 Z0.005
X177.86 Z0.016
X177.894 Z0.028
X177.93 Z0.032
X177.968 Y29.683
X178.001 Y29.705
X178.022 Y29.737
X178.03 Y29.776
X178.022 Y29.814
X178.001 Y29.846
X177.968 Y29.868
X177.93 Y29.876
X177.894 Z0.028
X177.86 Z0.016
X177.831 Z0.005
X177.8 Z0
X177.604 Z-0.012
X177.434 Z-0.043
X177.267 Z-0.092
X177.105 Z-0.16
X176.951 Z-0.246
X176.806 Z-0.35
X176.672 Z-0.471
X176.551 Z-0.608
X176.445 Z-0.76
X176.356 Z-0.929
X176.284 Z-1.115
X176.259 Z-1.207
X176.223 Z-1.406
X176.212 Z-1.587
Z-1.592
Z-10.452
X26.988
Z-10.447
X26.984 Z-1.485
X26.961 Z-1.299
X26.919 Z-1.126
X26.877 Z-1.005
X26.792 Z-0.825
X26.701 Z-0.677
X26.591 Z-0.538
X26.465 Z-0.41
X26.323 Z-0.296
X26.167 Z-0.198
X26 Z-0.118
X25.823 Z-0.057
X25.638 Z-0.018
X25.449 Z-0.001
X25.4 Z0
X25.365 Z0.004
X25.333 Z0.016
X25.299 Z0.028
X25.263 Z0.032
X25.224 Y29.883
X25.192 Y29.905
X25.17 Y29.937
X25.163 Y29.976
X25.17 Y30.014
X25.192 Y30.046
X25.224 Y30.068
X25.263 Y30.076
X25.299 Z0.028
X25.333 Z0.016
X25.365 Z0.004
X25.4 Z0
X25.449 Z-0.001
X25.638 Z-0.018
X25.823 Z-0.057
X26 Z-0.118
X26.167 Z-0.198
X26.323 Z-0.296
X26.465 Z-0.41
X26.591 Z-0.538
X26.701 Z-0.677
X26.792 Z-0.825
X26.877 Z-1.005
X26.919 Z-1.126
X26.961 Z-1.299
X26.984 Z-1.485
X26.988 Z-10.469
X176.212
Z-10.464
Z-1.587
X176.223 Z-1.406
X176.259 Z-1.207
X176.284 Z-1.115
X176.356 Z-0.929
X176.445 Z-0.76
X176.551 Z-0.608
X176.672 Z-0.471
X176.806 Z-0.35
X176.951 Z-0.246
X177.105 Z-0.16
X177.267 Z-0.092
X177.434 Z-0.043
X177.604 Z-0.012
X177.8 Z0
X177.831 Z0.005
X177.86 Z0.016
X177.894 Z0.028
X177.93 Z0.032
X177.968 Y30.083
X178.001 Y30.105
X178.022 Y30.137
X178.03 Y30.176
X178.022 Y30.214
X178.001 Y30.246
X177.968 Y30.268
X177.93 Y30.276
X177.894 Z0.028
X177.86 Z0.016
X177.831 Z0.005
X177.8 Z0
X177.604 Z-0.012
X177.434 Z-0.043
X177.267 Z-0.092
X177.105 Z-0.16
X176.951 Z-0.246
X176.806 Z-0.35
X176.672 Z-0.471
X176.551 Z-0.608
X176.445 Z-0.76
X176.356 Z-0.929
X176.284 Z-1.115
X176.259 Z-1.207
X176.223 Z-1.406
X176.212 Z-1.587
Z-1.592
Z-10.481
X26.988
X26.984 Z-1.485
X26.961 Z-1.299
X26.919 Z-1.126
X26.877 Z-1.005
X26.792 Z-0.825
X26.701 Z-0.677
X26.591 Z-0.538
X26.465 Z-0.41
X26.323 Z-0.296
X26.167 Z-0.198
X26 Z-0.118
X25.823 Z-0.057
X25.638 Z-0.018
X25.449 Z-0.001
X25.4 Z0
X25.365 Z0.004
X25.333 Z0.016
X25.299 Z0.028
X25.263 Z0.032
X25.224 Y30.283
X25.192 Y30.305
X25.17 Y30.337
X25.163 Y30.376
X25.17 Y30.414
X25.192 Y30.446
X25.224 Y30.468
X25.263 Y30.476
X25.299 Z0.028
X25.333 Z0.016
X25.365 Z0.004
X25.4 Z0
X25.449 Z-0.001
X25.638 Z-0.018
X25.823 Z-0.057
X26 Z-0.118
X26.167 Z-0.198
X26.323 Z-0.296
X26.465 Z-0.41
X26.591 Z-0.538
X26.701 Z-0.677
X26.792 Z-0.825
X26.877 Z-1.005
X26.919 Z-1.126
X26.961 Z-1.299
X26.984 Z-1.485
Z-1.49
X26.988 Z-10.493
X176.212
Z-10.488
Z-1.587
X176.223 Z-1.406
X176.259 Z-1.207
X176.284 Z-1.115
X176.356 Z-0.929
X176.445 Z-0.76
X176.551 Z-0.608
X176.672 Z-0.471
X176.806 Z-0.35
X176.951 Z-0.246
X177.105 Z-0.16
X177.267 Z-0.092
X177.434 Z-0.043
X177.604 Z-0.012
X177.8 Z0
X177.831 Z0.005
X177.86 Z0.016
X177.894 Z0.028
X177.93 Z0.032
X177.968 Y30.483
X178.001 Y30.505
X178.022 Y30.537
X178.03 Y30.576
X178.022 Y30.614
X178.001 Y30.646
X177.968 Y30.668
X177.93 Y30.676
X177.894 Z0.028
X177.86 Z0.016
X177.831 Z0.005
X177.8 Z0
X177.604 Z-0.012
X177.434 Z-0.043
X177.267 Z-0.092
X177.105 Z-0.16
X176.951 Z-0.246
X176.806 Z-0.35
X176.672 Z-0.471
X176.551 Z-0.608
X176.445 Z-0.76
X176.356 Z-0.929
X176.284 Z-1.115
X176.259 Z-1.207
X176.223 Z-1.406
X176.212 Z-1.587
Z-1.592
Z-10.495
X26.988
Z-10.49
X26.984 Z-1.485
X26.961 Z-1.299
X26.919 Z-1.126
X26.877 Z-1.005
X26.792 Z-0.825
X26.701 Z-0.677
X26.591 Z-0.538
X26.465 Z-0.41
X26.323 Z-0.296
X26.167 Z-0.198
X26 Z-0.118
X25.823 Z-0.057
X25.638 Z-0.018
X25.449 Z-0.001
X25.4 Z0
X25.365 Z0.004
X25.333 Z0.016
X25.299 Z0.028
X25.263 Z0.032
X25.224 Y30.683
X25.192 Y30.705
X25.17 Y30.737
X25.163 Y30.776
X25.17 Y30.814
X25.192 Y30.846
X25.224 Y30.868
X25.263 Y30.876
X25.299 Z0.028
X25.333 Z0.016
X25.365 Z0.004
X25.4 Z0
X25.449 Z-0.001
X25.638 Z-0.018
X25.823 Z-0.057
X26 Z-0.118
X26.167 Z-0.198
X26.323 Z-0.296
X26.465 Z-0.41
X26.591 Z-0.538
X26.701 Z-0.677
X26.792 Z-0.825
X26.877 Z-1.005
X26.919 Z-1.126
X26.961 Z-1.299
X26.984 Z-1.485
Z-1.49
X26.988 Z-10.495
X176.212
Z-10.49
Z-1.587
X176.223 Z-1.406
X176.259 Z-1.207
X176.284 Z-1.115
X176.356 Z-0.929
X176.445 Z-0.76
X176.551 Z-0.608
X176.672 Z-0.471
X176.806 Z-0.35
X176.951 Z-0.246
X177.105 Z-0.16
X177.267 Z-0.092
X177.434 Z-0.043
X177.604 Z-0.012
X177.8 Z0
X177.831 Z0.005
X177.86 Z0.016
X177.894 Z0.028
X177.93 Z0.032
X177.968 Y30.883
X178.001 Y30.905
X178.022 Y30.937
X178.03 Y30.976
X178.022 Y31.014
X178.001 Y31.046
X177.968 Y31.068
X177.93 Y31.076
X177.894 Z0.028
X177.86 Z0.016
X177.831 Z0.005
X177.8 Z0
X177.604 Z-0.012
X177.434 Z-0.043
X177.267 Z-0.092
X177.105 Z-0.16
X176.951 Z-0.246
X176.806 Z-0.35
X176.672 Z-0.471
X176.551 Z-0.608
X176.445 Z-0.76
X176.356 Z-0.929
X176.284 Z-1.115
X176.259 Z-1.207
X176.223 Z-1.406
X176.212 Z-1.587
Z-1.592
Z-10.493
X26.988
Z-10.488
X26.984 Z-1.485
X26.961 Z-1.299
X26.919 Z-1.126
X26.877 Z-1.005
X26.792 Z-0.825
X26.701 Z-0.677
X26.591 Z-0.538
X26.465 Z-0.41
X26.323 Z-0.296
X26.167 Z-0.198
X26 Z-0.118
X25.823 Z-0.057
X25.638 Z-0.018
X25.449 Z-0.001
X25.4 Z0
X25.365 Z0.004
X25.333 Z0.016
X25.299 Z0.028
X25.263 Z0.032
X25.224 Y31.083
X25.192 Y31.105
X25.17 Y31.137
X25.163 Y31.176
X25.17 Y31.214
X25.192 Y31.246
X25.224 Y31.268
X25.263 Y31.276
X25.299 Z0.028
X25.333 Z0.016
X25.365 Z0.004
X25.4 Z0
X25.449 Z-0.001
X25.638 Z-0.018
X25.823 Z-0.057
X26 Z-0.118
X26.167 Z-0.198
X26.323 Z-0.296
X26.465 Z-0.41
X26.591 Z-0.538
X26.701 Z-0.677
X26.792 Z-0.825
X26.877 Z-1.005
X26.919 Z-1.126
X26.961 Z-1.299
X26.984 Z-1.485
Z-1.49
X26.988 Z-10.481
X176.212
Z-10.476
Z-1.587
X176.223 Z-1.406
X176.259 Z-1.207
X176.284 Z-1.115
X176.356 Z-0.929
X176.445 Z-0.76
X176.551 Z-0.608
X176.672 Z-0.471
X176.806 Z-0.35
X176.951 Z-0.246
X177.105 Z-0.16
X177.267 Z-0.092
X177.434 Z-0.043
X177.604 Z-0.012
X177.8 Z0
X177.831 Z0.005
X177.86 Z0.016
X177.894 Z0.028
X177.93 Z0.032
X177.968 Y31.283
X178.001 Y31.305
X178.022 Y31.337
X178.03 Y31.376
X178.022 Y31.414
X178.001 Y31.446
X177.968 Y31.468
X177.93 Y31.476
X177.894 Z0.028
X177.86 Z0.016
X177.831 Z0.005
X177.8 Z0
X177.604 Z-0.012
X177.434 Z-0.043
X177.267 Z-0.092
X177.105 Z-0.16
X176.951 Z-0.246
X176.806 Z-0.35
X176.672 Z-0.471
X176.551 Z-0.608
X176.445 Z-0.76
X176.356 Z-0.929
X176.284 Z-1.115
X176.259 Z-1.207
X176.223 Z-1.406
X176.212 Z-1.587
Z-1.592
Z-10.469
X26.988
Z-10.464
X26.984 Z-1.485
X26.961 Z-1.299
X26.919 Z-1.126
X26.877 Z-1.005
X26.792 Z-0.825
X26.701 Z-0.677
X26.591 Z-0.538
X26.465 Z-0.41
X26.323 Z-0.296
X26.167 Z-0.198
X26 Z-0.118
X25.823 Z-0.057
X25.638 Z-0.018
X25.449 Z-0.001
X25.4 Z0
X25.365 Z0.004
X25.333 Z0.016
X25.299 Z0.028
X25.263 Z0.032
X25.224 Y31.483
X25.192 Y31.505
X25.17 Y31.537
X25.163 Y31.576
X25.17 Y31.614
X25.192 Y31.646
X25.224 Y31.668
X25.263 Y31.676
X25.299 Z0.028
X25.333 Z0.016
X25.365 Z0.004
X25.4 Z0
X25.449 Z-0.001
X25.638 Z-0.018
X25.823 Z-0.057
X26 Z-0.118
X26.167 Z-0.198
X26.323 Z-0.296
X26.465 Z-0.41
X26.591 Z-0.538
X26.701 Z-0.677
X26.792 Z-0.825
X26.877 Z-1.005
X26.919 Z-1.126
X26.961 Z-1.299
X26.984 Z-1.485
X26.988 Z-10.452
X176.212
Z-10.447
Z-1.587
X176.223 Z-1.406
X176.259 Z-1.207
X176.284 Z-1.115
X176.356 Z-0.929
X176.445 Z-0.76
X176.551 Z-0.608
X176.672 Z-0.471
X176.806 Z-0.35
X176.951 Z-0.246
X177.105 Z-0.16
X177.267 Z-0.092
X177.434 Z-0.043
X177.604 Z-0.012
X177.8 Z0
X177.831 Z0.005
X177.86 Z0.016
X177.894 Z0.028
X177.93 Z0.032
X177.968 Y31.683
X178.001 Y31.705
X178.022 Y31.737
X178.03 Y31.776
X178.022 Y31.814
X178.001 Y31.846
X177.968 Y31.868
X177.93 Y31.876
X177.894 Z0.028
X177.86 Z0.016
X177.831 Z0.005
X177.8 Z0
X177.604 Z-0.012
X177.434 Z-0.043
X177.267 Z-0.092
X177.105 Z-0.16
X176.951 Z-0.246
X176.806 Z-0.35
X176.672 Z-0.471
X176.551 Z-0.608
X176.445 Z-0.76
X176.356 Z-0.929
X176.284 Z-1.115
X176.259 Z-1.207
X176.223 Z-1.406
X176.212 Z-1.587
Z-1.592
Z-10.427
X26.988
X26.984 Z-1.485
X26.961 Z-1.299
X26.919 Z-1.126
X26.877 Z-1.005
X26.792 Z-0.825
X26.701 Z-0.677
X26.591 Z-0.538
X26.465 Z-0.41
X26.323 Z-0.296
X26.167 Z-0.198
X26 Z-0.118
X25.823 Z-0.057
X25.638 Z-0.018
X25.449 Z-0.001
X25.4 Z0
X25.365 Z0.004
X25.333 Z0.016
X25.299 Z0.028
X25.263 Z0.032
X25.224 Y31.883
X25.192 Y31.905
X25.17 Y31.937
X25.163 Y31.976
X25.17 Y32.014
X25.192 Y32.046
X25.224 Y32.068
X25.263 Y32.076
X25.299 Z0.028
X25.333 Z0.016
X25.365 Z0.004
X25.4 Z0
X25.449 Z-0.001
X25.638 Z-0.018
X25.823 Z-0.057
X26 Z-0.118
X26.167 Z-0.198
X26.323 Z-0.296
X26.465 Z-0.41
X26.591 Z-0.538
X26.701 Z-0.677
X26.792 Z-0.825
X26.877 Z-1.005
X26.919 Z-1.126
X26.961 Z-1.299
X26.984 Z-1.485
Z-1.49
X26.988 Z-10.402
X176.212
Z-10.397
Z-1.587
X176.223 Z-1.406
X176.259 Z-1.207
X176.284 Z-1.115
X176.356 Z-0.929
X176.445 Z-0.76
X176.551 Z-0.608
X176.672 Z-0.471
X176.806 Z-0.35
X176.951 Z-0.246
X177.105 Z-0.16
X177.267 Z-0.092
X177.434 Z-0.043
X177.604 Z-0.012
X177.8 Z0
X177.831 Z0.005
X177.86 Z0.016
X177.894 Z0.028
X177.93 Z0.032
X177.968 Y32.083
X178.001 Y32.105
X178.022 Y32.137
X178.03 Y32.176
X178.022 Y32.214
X178.001 Y32.246
X177.968 Y32.268
X177.93 Y32.276
X177.894 Z0.028
X177.86 Z0.016
X177.831 Z0.005
X177.8 Z0
X177.604 Z-0.012
X177.434 Z-0.043
X177.267 Z-0.092
X177.105 Z-0.16
X176.951 Z-0.246
X176.806 Z-0.35
X176.672 Z-0.471
X176.551 Z-0.608
X176.445 Z-0.76
X176.356 Z-0.929
X176.284 Z-1.115
X176.259 Z-1.207
X176.223 Z-1.406
X176.212 Z-1.587
Z-1.592
Z-10.369
X26.988
Z-10.364
X26.984 Z-1.485
X26.961 Z-1.299
X26.919 Z-1.126
X26.877 Z-1.005
X26.792 Z-0.825
X26.701 Z-0.677
X26.591 Z-0.538
X26.465 Z-0.41
X26.323 Z-0.296
X26.167 Z-0.198
X26 Z-0.118
X25.823 Z-0.057
X25.638 Z-0.018
X25.449 Z-0.001
X25.4 Z0
X25.365 Z0.004
X25.333 Z0.016
X25.299 Z0.028
X25.263 Z0.032
X25.224 Y32.283
X25.192 Y32.305
X25.17 Y32.337
X25.163 Y32.375
X25.17 Y32.414
X25.192 Y32.446
X25.224 Y32.468
X25.263 Y32.475
X25.299 Z0.028
X25.333 Z0.016
X25.365 Z0.004
X25.4 Z0
X25.449 Z-0.001
X25.638 Z-0.018
X25.823 Z-0.057
X26 Z-0.118
X26.167 Z-0.198
X26.323 Z-0.296
X26.465 Z-0.41
X26.591 Z-0.538
X26.701 Z-0.677
X26.792 Z-0.825
X26.877 Z-1.005
X26.919 Z-1.126
X26.961 Z-1.299
X26.984 Z-1.485
Z-1.49
X26.988 Z-10.331
X176.212
Z-10.326
Z-1.587
X176.223 Z-1.406
X176.259 Z-1.207
X176.284 Z-1.115
X176.356 Z-0.929
X176.445 Z-0.76
X176.551 Z-0.608
X176.672 Z-0.471
X176.806 Z-0.35
X176.951 Z-0.246
X177.105 Z-0.16
X177.267 Z-0.092
X177.434 Z-0.043
X177.604 Z-0.012
X177.8 Z0
X177.831 Z0.005
X177.86 Z0.016
X177.894 Z0.028
X177.93 Z0.032
X177.968 Y32.483
X178.001 Y32.505
X178.022 Y32.537
X178.03 Y32.575
X178.022 Y32.614
X178.001 Y32.646
X177.968 Y32.668
X177.93 Y32.675
X177.894 Z0.028
X177.86 Z0.016
X177.831 Z0.005
X177.8 Z0
X177.604 Z-0.012
X177.434 Z-0.043
X177.267 Z-0.092
X177.105 Z-0.16
X176.951 Z-0.246
X176.806 Z-0.35
X176.672 Z-0.471
X176.551 Z-0.608
X176.445 Z-0.76
X176.356 Z-0.929
X176.284 Z-1.115
X176.259 Z-1.207
X176.223 Z-1.406
X176.212 Z-1.587
Z-1.592
Z-10.294
X26.988
Z-10.289
X26.984 Z-1.485
X26.961 Z-1.299
X26.919 Z-1.126
X26.877 Z-1.005
X26.792 Z-0.825
X26.701 Z-0.677
X26.591 Z-0.538
X26.465 Z-0.41
X26.323 Z-0.296
X26.167 Z-0.198
X26 Z-0.118
X25.823 Z-0.057
X25.638 Z-0.018
X25.449 Z-0.001
X25.4 Z0
X25.365 Z0.004
X25.333 Z0.016
X25.299 Z0.028
X25.263 Z0.032
X25.224 Y32.683
X25.192 Y32.705
X25.17 Y32.737
X25.163 Y32.775
X25.17 Y32.814
X25.192 Y32.846
X25.224 Y32.868
X25.263 Y32.875
X25.299 Z0.028
X25.333 Z0.016
X25.365 Z0.004
X25.4 Z0
X25.449 Z-0.001
X25.638 Z-0.018
X25.823 Z-0.057
X26 Z-0.118
X26.167 Z-0.198
X26.323 Z-0.296
X26.465 Z-0.41
X26.591 Z-0.538
X26.701 Z-0.677
X26.792 Z-0.825
X26.877 Z-1.005
X26.919 Z-1.126
X26.961 Z-1.299
X26.984 Z-1.485
Z-1.49
X26.988 Z-10.244
X176.212
Z-10.239
Z-1.587
X176.223 Z-1.406
X176.259 Z-1.207
X176.284 Z-1.115
X176.356 Z-0.929
X176.445 Z-0.76
X176.551 Z-0.608
X176.672 Z-0.471
X176.806 Z-0.35
X176.951 Z-0.246
X177.105 Z-0.16
X177.267 Z-0.092
X177.434 Z-0.043
X177.604 Z-0.012
X177.8 Z0
X177.831 Z0.005
X177.86 Z0.016
X177.894 Z0.028
X177.93 Z0.032
X177.968 Y32.883
X178.001 Y32.905
X178.022 Y32.937
X178.03 Y32.975
X178.022 Y33.014
X178.001 Y33.046
X177.968 Y33.068
X177.93 Y33.075
X177.894 Z0.028
X177.86 Z0.016
X177.831 Z0.005
X177.8 Z0
X177.604 Z-0.012
X177.434 Z-0.043
X177.267 Z-0.092
X177.105 Z-0.16
X176.951 Z-0.246
X176.806 Z-0.35
X176.672 Z-0.471
X176.551 Z-0.608
X176.445 Z-0.76
X176.356 Z-0.929
X176.284 Z-1.115
X176.259 Z-1.207
X176.223 Z-1.406
X176.212 Z-1.587
Z-1.592
Z-10.194
X26.988
X26.984 Z-1.485
X26.961 Z-1.299
X26.919 Z-1.126
X26.877 Z-1.005
X26.792 Z-0.825
X26.701 Z-0.677
X26.591 Z-0.538
X26.465 Z-0.41
X26.323 Z-0.296
X26.167 Z-0.198
X26 Z-0.118
X25.823 Z-0.057
X25.638 Z-0.018
X25.449 Z-0.001
X25.4 Z0
X25.365 Z0.004
X25.333 Z0.016
X25.299 Z0.028
X25.263 Z0.032
X25.224 Y33.083
X25.192 Y33.105
X25.17 Y33.137
X25.163 Y33.175
X25.17 Y33.214
X25.192 Y33.246
X25.224 Y33.268
X25.263 Y33.275
X25.299 Z0.028
X25.333 Z0.016
X25.365 Z0.004
X25.4 Z0
X25.449 Z-0.001
X25.638 Z-0.018
X25.823 Z-0.057
X26 Z-0.118
X26.167 Z-0.198
X26.323 Z-0.296
X26.465 Z-0.41
X26.591 Z-0.538
X26.701 Z-0.677
X26.792 Z-0.825
X26.877 Z-1.005
X26.919 Z-1.126
X26.961 Z-1.299
X26.984 Z-1.485
Z-1.49
X26.988 Z-10.139
X176.212
Z-10.134
Z-1.587
X176.223 Z-1.406
X176.259 Z-1.207
X176.284 Z-1.115
X176.356 Z-0.929
X176.445 Z-0.76
X176.551 Z-0.608
X176.672 Z-0.471
X176.806 Z-0.35
X176.951 Z-0.246
X177.105 Z-0.16
X177.267 Z-0.092
X177.434 Z-0.043
X177.604 Z-0.012
X177.8 Z0
X177.831 Z0.005
X177.86 Z0.016
X177.894 Z0.028
X177.93 Z0.032
X177.968 Y33.283
X178.001 Y33.305
X178.022 Y33.337
X178.03 Y33.375
X178.022 Y33.414
X178.001 Y33.446
X177.968 Y33.468
X177.93 Y33.475
X177.894 Z0.028
X177.86 Z0.016
X177.831 Z0.005
X177.8 Z0
X177.604 Z-0.012
X177.434 Z-0.043
X177.267 Z-0.092
X177.105 Z-0.16
X176.951 Z-0.246
X176.806 Z-0.35
X176.672 Z-0.471
X176.551 Z-0.608
X176.445 Z-0.76
X176.356 Z-0.929
X176.284 Z-1.115
X176.259 Z-1.207
X176.223 Z-1.406
X176.212 Z-1.587
Z-1.592
Z-10.076
X26.988
Z-10.071
X26.984 Z-1.485
X26.961 Z-1.299
X26.919 Z-1.126
X26.877 Z-1.005
X26.792 Z-0.825
X26.701 Z-0.677
X26.591 Z-0.538
X26.465 Z-0.41
X26.323 Z-0.296
X26.167 Z-0.198
X26 Z-0.118
X25.823 Z-0.057
X25.638 Z-0.018
X25.449 Z-0.001
X25.4 Z0
X25.365 Z0.004
X25.333 Z0.016
X25.299 Z0.028
X25.263 Z0.032
X25.224 Y33.483
X25.192 Y33.505
X25.17 Y33.537
X25.163 Y33.575
X25.17 Y33.614
X25.192 Y33.646
X25.224 Y33.668
X25.263 Y33.675
X25.299 Z0.028
X25.333 Z0.016
X25.365 Z0.004
X25.4 Z0
X25.449 Z-0.001
X25.638 Z-0.018
X25.823 Z-0.057
X26 Z-0.118
X26.167 Z-0.198
X26.323 Z-0.296
X26.465 Z-0.41
X26.591 Z-0.538
X26.701 Z-0.677
X26.792 Z-0.825
X26.877 Z-1.005
X26.919 Z-1.126
X26.961 Z-1.299
X26.984 Z-1.485
Z-1.49
X26.988 Z-10.012
X176.212
Z-10.007
Z-1.587
X176.223 Z-1.406
X176.259 Z-1.207
X176.284 Z-1.115
X176.356 Z-0.929
X176.445 Z-0.76
X176.551 Z-0.608
X176.672 Z-0.471
X176.806 Z-0.35
X176.951 Z-0.246
X177.105 Z-0.16
X177.267 Z-0.092
X177.434 Z-0.043
X177.604 Z-0.012
X177.8 Z0
X177.831 Z0.005
X177.86 Z0.016
X177.894 Z0.028
X177.93 Z0.032
X177.968 Y33.683
X178.001 Y33.705
X178.022 Y33.737
X178.03 Y33.775
X178.022 Y33.814
X178.001 Y33.846
X177.968 Y33.868
X177.93 Y33.875
X177.894 Z0.028
X177.86 Z0.016
X177.831 Z0.005
X177.8 Z0
X177.604 Z-0.012
X177.434 Z-0.043
X177.267 Z-0.092
X177.105 Z-0.16
X176.951 Z-0.246
X176.806 Z-0.35
X176.672 Z-0.471
X176.551 Z-0.608
X176.445 Z-0.76
X176.356 Z-0.929
X176.284 Z-1.115
X176.259 Z-1.207
X176.223 Z-1.406
X176.212 Z-1.587
Z-1.592
Z-9.939
X26.988
Z-9.934
X26.984 Z-1.485
X26.961 Z-1.299
X26.919 Z-1.126
X26.877 Z-1.005
X26.792 Z-0.825
X26.701 Z-0.677
X26.591 Z-0.538
X26.465 Z-0.41
X26.323 Z-0.296
X26.167 Z-0.198
X26 Z-0.118
X25.823 Z-0.057
X25.638 Z-0.018
X25.449 Z-0.001
X25.4 Z0
X25.365 Z0.004
X25.333 Z0.016
X25.299 Z0.028
X25.263 Z0.032
X25.224 Y33.883
X25.192 Y33.905
X25.17 Y33.937
X25.163 Y33.975
X25.17 Y34.014
X25.192 Y34.046
X25.224 Y34.068
X25.263 Y34.075
X25.299 Z0.028
X25.333 Z0.016
X25.365 Z0.004
X25.4 Z0
X25.449 Z-0.001
X25.638 Z-0.018
X25.823 Z-0.057
X26 Z-0.118
X26.167 Z-0.198
X26.323 Z-0.296
X26.465 Z-0.41
X26.591 Z-0.538
X26.701 Z-0.677
X26.792 Z-0.825
X26.877 Z-1.005
X26.919 Z-1.126
X26.961 Z-1.299
X26.984 Z-1.485
Z-1.49
X26.988 Z-9.861
X176.212
Z-9.856
Z-1.587
X176.223 Z-1.406
X176.259 Z-1.207
X176.284 Z-1.115
X176.356 Z-0.929
X176.445 Z-0.76
X176.551 Z-0.608
X176.672 Z-0.471
X176.806 Z-0.35
X176.951 Z-0.246
X177.105 Z-0.16
X177.267 Z-0.092
X177.434 Z-0.043
X177.604 Z-0.012
X177.8 Z0
X177.831 Z0.005
X177.86 Z0.016
X177.894 Z0.028
X177.93 Z0.032
X177.968 Y34.083
X178.001 Y34.105
X178.022 Y34.137
X178.03 Y34.175
X178.022 Y34.214
X178.001 Y34.246
X177.968 Y34.268
X177.93 Y34.275
X177.894 Z0.028
X177.86 Z0.016
X177.831 Z0.005
X177.8 Z0
X177.604 Z-0.012
X177.434 Z-0.043
X177.267 Z-0.092
X177.105 Z-0.16
X176.951 Z-0.246
X176.806 Z-0.35
X176.672 Z-0.471
X176.551 Z-0.608
X176.445 Z-0.76
X176.356 Z-0.929
X176.284 Z-1.115
X176.259 Z-1.207
X176.223 Z-1.406
X176.212 Z-1.587
Z-1.592
Z-9.782
X26.988
Z-9.777
X26.984 Z-1.485
X26.961 Z-1.299
X26.919 Z-1.126
X26.877 Z-1.005
X26.792 Z-0.825
X26.701 Z-0.677
X26.591 Z-0.538
X26.465 Z-0.41
X26.323 Z-0.296
X26.167 Z-0.198
X26 Z-0.118
X25.823 Z-0.057
X25.638 Z-0.018
X25.449 Z-0.001
X25.4 Z0
X25.365 Z0.004
X25.333 Z0.016
X25.299 Z0.028
X25.263 Z0.032
X25.224 Y34.283
X25.192 Y34.305
X25.17 Y34.337
X25.163 Y34.375
X25.17 Y34.414
X25.192 Y34.446
X25.224 Y34.468
X25.263 Y34.475
X25.299 Z0.028
X25.333 Z0.016
X25.365 Z0.004
X25.4 Z0
X25.449 Z-0.001
X25.638 Z-0.018
X25.823 Z-0.057
X26 Z-0.118
X26.167 Z-0.198
X26.323 Z-0.296
X26.465 Z-0.41
X26.591 Z-0.538
X26.701 Z-0.677
X26.792 Z-0.825
X26.877 Z-1.005
X26.919 Z-1.126
X26.961 Z-1.299
X26.984 Z-1.485
Z-1.49
X26.988 Z-9.69
X176.212
Z-9.685
Z-1.587
X176.223 Z-1.406
X176.259 Z-1.207
X176.284 Z-1.115
X176.356 Z-0.929
X176.445 Z-0.76
X176.551 Z-0.608
X176.672 Z-0.471
X176.806 Z-0.35
X176.951 Z-0.246
X177.105 Z-0.16
X177.267 Z-0.092
X177.434 Z-0.043
X177.604 Z-0.012
X177.8 Z0
X177.831 Z0.005
X177.86 Z0.016
X177.894 Z0.028
X177.93 Z0.032
X177.968 Y34.483
X178.001 Y34.505
X178.022 Y34.537
X178.03 Y34.575
X178.022 Y34.614
X178.001 Y34.646
X177.968 Y34.668
X177.93 Y34.675
X177.894 Z0.028
X177.86 Z0.016
X177.831 Z0.005
X177.8 Z0
X177.604 Z-0.012
X177.434 Z-0.043
X177.267 Z-0.092
X177.105 Z-0.16
X176.951 Z-0.246
X176.806 Z-0.35
X176.672 Z-0.471
X176.551 Z-0.608
X176.445 Z-0.76
X176.356 Z-0.929
X176.284 Z-1.115
X176.259 Z-1.207
X176.223 Z-1.406
X176.212 Z-1.587
Z-1.592
Z-9.598
X26.988
Z-9.593
X26.984 Z-1.485
X26.961 Z-1.299
X26.919 Z-1.126
X26.877 Z-1.005
X26.792 Z-0.825
X26.701 Z-0.677
X26.591 Z-0.538
X26.465 Z-0.41
X26.323 Z-0.296
X26.167 Z-0.198
X26 Z-0.118
X25.823 Z-0.057
X25.638 Z-0.018
X25.449 Z-0.001
X25.4 Z0
X25.365 Z0.004
X25.333 Z0.016
X25.299 Z0.028
X25.263 Z0.032
X25.224 Y34.683
X25.192 Y34.705
X25.17 Y34.737
X25.163 Y34.775
X25.17 Y34.814
X25.192 Y34.846
X25.224 Y34.868
X25.263 Y34.875
X25.299 Z0.028
X25.333 Z0.016
X25.365 Z0.004
X25.4 Z0
X25.449 Z-0.001
X25.638 Z-0.018
X25.823 Z-0.057
X26 Z-0.118
X26.167 Z-0.198
X26.323 Z-0.296
X26.465 Z-0.41
X26.591 Z-0.538
X26.701 Z-0.677
X26.792 Z-0.825
X26.877 Z-1.005
X26.919 Z-1.126
X26.961 Z-1.299
X26.984 Z-1.485
X26.988 Z-9.496
X176.212
Z-9.491
Z-1.587
X176.223 Z-1.406
X176.259 Z-1.207
X176.284 Z-1.115
X176.356 Z-0.929
X176.445 Z-0.76
X176.551 Z-0.608
X176.672 Z-0.471
X176.806 Z-0.35
X176.951 Z-0.246
X177.105 Z-0.16
X177.267 Z-0.092
X177.434 Z-0.043
X177.604 Z-0.012
X177.8 Z0
X177.831 Z0.005
X177.86 Z0.016
X177.894 Z0.028
X177.93 Z0.032
X177.968 Y34.883
X178.001 Y34.905
X178.022 Y34.937
X178.03 Y34.975
X178.022 Y35.014
X178.001 Y35.046
X177.968 Y35.068
X177.93 Y35.075
X177.894 Z0.028
X177.86 Z0.016
X177.831 Z0.005
X177.8 Z0
X177.604 Z-0.012
X177.434 Z-0.043
X177.267 Z-0.092
X177.105 Z-0.16
X176.951 Z-0.246
X176.806 Z-0.35
X176.672 Z-0.471
X176.551 Z-0.608
X176.445 Z-0.76
X176.356 Z-0.929
X176.284 Z-1.115
X176.259 Z-1.207
X176.223 Z-1.406
X176.212 Z-1.587
Z-1.592
Z-9.389
X26.988
Z-9.384
X26.985 Z-1.506
X26.961 Z-1.299
X26.919 Z-1.126
X26.877 Z-1.005
X26.792 Z-0.825
X26.701 Z-0.677
X26.591 Z-0.538
X26.465 Z-0.41
X26.323 Z-0.296
X26.167 Z-0.198
X26 Z-0.118
X25.823 Z-0.057
X25.638 Z-0.018
X25.449 Z-0.001
X25.4 Z0
X25.365 Z0.004
X25.333 Z0.016
X25.299 Z0.028
X25.263 Z0.032
X25.224 Y35.083
X25.192 Y35.105
X25.17 Y35.137
X25.163 Y35.175
X25.17 Y35.214
X25.192 Y35.246
X25.224 Y35.268
X25.263 Y35.275
X25.299 Z0.028
X25.333 Z0.016
X25.365 Z0.004
X25.4 Z0
X25.449 Z-0.001
X25.638 Z-0.018
X25.823 Z-0.057
X26 Z-0.118
X26.167 Z-0.198
X26.323 Z-0.296
X26.465 Z-0.41
X26.591 Z-0.538
X26.701 Z-0.677
X26.792 Z-0.825
X26.877 Z-1.005
X26.919 Z-1.126
X26.961 Z-1.299
X26.985 Z-1.506
Z-1.511
X26.988 Z-9.278
X176.212
Z-9.273
Z-1.587
X176.223 Z-1.406
X176.259 Z-1.207
X176.284 Z-1.115
X176.356 Z-0.929
X176.445 Z-0.76
X176.551 Z-0.608
X176.672 Z-0.471
X176.806 Z-0.35
X176.951 Z-0.246
X177.105 Z-0.16
X177.267 Z-0.092
X177.434 Z-0.043
X177.604 Z-0.012
X177.8 Z0
X177.831 Z0.005
X177.86 Z0.016
X177.894 Z0.028
X177.93 Z0.032
X177.968 Y35.283
X178.001 Y35.305
X178.022 Y35.337
X178.03 Y35.375
X178.022 Y35.414
X178.001 Y35.446
X177.968 Y35.468
X177.93 Y35.475
X177.894 Z0.028
X177.86 Z0.016
X177.831 Z0.005
X177.8 Z0
X177.604 Z-0.012
X177.434 Z-0.043
X177.267 Z-0.092
X177.105 Z-0.16
X176.951 Z-0.246
X176.806 Z-0.35
X176.672 Z-0.471
X176.551 Z-0.608
X176.445 Z-0.76
X176.356 Z-0.929
X176.284 Z-1.115
X176.259 Z-1.207
X176.223 Z-1.406
X176.212 Z-1.587
Z-1.592
Z-9.154
X26.988
Z-9.149
X26.985 Z-1.506
X26.961 Z-1.299
X26.919 Z-1.126
X26.877 Z-1.005
X26.792 Z-0.825
X26.701 Z-0.677
X26.591 Z-0.538
X26.465 Z-0.41
X26.323 Z-0.296
X26.167 Z-0.198
X26 Z-0.118
X25.823 Z-0.057
X25.638 Z-0.018
X25.449 Z-0.001
X25.4 Z0
X25.365 Z0.004
X25.333 Z0.016
X25.299 Z0.028
X25.263 Z0.032
X25.224 Y35.483
X25.192 Y35.505
X25.17 Y35.537
X25.163 Y35.575
X25.17 Y35.614
X25.192 Y35.646
X25.224 Y35.668
X25.263 Y35.675
X25.299 Z0.028
X25.333 Z0.016
X25.365 Z0.004
X25.4 Z0
X25.449 Z-0.001
X25.638 Z-0.018
X25.823 Z-0.057
X26 Z-0.118
X26.167 Z-0.198
X26.323 Z-0.296
X26.465 Z-0.41
X26.591 Z-0.538
X26.701 Z-0.677
X26.792 Z-0.825
X26.877 Z-1.005
X26.919 Z-1.126
X26.961 Z-1.299
X26.985 Z-1.506
X26.988 Z-9.03
X176.212
Z-9.025
Z-1.587
X176.223 Z-1.406
X176.259 Z-1.207
X176.284 Z-1.115
X176.356 Z-0.929
X176.445 Z-0.76
X176.551 Z-0.608
X176.672 Z-0.471
X176.806 Z-0.35
X176.951 Z-0.246
X177.105 Z-0.16
X177.267 Z-0.092
X177.434 Z-0.043
X177.604 Z-0.012
X177.8 Z0
X177.831 Z0.005
X177.86 Z0.016
X177.894 Z0.028
X177.93 Z0.032
X177.968 Y35.683
X178.001 Y35.705
X178.022 Y35.737
X178.03 Y35.775
X178.022 Y35.814
X178.001 Y35.846
X177.968 Y35.868
X177.93 Y35.875
X177.894 Z0.028
X177.86 Z0.016
X177.831 Z0.005
X177.8 Z0
X177.604 Z-0.012
X177.434 Z-0.043
X177.267 Z-0.092
X177.105 Z-0.16
X176.951 Z-0.246
X176.806 Z-0.35
X176.672 Z-0.471
X176.551 Z-0.608
X176.445 Z-0.76
X176.356 Z-0.929
X176.284 Z-1.115
X176.259 Z-1.207
X176.223 Z-1.406
X176.212 Z-1.587
Z-1.592
Z-8.89
X26.988
Z-8.885
X26.985 Z-1.506
X26.961 Z-1.299
X26.919 Z-1.126
X26.877 Z-1.005
X26.792 Z-0.825
X26.701 Z-0.677
X26.591 Z-0.538
X26.465 Z-0.41
X26.323 Z-0.296
X26.167 Z-0.198
X26 Z-0.118
X25.823 Z-0.057
X25.638 Z-0.018
X25.449 Z-0.001
X25.4 Z0
X25.365 Z0.004
X25.333 Z0.016
X25.299 Z0.028
X25.263 Z0.032
X25.224 Y35.883
X25.192 Y35.905
X25.17 Y35.937
X25.163 Y35.975
X25.17 Y36.014
X25.192 Y36.046
X25.224 Y36.068
X25.263 Y36.075
X25.299 Z0.028
X25.333 Z0.016
X25.365 Z0.004
X25.4 Z0
X25.449 Z-0.001
X25.638 Z-0.018
X25.823 Z-0.057
X26 Z-0.118
X26.167 Z-0.198
X26.323 Z-0.296
X26.465 Z-0.41
X26.591 Z-0.538
X26.701 Z-0.677
X26.792 Z-0.825
X26.877 Z-1.005
X26.919 Z-1.126
X26.961 Z-1.299
X26.985 Z-1.506
Z-1.511
X26.988 Z-8.749
X176.212
Z-8.744
Z-1.587
X176.223 Z-1.406
X176.259 Z-1.207
X176.284 Z-1.115
X176.356 Z-0.929
X176.445 Z-0.76
X176.551 Z-0.608
X176.672 Z-0.471
X176.806 Z-0.35
X176.951 Z-0.246
X177.105 Z-0.16
X177.267 Z-0.092
X177.434 Z-0.043
X177.604 Z-0.012
X177.8 Z0
X177.831 Z0.005
X177.86 Z0.016
X177.894 Z0.028
X177.93 Z0.032
X177.968 Y36.083
X178.001 Y36.105
X178.022 Y36.137
X178.03 Y36.175
X178.022 Y36.214
X178.001 Y36.246
X177.968 Y36.268
X177.93 Y36.275
X177.894 Z0.028
X177.86 Z0.016
X177.831 Z0.005
X177.8 Z0
X177.604 Z-0.012
X177.434 Z-0.043
X177.267 Z-0.092
X177.105 Z-0.16
X176.951 Z-0.246
X176.806 Z-0.35
X176.672 Z-0.471
X176.551 Z-0.608
X176.445 Z-0.76
X176.356 Z-0.929
X176.284 Z-1.115
X176.259 Z-1.207
X176.223 Z-1.406
X176.212 Z-1.587
Z-1.592
Z-8.595
X26.988
X26.985 Z-1.506
X26.961 Z-1.299
X26.919 Z-1.126
X26.877 Z-1.005
X26.792 Z-0.825
X26.701 Z-0.677
X26.591 Z-0.538
X26.465 Z-0.41
X26.323 Z-0.296
X26.167 Z-0.198
X26 Z-0.118
X25.823 Z-0.057
X25.638 Z-0.018
X25.449 Z-0.001
X25.4 Z0
X25.365 Z0.004
X25.333 Z0.016
X25.299 Z0.028
X25.263 Z0.032
X25.224 Y36.283
X25.192 Y36.305
X25.17 Y36.337
X25.163 Y36.375
X25.17 Y36.414
X25.192 Y36.446
X25.224 Y36.468
X25.263 Y36.475
X25.299 Z0.028
X25.333 Z0.016
X25.365 Z0.004
X25.4 Z0
X25.449 Z-0.001
X25.638 Z-0.018
X25.823 Z-0.057
X26 Z-0.118
X26.167 Z-0.198
X26.323 Z-0.296
X26.465 Z-0.41
X26.591 Z-0.538
X26.701 Z-0.677
X26.792 Z-0.825
X26.877 Z-1.005
X26.919 Z-1.126
X26.961 Z-1.299
X26.985 Z-1.506
X26.988 Z-8.434
X176.212
Z-8.429
Z-1.587
X176.223 Z-1.406
X176.259 Z-1.207
X176.284 Z-1.115
X176.356 Z-0.929
X176.445 Z-0.76
X176.551 Z-0.608
X176.672 Z-0.471
X176.806 Z-0.35
X176.951 Z-0.246
X177.105 Z-0.16
X177.267 Z-0.092
X177.434 Z-0.043
X177.604 Z-0.012
X177.8 Z0
X177.831 Z0.005
X177.86 Z0.016
X177.894 Z0.028
X177.93 Z0.032
X177.968 Y36.483
X178.001 Y36.505
X178.022 Y36.537
X178.03 Y36.575
X178.022 Y36.614
X178.001 Y36.646
X177.968 Y36.668
X177.93 Y36.675
X177.894 Z0.028
X177.86 Z0.016
X177.831 Z0.005
X177.8 Z0
X177.604 Z-0.012
X177.434 Z-0.043
X177.267 Z-0.092
X177.105 Z-0.16
X176.951 Z-0.246
X176.806 Z-0.35
X176.672 Z-0.471
X176.551 Z-0.608
X176.445 Z-0.76
X176.356 Z-0.929
X176.284 Z-1.115
X176.259 Z-1.207
X176.223 Z-1.406
X176.212 Z-1.587
Z-1.592
Z-8.262
X26.988
X26.985 Z-1.506
X26.961 Z-1.299
X26.919 Z-1.126
X26.877 Z-1.005
X26.792 Z-0.825
X26.701 Z-0.677
X26.591 Z-0.538
X26.465 Z-0.41
X26.323 Z-0.296
X26.167 Z-0.198
X26 Z-0.118
X25.823 Z-0.057
X25.638 Z-0.018
X25.449 Z-0.001
X25.4 Z0
X25.365 Z0.004
X25.333 Z0.016
X25.299 Z0.028
X25.263 Z0.032
X25.224 Y36.683
X25.192 Y36.705
X25.17 Y36.737
X25.163 Y36.775
X25.17 Y36.814
X25.192 Y36.846
X25.224 Y36.868
X25.263 Y36.875
X25.299 Z0.028
X25.333 Z0.016
X25.365 Z0.004
X25.4 Z0
X25.449 Z-0.001
X25.638 Z-0.018
X25.823 Z-0.057
X26 Z-0.118
X26.167 Z-0.198
X26.323 Z-0.296
X26.465 Z-0.41
X26.591 Z-0.538
X26.701 Z-0.677
X26.792 Z-0.825
X26.877 Z-1.005
X26.919 Z-1.126
X26.961 Z-1.299
X26.985 Z-1.506
Z-1.511
X26.988 Z-8.08
X176.212
Z-8.075
Z-1.587
X176.223 Z-1.406
X176.259 Z-1.207
X176.284 Z-1.115
X176.356 Z-0.929
X176.445 Z-0.76
X176.551 Z-0.608
X176.672 Z-0.471
X176.806 Z-0.35
X176.951 Z-0.246
X177.105 Z-0.16
X177.267 Z-0.092
X177.434 Z-0.043
X177.604 Z-0.012
X177.8 Z0
X177.831 Z0.005
X177.86 Z0.016
X177.894 Z0.028
X177.93 Z0.032
X177.968 Y36.883
X178.001 Y36.905
X178.022 Y36.937
X178.03 Y36.975
X178.022 Y37.014
X178.001 Y37.046
X177.968 Y37.068
X177.93 Y37.075
X177.894 Z0.028
X177.86 Z0.016
X177.831 Z0.005
X177.8 Z0
X177.604 Z-0.012
X177.434 Z-0.043
X177.267 Z-0.092
X177.105 Z-0.16
X176.951 Z-0.246
X176.806 Z-0.35
X176.672 Z-0.471
X176.551 Z-0.608
X176.445 Z-0.76
X176.356 Z-0.929
X176.284 Z-1.115
X176.259 Z-1.207
X176.223 Z-1.406
X176.212 Z-1.587
Z-1.592
Z-7.886
X26.988
Z-7.881
X26.985 Z-1.506
X26.961 Z-1.299
X26.919 Z-1.126
X26.877 Z-1.005
X26.792 Z-0.825
X26.701 Z-0.677
X26.591 Z-0.538
X26.465 Z-0.41
X26.323 Z-0.296
X26.167 Z-0.198
X26 Z-0.118
X25.823 Z-0.057
X25.638 Z-0.018
X25.449 Z-0.001
X25.4 Z0
X25.365 Z0.004
X25.333 Z0.016
X25.299 Z0.028
X25.263 Z0.032
X25.224 Y37.083
X25.192 Y37.105
X25.17 Y37.137
X25.163 Y37.175
X25.17 Y37.214
X25.192 Y37.246
X25.224 Y37.268
X25.263 Y37.275
X25.299 Z0.028
X25.333 Z0.016
X25.365 Z0.004
X25.4 Z0
X25.449 Z-0.001
X25.638 Z-0.018
X25.823 Z-0.057
X26 Z-0.118
X26.167 Z-0.198
X26.323 Z-0.296
X26.465 Z-0.41
X26.591 Z-0.538
X26.701 Z-0.677
X26.792 Z-0.825
X26.877 Z-1.005
X26.919 Z-1.126
X26.961 Z-1.299
X26.985 Z-1.506
Z-1.511
X26.988 Z-7.68
X176.212
Z-7.675
Z-1.587
X176.223 Z-1.406
X176.259 Z-1.207
X176.284 Z-1.115
X176.356 Z-0.929
X176.445 Z-0.76
X176.551 Z-0.608
X176.672 Z-0.471
X176.806 Z-0.35
X176.951 Z-0.246
X177.105 Z-0.16
X177.267 Z-0.092
X177.434 Z-0.043
X177.604 Z-0.012
X177.8 Z0
X177.831 Z0.005
X177.86 Z0.016
X177.894 Z0.028
X177.93 Z0.032
X177.968 Y37.283
X178.001 Y37.305
X178.022 Y37.337
X178.03 Y37.375
X178.022 Y37.414
X178.001 Y37.446
X177.968 Y37.468
X177.93 Y37.475
X177.894 Z0.028
X177.86 Z0.016
X177.831 Z0.005
X177.8 Z0
X177.604 Z-0.012
X177.434 Z-0.043
X177.267 Z-0.092
X177.105 Z-0.16
X176.951 Z-0.246
X176.806 Z-0.35
X176.672 Z-0.471
X176.551 Z-0.608
X176.445 Z-0.76
X176.356 Z-0.929
X176.284 Z-1.115
X176.259 Z-1.207
X176.223 Z-1.406
X176.212 Z-1.587
Z-1.592
Z-7.458
X26.988
X26.985 Z-1.506
X26.961 Z-1.299
X26.919 Z-1.126
X26.877 Z-1.005
X26.792 Z-0.825
X26.701 Z-0.677
X26.591 Z-0.538
X26.465 Z-0.41
X26.323 Z-0.296
X26.167 Z-0.198
X26 Z-0.118
X25.823 Z-0.057
X25.638 Z-0.018
X25.449 Z-0.001
X25.4 Z0
X25.365 Z0.004
X25.333 Z0.016
X25.299 Z0.028
X25.263 Z0.032
X25.224 Y37.483
X25.192 Y37.505
X25.17 Y37.537
X25.163 Y37.575
X25.17 Y37.614
X25.192 Y37.646
X25.224 Y37.668
X25.263 Y37.675
X25.299 Z0.028
X25.333 Z0.016
X25.365 Z0.004
X25.4 Z0
X25.449 Z-0.001
X25.638 Z-0.018
X25.823 Z-0.057
X26 Z-0.118
X26.167 Z-0.198
X26.323 Z-0.296
X26.465 Z-0.41
X26.591 Z-0.538
X26.701 Z-0.677
X26.792 Z-0.825
X26.877 Z-1.005
X26.919 Z-1.126
X26.961 Z-1.299
X26.985 Z-1.506
X26.988 Z-7.224
X176.212
Z-7.219
Z-1.587
X176.223 Z-1.406
X176.259 Z-1.207
X176.284 Z-1.115
X176.356 Z-0.929
X176.445 Z-0.76
X176.551 Z-0.608
X176.672 Z-0.471
X176.806 Z-0.35
X176.951 Z-0.246
X177.105 Z-0.16
X177.267 Z-0.092
X177.434 Z-0.043
X177.604 Z-0.012
X177.8 Z0
X177.831 Z0.005
X177.86 Z0.016
X177.894 Z0.028
X177.93 Z0.032
X177.968 Y37.683
X178.001 Y37.705
X178.022 Y37.737
X178.03 Y37.775
X178.022 Y37.814
X178.001 Y37.846
X177.968 Y37.868
X177.93 Y37.875
X177.894 Z0.028
X177.86 Z0.016
X177.831 Z0.005
X177.8 Z0
X177.604 Z-0.012
X177.434 Z-0.043
X177.267 Z-0.092
X177.105 Z-0.16
X176.951 Z-0.246
X176.806 Z-0.35
X176.672 Z-0.471
X176.551 Z-0.608
X176.445 Z-0.76
X176.356 Z-0.929
X176.284 Z-1.115
X176.259 Z-1.207
X176.223 Z-1.406
X176.212 Z-1.587
Z-1.592
Z-6.966
X26.988
Z-6.961
X26.985 Z-1.506
X26.961 Z-1.299
X26.919 Z-1.126
X26.877 Z-1.005
X26.792 Z-0.825
X26.701 Z-0.677
X26.591 Z-0.538
X26.465 Z-0.41
X26.323 Z-0.296
X26.167 Z-0.198
X26 Z-0.118
X25.823 Z-0.057
X25.638 Z-0.018
X25.449 Z-0.001
X25.4 Z0
X25.365 Z0.004
X25.333 Z0.016
X25.299 Z0.028
X25.263 Z0.032
X25.224 Y37.883
X25.192 Y37.905
X25.17 Y37.937
X25.163 Y37.975
X25.17 Y38.014
X25.192 Y38.046
X25.224 Y38.068
X25.263 Y38.075
X25.299 Z0.028
X25.333 Z0.016
X25.365 Z0.004
X25.4 Z0
X25.449 Z-0.001
X25.638 Z-0.018
X25.823 Z-0.057
X26 Z-0.118
X26.167 Z-0.198
X26.323 Z-0.296
X26.465 Z-0.41
X26.591 Z-0.538
X26.701 Z-0.677
X26.792 Z-0.825
X26.877 Z-1.005
X26.919 Z-1.126
X26.961 Z-1.299
X26.985 Z-1.506
X26.988 Z-6.696
X176.212
Z-6.691
Z-1.587
X176.223 Z-1.406
X176.259 Z-1.207
X176.284 Z-1.115
X176.356 Z-0.929
X176.445 Z-0.76
X176.551 Z-0.608
X176.672 Z-0.471
X176.806 Z-0.35
X176.951 Z-0.246
X177.105 Z-0.16
X177.267 Z-0.092
X177.434 Z-0.043
X177.604 Z-0.012
X177.8 Z0
X177.831 Z0.005
X177.86 Z0.016
X177.894 Z0.028
X177.93 Z0.032
X177.968 Y38.083
X178.001 Y38.105
X178.022 Y38.137
X178.03 Y38.175
X178.022 Y38.214
X178.001 Y38.246
X177.968 Y38.268
X177.93 Y38.275
X177.894 Z0.028
X177.86 Z0.016
X177.831 Z0.005
X177.8 Z0
X177.604 Z-0.012
X177.434 Z-0.043
X177.267 Z-0.092
X177.105 Z-0.16
X176.951 Z-0.246
X176.806 Z-0.35
X176.672 Z-0.471
X176.551 Z-0.608
X176.445 Z-0.76
X176.356 Z-0.929
X176.284 Z-1.115
X176.259 Z-1.207
X176.223 Z-1.406
X176.212 Z-1.587
Z-1.592
Z-6.395
X26.988
X26.985 Z-1.506
X26.961 Z-1.299
X26.919 Z-1.126
X26.877 Z-1.005
X26.792 Z-0.825
X26.701 Z-0.677
X26.591 Z-0.538
X26.465 Z-0.41
X26.323 Z-0.296
X26.167 Z-0.198
X26 Z-0.118
X25.823 Z-0.057
X25.638 Z-0.018
X25.449 Z-0.001
X25.4 Z0
X25.365 Z0.004
X25.333 Z0.016
X25.299 Z0.028
X25.263 Z0.032
X25.224 Y38.283
X25.192 Y38.305
X25.17 Y38.337
X25.163 Y38.375
X25.17 Y38.414
X25.192 Y38.446
X25.224 Y38.468
X25.263 Y38.475
X25.299 Z0.028
X25.333 Z0.016
X25.365 Z0.004
X25.4 Z0
X25.449 Z-0.001
X25.638 Z-0.018
X25.823 Z-0.057
X26 Z-0.118
X26.167 Z-0.198
X26.323 Z-0.296
X26.465 Z-0.41
X26.591 Z-0.538
X26.701 Z-0.677
X26.792 Z-0.825
X26.877 Z-1.005
X26.919 Z-1.126
X26.961 Z-1.299
X26.985 Z-1.506
X26.988 Z-6.065
X176.212
Z-6.06
Z-1.587
X176.223 Z-1.406
X176.259 Z-1.207
X176.284 Z-1.115
X176.356 Z-0.929
X176.445 Z-0.76
X176.551 Z-0.608
X176.672 Z-0.471
X176.806 Z-0.35
X176.951 Z-0.246
X177.105 Z-0.16
X177.267 Z-0.092
X177.434 Z-0.043
X177.604 Z-0.012
X177.8 Z0
X177.831 Z0.005
X177.86 Z0.016
X177.894 Z0.028
X177.93 Z0.032
X177.968 Y38.483
X178.001 Y38.505
X178.022 Y38.537
X178.03 Y38.575
X178.022 Y38.614
X178.001 Y38.646
X177.968 Y38.668
X177.93 Y38.675
X177.894 Z0.028
X177.86 Z0.016
X177.831 Z0.005
X177.8 Z0
X177.604 Z-0.012
X177.434 Z-0.043
X177.267 Z-0.092
X177.105 Z-0.16
X176.951 Z-0.246
X176.806 Z-0.35
X176.672 Z-0.471
X176.551 Z-0.608
X176.445 Z-0.76
X176.356 Z-0.929
X176.284 Z-1.115
X176.259 Z-1.207
X176.233 Z-1.331
X176.216 Z-1.482
Z-1.487
X176.212 Z-5.705
X26.988
X26.985 Z-1.506
X26.961 Z-1.299
X26.919 Z-1.126
X26.877 Z-1.005
X26.792 Z-0.825
X26.701 Z-0.677
X26.591 Z-0.538
X26.465 Z-0.41
X26.323 Z-0.296
X26.167 Z-0.198
X26 Z-0.118
X25.823 Z-0.057
X25.638 Z-0.018
X25.449 Z-0.001
X25.4 Z0
X25.365 Z0.004
X25.333 Z0.016
X25.299 Z0.028
X25.263 Z0.032
X25.224 Y38.683
X25.192 Y38.705
X25.17 Y38.737
X25.163 Y38.775
X25.17 Y38.814
X25.192 Y38.846
X25.224 Y38.868
X25.263 Y38.875
X25.299 Z0.028
X25.333 Z0.016
X25.365 Z0.004
X25.4 Z0
X25.449 Z-0.001
X25.638 Z-0.018
X25.823 Z-0.057
X26 Z-0.118
X26.167 Z-0.198
X26.323 Z-0.296
X26.465 Z-0.41
X26.591 Z-0.538
X26.701 Z-0.677
X26.792 Z-0.825
X26.877 Z-1.005
X26.919 Z-1.126
X26.961 Z-1.299
X26.985 Z-1.506
X26.988 Z-5.302
X176.212
X176.216 Z-1.482
X176.233 Z-1.331
X176.259 Z-1.207
X176.284 Z-1.115
X176.356 Z-0.929
X176.445 Z-0.76
X176.551 Z-0.608
X176.672 Z-0.471
X176.806 Z-0.35
X176.951 Z-0.246
X177.105 Z-0.16
X177.267 Z-0.092
X177.434 Z-0.043
X177.604 Z-0.012
X177.8 Z0
X177.831 Z0.005
X177.86 Z0.016
X177.894 Z0.028
X177.93 Z0.032
X177.968 Y38.883
X178.001 Y38.905
X178.022 Y38.937
X178.03 Y38.975
X178.022 Y39.013
X178.001 Y39.046
X177.968 Y39.068
X177.93 Y39.075
X177.894 Z0.028
X177.86 Z0.016
X177.831 Z0.005
X177.8 Z0
X177.604 Z-0.012
X177.434 Z-0.043
X177.267 Z-0.092
X177.105 Z-0.16
X176.951 Z-0.246
X176.806 Z-0.35
X176.672 Z-0.471
X176.551 Z-0.608
X176.445 Z-0.76
X176.356 Z-0.929
X176.284 Z-1.115
X176.259 Z-1.207
X176.233 Z-1.331
X176.216 Z-1.482
Z-1.487
X176.212 Z-4.83
X26.988
X26.987 Z-4.825
X26.985 Z-1.506
X26.961 Z-1.299
X26.919 Z-1.126
X26.877 Z-1.005
X26.792 Z-0.825
X26.701 Z-0.677
X26.591 Z-0.538
X26.465 Z-0.41
X26.323 Z-0.296
X26.167 Z-0.198
X26 Z-0.118
X25.823 Z-0.057
X25.638 Z-0.018
X25.449 Z-0.001
X25.4 Z0
X25.365 Z0.004
X25.333 Z0.016
X25.299 Z0.028
X25.263 Z0.032
X25.224 Y39.083
X25.192 Y39.105
X25.17 Y39.137
X25.163 Y39.175
X25.17 Y39.213
X25.192 Y39.246
X25.224 Y39.268
X25.263 Y39.275
X25.299 Z0.028
X25.333 Z0.016
X25.365 Z0.004
X25.4 Z0
X25.449 Z-0.001
X25.638 Z-0.018
X25.823 Z-0.057
X26 Z-0.118
X26.167 Z-0.198
X26.323 Z-0.296
X26.465 Z-0.41
X26.591 Z-0.538
X26.701 Z-0.677
X26.792 Z-0.825
X26.877 Z-1.005
X26.919 Z-1.126
X26.961 Z-1.299
X26.985 Z-1.506
X26.988 Z-4.262
X176.212
X176.213 Z-4.257
X176.216 Z-1.482
X176.233 Z-1.331
X176.259 Z-1.207
X176.284 Z-1.115
X176.356 Z-0.929
X176.445 Z-0.76
X176.551 Z-0.608
X176.672 Z-0.471
X176.806 Z-0.35
X176.951 Z-0.246
X177.105 Z-0.16
X177.267 Z-0.092
X177.434 Z-0.043
X177.604 Z-0.012
X177.8 Z0
X177.831 Z0.005
X177.86 Z0.016
X177.894 Z0.028
X177.93 Z0.032
X177.968 Y39.283
X178.001 Y39.305
X178.022 Y39.337
X178.03 Y39.375
X178.022 Y39.413
X178.001 Y39.446
X177.968 Y39.468
X177.93 Y39.475
X177.894 Z0.028
X177.86 Z0.016
X177.831 Z0.005
X177.8 Z0
X177.604 Z-0.012
X177.434 Z-0.043
X177.267 Z-0.092
X177.105 Z-0.16
X176.951 Z-0.246
X176.806 Z-0.35
X176.672 Z-0.471
X176.551 Z-0.608
X176.445 Z-0.76
X176.356 Z-0.929
X176.284 Z-1.115
X176.259 Z-1.207
X176.233 Z-1.331
X176.216 Z-1.482
Z-1.487
X176.212 Z-3.498
X26.988
X26.985 Z-1.506
X26.961 Z-1.299
X26.919 Z-1.126
X26.877 Z-1.005
X26.792 Z-0.825
X26.701 Z-0.677
X26.591 Z-0.538
X26.465 Z-0.41
X26.323 Z-0.296
X26.167 Z-0.198
X26 Z-0.118
X25.823 Z-0.057
X25.638 Z-0.018
X25.449 Z-0.001
X25.4 Z0
X25.365 Z0.004
X25.333 Z0.016
X25.299 Z0.028
X25.263 Z0.032
X25.224 Y39.483
X25.192 Y39.504
X25.17 Y39.537
X25.163 Y39.575
X25.17 Y39.613
X25.192 Y39.646
X25.224 Y39.668
X25.263 Y39.675
X25.299 Z0.028
X25.333 Z0.016
X25.365 Z0.004
X25.4 Z0
X25.449 Z-0.001
X25.638 Z-0.018
X25.823 Z-0.057
X26 Z-0.118
X26.167 Z-0.198
X26.323 Z-0.296
X26.465 Z-0.41
X26.591 Z-0.538
X26.701 Z-0.677
X26.792 Z-0.825
X26.876 Z-1.002
X26.917 Z-1.12
X26.959 Z-1.287
X26.983 Z-1.47
X26.988 Z-1.962
X176.211
X176.216 Z-1.482
X176.233 Z-1.331
X176.259 Z-1.207
X176.284 Z-1.115
X176.356 Z-0.929
X176.445 Z-0.76
X176.551 Z-0.608
X176.672 Z-0.471
X176.806 Z-0.35
X176.951 Z-0.246
X177.105 Z-0.16
X177.267 Z-0.092
X177.434 Z-0.043
X177.604 Z-0.012
X177.8 Z0
X177.831 Z0.005
X177.86 Z0.016
X177.894 Z0.028
X177.93 Z0.032
X177.968 Y39.683
X178.001 Y39.704
X178.022 Y39.737
X178.03 Y39.775
X178.022 Y39.813
X178.001 Y39.846
X177.968 Y39.868
X177.93 Y39.875
X177.894 Z0.028
X177.86 Z0.016
X177.831 Z0.005
X177.8 Z0
X177.604 Z-0.012
X177.434 Z-0.043
X177.267 Z-0.092
X177.105 Z-0.16
X176.951 Z-0.246
X176.806 Z-0.35
X176.672 Z-0.471
X176.551 Z-0.608
X176.421 Z-0.801
X176.4 Z-0.839
X26.798 Z-0.836
X26.689 Z-0.661
X26.577 Z-0.523
X26.449 Z-0.396
X26.306 Z-0.284
X26.149 Z-0.188
X25.98 Z-0.11
X25.802 Z-0.052
X25.617 Z-0.015
X25.4 Z0
X25.37 Z0.005
X25.341 Z0.016
X25.307 Z0.028
X25.271 Z0.032
X25.233 Y39.883
X25.2 Y39.904
X25.179 Y39.937
X25.171 Y39.975
X25.179 Y40.013
X25.2 Y40.046
X25.233 Y40.068
X25.271 Y40.075
X25.272
X25.308 Z0.028
X25.342 Z0.016
X25.37 Z0.005
X25.4 Z0
X25.633 Z-0.017
X25.818 Z-0.056
X25.995 Z-0.116
X26.163 Z-0.195
X26.319 Z-0.293
X26.461 Z-0.407
X26.598 Z-0.546
X176.599 Z-0.548
X176.634 Z-0.511
X176.806 Z-0.35
X176.951 Z-0.246
X177.105 Z-0.16
X177.267 Z-0.092
X177.434 Z-0.043
X177.604 Z-0.012
X177.8 Z0
X177.831 Z0.005
X177.86 Z0.016
X177.894 Z0.028
X177.93 Z0.032
X177.968 Y40.083
X178.001 Y40.104
X178.022 Y40.137
X178.03 Y40.175
X178.022 Y40.213
X178.001 Y40.246
X177.968 Y40.268
X177.93 Y40.275
X177.894 Z0.028
X177.86 Z0.016
X177.831 Z0.005
X177.8 Z0
X177.604 Z-0.012
X177.434 Z-0.043
X177.267 Z-0.092
X177.105 Z-0.16
X176.951 Z-0.246
X176.8 Z-0.354
X26.397 Z-0.352
X26.23 Z-0.234
X26.088 Z-0.157
X25.916 Z-0.086
X25.736 Z-0.036
X25.549 Z-0.007
X25.4 Z0
X25.368 Z0.005
X25.338 Z0.016
X25.337
X25.303 Z0.028
X25.267 Z0.032
X25.264
X25.226 Y40.283
X25.193 Y40.304
X25.172 Y40.337
X25.164 Y40.375
X25.172 Y40.413
X25.193 Y40.446
X25.226 Y40.468
X25.264 Y40.475
X25.3 Z0.028
X25.334 Z0.016
X25.366 Z0.004
X25.4 Z0
X25.476 Z-0.002
X25.665 Z-0.022
X25.848 Z-0.065
X26.024 Z-0.128
X26.196 Z-0.214
X176.998 Z-0.216
X177.048 Z-0.19
X177.267 Z-0.092
X177.434 Z-0.043
X177.604 Z-0.012
X177.8 Z0
X177.831 Z0.005
X177.86 Z0.016
X177.894 Z0.028
X177.93 Z0.032
X177.968 Y40.483
X178.001 Y40.504
X178.022 Y40.537
X178.03 Y40.575
X178.022 Y40.613
X178.001 Y40.646
X177.968 Y40.668
X177.93 Y40.675
X177.894 Z0.028
X177.86 Z0.016
X177.831 Z0.005
X177.8 Z0
X177.604 Z-0.012
X177.434 Z-0.043
X177.195 Z-0.118
X25.991 Z-0.114
X25.821 Z-0.057
X25.644 Z-0.019
X25.476 Z-0.002
X25.4 Z0
X25.366 Z0.004
X25.334 Z0.016
X25.3 Z0.028
X25.264 Z0.032
X25.226 Y40.683
X25.193 Y40.704
X25.172 Y40.737
X25.164 Y40.775
X25.172 Y40.813
X25.193 Y40.846
X25.226 Y40.868
X25.264 Y40.875
X25.27
X25.306 Z0.028
X25.34 Z0.016
X25.341
X25.37 Z0.005
X25.4 Z0
X25.611 Z-0.014
X25.794 Z-0.05
X177.398 Z-0.051
X177.604 Z-0.012
X177.8 Z0
X177.831 Z0.005
X177.86 Z0.016
X177.894 Z0.028
X177.93 Z0.032
X177.933
X177.971 Y40.883
X178.003 Y40.904
X178.025 Y40.937
X178.033 Y40.975
X178.025 Y41.013
X178.003 Y41.046
X177.971 Y41.068
X177.933 Y41.075
X177.897 Z0.028
X177.863 Z0.016
X177.832 Z0.005
X177.8 Z0
X177.519 Z-0.013
X25.597 Z-0.012
X25.4 Z0
X25.359 Y41.077 Z0.003
X25.317 Y41.082 Z0.005
X25.277 Y41.091 Z0.008
X25.237 Y41.104 Z0.01
X25.199 Y41.12 Z0.013
X25.162 Y41.139 Z0.015
X25.127 Y41.161 Z0.017
X25.094 Y41.187 Z0.019
X25.064 Y41.215 Z0.021
X25.036 Y41.245 Z0.023
X25.011 Y41.278 Z0.024
X24.988 Y41.313 Z0.026
X24.969 Y41.35 Z0.027
X24.953 Y41.389 Z0.028
X24.941 Y41.428 Z0.029
X24.932 Y41.469
X24.926 Y41.51 Z0.03
X24.925 Y41.551
Y47.199
X24.926 Y47.24
X24.932 Y47.281 Z0.029
X24.941 Y47.322
X24.953 Y47.362 Z0.028
X24.969 Y47.4 Z0.027
X24.988 Y47.437 Z0.026
X25.011 Y47.472 Z0.024
X25.036 Y47.505 Z0.023
X25.064 Y47.535 Z0.021
X25.094 Y47.563 Z0.019
X25.127 Y47.589 Z0.017
X25.162 Y47.611 Z0.015
X25.199 Y47.63 Z0.013
X25.237 Y47.646 Z0.01
X25.277 Y47.659 Z0.008
X25.317 Y47.668 Z0.005
X25.359 Y47.673 Z0.003
X25.4 Y47.675 Z0
X177.8
X177.836 Z0.004
X177.87 Z0.016
X177.904 Z0.028
X177.94 Z0.032
X177.978 Y47.682
X178.01 Y47.704
X178.032 Y47.737
X178.04 Y47.775
X178.032 Y47.813
X178.01 Y47.846
X177.978 Y47.867
X177.94 Y47.875
X177.931
X177.895 Z0.028
X177.861 Z0.016
X177.86
X177.831 Z0.005
X177.8 Z0
X177.604 Z-0.012
X177.519 Z-0.02
X25.64 Z-0.018
X25.4 Z0
X25.37 Z0.005
X25.342 Z0.016
X25.341
X25.307 Z0.028
X25.271 Z0.032
X25.264
X25.226 Y47.882
X25.193 Y47.904
X25.172 Y47.937
X25.164 Y47.975
X25.172 Y48.013
X25.193 Y48.046
X25.226 Y48.067
X25.264 Y48.075
X25.3 Z0.028
X25.334 Z0.016
X25.366 Z0.004
X25.4 Z0
X25.473 Z-0.002
X25.661 Z-0.022
X25.845 Z-0.064
X177.34 Z-0.065
X177.368 Z-0.06
X177.604 Z-0.012
X177.8 Z0
X177.831 Z0.005
X177.86 Z0.016
X177.894 Z0.028
X177.93 Z0.032
X177.968 Y48.082
X178.001 Y48.104
X178.022 Y48.137
X178.03 Y48.175
X178.022 Y48.213
X178.001 Y48.246
X177.968 Y48.267
X177.93 Y48.275
X177.894 Z0.028
X177.86 Z0.016
X177.831 Z0.005
X177.8 Z0
X177.604 Z-0.012
X177.434 Z-0.043
X177.201 Z-0.117
X177.148 Z-0.139
X26.043 Z-0.136
X25.855 Z-0.067
X25.672 Z-0.023
X25.483 Z-0.002
X25.4 Z0
X25.366 Z0.005
X25.334 Z0.016
X25.3 Z0.028
X25.264 Z0.032
X25.226 Y48.282
X25.194 Y48.304
X25.172 Y48.337
X25.164 Y48.375
X25.172 Y48.413
X25.194 Y48.446
X25.226 Y48.467
X25.264 Y48.475
X25.267
X25.303 Z0.028
X25.337 Z0.016
X25.368 Z0.005
X25.4 Z0
X25.531 Z-0.005
X25.718 Z-0.032
X25.9 Z-0.081
X26.073 Z-0.15
X26.248 Z-0.245
X176.95 Z-0.247
X177.105 Z-0.16
X177.267 Z-0.092
X177.434 Z-0.043
X177.604 Z-0.012
X177.8 Z0
X177.831 Z0.005
X177.86 Z0.016
X177.894 Z0.028
X177.93 Z0.032
X177.968 Y48.482
X178.001 Y48.504
X178.022 Y48.537
X178.03 Y48.575
X178.022 Y48.613
X178.001 Y48.646
X177.968 Y48.667
X177.93 Y48.675
X177.894 Z0.028
X177.86 Z0.016
X177.831 Z0.005
X177.8 Z0
X177.604 Z-0.012
X177.434 Z-0.043
X177.267 Z-0.092
X177.105 Z-0.16
X176.951 Z-0.246
X176.757 Z-0.391
X176.748 Z-0.397
X26.447 Z-0.394
X26.283 Z-0.268
X26.124 Z-0.175
X25.954 Z-0.1
X25.775 Z-0.045
X25.589 Z-0.011
X25.4 Z0
X25.369 Z0.005
X25.34 Z0.016
X25.339
X25.305 Z0.028
X25.269 Z0.032
X25.265
X25.227 Y48.682
X25.194 Y48.704
X25.172 Y48.737
X25.165 Y48.775
X25.172 Y48.813
X25.194 Y48.846
X25.227 Y48.867
X25.265 Y48.875
X25.301 Z0.028
X25.335 Z0.016
X25.366 Z0.005
X25.4 Z0
X25.49 Z-0.003
X25.678 Z-0.025
X25.861 Z-0.068
X26.036 Z-0.133
X26.201 Z-0.217
X26.354 Z-0.319
X26.493 Z-0.436
X26.649 Z-0.608
X176.55 Z-0.609
X176.672 Z-0.471
X176.806 Z-0.35
X176.951 Z-0.246
X177.105 Z-0.16
X177.267 Z-0.092
X177.434 Z-0.043
X177.604 Z-0.012
X177.8 Z0
X177.831 Z0.005
X177.86 Z0.016
X177.894 Z0.028
X177.93 Z0.032
X177.968 Y48.882
X178.001 Y48.904
X178.022 Y48.937
X178.03 Y48.975
X178.022 Y49.013
X178.001 Y49.046
X177.968 Y49.067
X177.93 Y49.075
X177.894 Z0.028
X177.86 Z0.016
X177.831 Z0.005
X177.8 Z0
X177.604 Z-0.012
X177.434 Z-0.043
X177.267 Z-0.092
X177.105 Z-0.16
X176.951 Z-0.246
X176.806 Z-0.35
X176.672 Z-0.471
X176.551 Z-0.608
X176.445 Z-0.76
X176.35 Z-0.941
X26.849 Z-0.938
X26.757 Z-0.764
X26.664 Z-0.627
X26.549 Z-0.492
X26.417 Z-0.369
X26.271 Z-0.26
X26.111 Z-0.168
X25.941 Z-0.095
X25.761 Z-0.042
X25.576 Z-0.01
X25.4 Z0
X25.369 Z0.005
X25.339 Z0.016
X25.305 Z0.028
X25.269 Z0.032
X25.267
X25.229 Y49.082
X25.197 Y49.104
X25.175 Y49.137
X25.167 Y49.175
X25.175 Y49.213
X25.197 Y49.246
X25.229 Y49.267
X25.267 Y49.275
X25.303 Z0.028
X25.337 Z0.016
X25.368 Z0.005
X25.4 Z0
X25.544 Z-0.007
X25.73 Z-0.035
X25.911 Z-0.085
X26.083 Z-0.155
X26.245 Z-0.243
X26.394 Z-0.349
X26.528 Z-0.47
X26.646 Z-0.603
X26.746 Z-0.747
X26.833 Z-0.904
X26.914 Z-1.111
X26.955 Z-1.267
X26.985 Z-1.503
X26.988 Z-2.618
X176.209
Z-2.613
X176.216 Z-1.482
X176.233 Z-1.331
X176.259 Z-1.207
X176.284 Z-1.115
X176.356 Z-0.929
X176.445 Z-0.76
X176.551 Z-0.608
X176.672 Z-0.471
X176.806 Z-0.35
X176.951 Z-0.246
X177.105 Z-0.16
X177.267 Z-0.092
X177.434 Z-0.043
X177.604 Z-0.012
X177.8 Z0
X177.831 Z0.005
X177.86 Z0.016
X177.894 Z0.028
X177.93 Z0.032
X177.968 Y49.282
X178.001 Y49.304
X178.022 Y49.337
X178.03 Y49.375
X178.022 Y49.413
X178.001 Y49.446
X177.968 Y49.467
X177.93 Y49.475
X177.894 Z0.028
X177.86 Z0.016
X177.831 Z0.005
X177.8 Z0
X177.604 Z-0.012
X177.434 Z-0.043
X177.267 Z-0.092
X177.105 Z-0.16
X176.951 Z-0.246
X176.806 Z-0.35
X176.672 Z-0.471
X176.551 Z-0.608
X176.445 Z-0.76
X176.356 Z-0.929
X176.284 Z-1.115
X176.259 Z-1.207
X176.233 Z-1.331
X176.216 Z-1.482
Z-1.487
X176.212 Z-3.726
X26.988
X26.985 Z-1.506
X26.961 Z-1.299
X26.919 Z-1.126
X26.877 Z-1.005
X26.792 Z-0.825
X26.701 Z-0.677
X26.591 Z-0.538
X26.465 Z-0.41
X26.323 Z-0.296
X26.167 Z-0.198
X26 Z-0.118
X25.823 Z-0.057
X25.638 Z-0.018
X25.449 Z-0.001
X25.4 Z0
X25.365 Z0.004
X25.333 Z0.016
X25.299 Z0.028
X25.263 Z0.032
X25.224 Y49.482
X25.192 Y49.504
X25.17 Y49.537
X25.163 Y49.575
X25.17 Y49.613
X25.192 Y49.645
X25.224 Y49.667
X25.263 Y49.675
X25.299 Z0.028
X25.333 Z0.016
X25.365 Z0.004
X25.4 Z0
X25.449 Z-0.001
X25.638 Z-0.018
X25.823 Z-0.057
X26 Z-0.118
X26.167 Z-0.198
X26.323 Z-0.296
X26.465 Z-0.41
X26.591 Z-0.538
X26.701 Z-0.677
X26.792 Z-0.825
X26.877 Z-1.005
X26.919 Z-1.126
X26.961 Z-1.299
X26.985 Z-1.506
X26.988 Z-4.409
X176.212
X176.216 Z-1.482
X176.233 Z-1.331
X176.259 Z-1.207
X176.284 Z-1.115
X176.356 Z-0.929
X176.445 Z-0.76
X176.551 Z-0.608
X176.672 Z-0.471
X176.806 Z-0.35
X176.951 Z-0.246
X177.105 Z-0.16
X177.267 Z-0.092
X177.434 Z-0.043
X177.604 Z-0.012
X177.8 Z0
X177.831 Z0.005
X177.86 Z0.016
X177.894 Z0.028
X177.93 Z0.032
X177.968 Y49.682
X178.001 Y49.704
X178.022 Y49.737
X178.03 Y49.775
X178.022 Y49.813
X178.001 Y49.845
X177.968 Y49.867
X177.93 Y49.875
X177.894 Z0.028
X177.86 Z0.016
X177.831 Z0.005
X177.8 Z0
X177.604 Z-0.012
X177.434 Z-0.043
X177.267 Z-0.092
X177.105 Z-0.16
X176.951 Z-0.246
X176.806 Z-0.35
X176.672 Z-0.471
X176.551 Z-0.608
X176.445 Z-0.76
X176.356 Z-0.929
X176.284 Z-1.115
X176.259 Z-1.207
X176.233 Z-1.331
X176.216 Z-1.482
Z-1.487
X176.212 Z-4.948
X26.988
X26.985 Z-1.506
X26.961 Z-1.299
X26.919 Z-1.126
X26.877 Z-1.005
X26.792 Z-0.825
X26.701 Z-0.677
X26.591 Z-0.538
X26.465 Z-0.41
X26.323 Z-0.296
X26.167 Z-0.198
X26 Z-0.118
X25.823 Z-0.057
X25.638 Z-0.018
X25.449 Z-0.001
X25.4 Z0
X25.365 Z0.004
X25.333 Z0.016
X25.299 Z0.028
X25.263 Z0.032
X25.224 Y49.882
X25.192 Y49.904
X25.17 Y49.937
X25.163 Y49.975
X25.17 Y50.013
X25.192 Y50.045
X25.224 Y50.067
X25.263 Y50.075
X25.299 Z0.028
X25.333 Z0.016
X25.365 Z0.004
X25.4 Z0
X25.449 Z-0.001
X25.638 Z-0.018
X25.823 Z-0.057
X26 Z-0.118
X26.167 Z-0.198
X26.323 Z-0.296
X26.465 Z-0.41
X26.591 Z-0.538
X26.701 Z-0.677
X26.792 Z-0.825
X26.877 Z-1.005
X26.919 Z-1.126
X26.961 Z-1.299
X26.985 Z-1.506
X26.988 Z-5.404
X176.212
X176.216 Z-1.482
X176.233 Z-1.331
X176.259 Z-1.207
X176.284 Z-1.115
X176.356 Z-0.929
X176.445 Z-0.76
X176.551 Z-0.608
X176.672 Z-0.471
X176.806 Z-0.35
X176.951 Z-0.246
X177.105 Z-0.16
X177.267 Z-0.092
X177.434 Z-0.043
X177.604 Z-0.012
X177.8 Z0
X177.831 Z0.005
X177.86 Z0.016
X177.894 Z0.028
X177.93 Z0.032
X177.968 Y50.082
X178.001 Y50.104
X178.022 Y50.136
X178.03 Y50.175
X178.022 Y50.213
X178.001 Y50.245
X177.968 Y50.267
X177.93 Y50.275
X177.894 Z0.028
X177.86 Z0.016
X177.831 Z0.005
X177.8 Z0
X177.604 Z-0.012
X177.434 Z-0.043
X177.267 Z-0.092
X177.105 Z-0.16
X176.951 Z-0.246
X176.806 Z-0.35
X176.672 Z-0.471
X176.551 Z-0.608
X176.445 Z-0.76
X176.356 Z-0.929
X176.284 Z-1.115
X176.259 Z-1.207
X176.233 Z-1.331
X176.216 Z-1.482
Z-1.487
X176.212 Z-5.806
X26.988
Z-5.801
X26.985 Z-1.506
X26.961 Z-1.299
X26.919 Z-1.126
X26.877 Z-1.005
X26.792 Z-0.825
X26.701 Z-0.677
X26.591 Z-0.538
X26.465 Z-0.41
X26.323 Z-0.296
X26.167 Z-0.198
X26 Z-0.118
X25.823 Z-0.057
X25.638 Z-0.018
X25.449 Z-0.001
X25.4 Z0
X25.365 Z0.004
X25.333 Z0.016
X25.299 Z0.028
X25.263 Z0.032
X25.224 Y50.282
X25.192 Y50.304
X25.17 Y50.336
X25.163 Y50.375
X25.17 Y50.413
X25.192 Y50.445
X25.224 Y50.467
X25.263 Y50.475
X25.299 Z0.028
X25.333 Z0.016
X25.365 Z0.004
X25.4 Z0
X25.449 Z-0.001
X25.638 Z-0.018
X25.823 Z-0.057
X26 Z-0.118
X26.167 Z-0.198
X26.323 Z-0.296
X26.465 Z-0.41
X26.591 Z-0.538
X26.701 Z-0.677
X26.792 Z-0.825
X26.877 Z-1.005
X26.919 Z-1.126
X26.961 Z-1.299
X26.985 Z-1.506
X26.988 Z-6.152
X176.212
Z-6.147
Z-1.587
X176.223 Z-1.406
X176.259 Z-1.207
X176.284 Z-1.115
X176.356 Z-0.929
X176.445 Z-0.76
X176.551 Z-0.608
X176.672 Z-0.471
X176.806 Z-0.35
X176.951 Z-0.246
X177.105 Z-0.16
X177.267 Z-0.092
X177.434 Z-0.043
X177.604 Z-0.012
X177.8 Z0
X177.831 Z0.005
X177.86 Z0.016
X177.894 Z0.028
X177.93 Z0.032
X177.968 Y50.482
X178.001 Y50.504
X178.022 Y50.536
X178.03 Y50.575
X178.022 Y50.613
X178.001 Y50.645
X177.968 Y50.667
X177.93 Y50.675
X177.894 Z0.028
X177.86 Z0.016
X177.831 Z0.005
X177.8 Z0
X177.604 Z-0.012
X177.434 Z-0.043
X177.267 Z-0.092
X177.105 Z-0.16
X176.951 Z-0.246
X176.806 Z-0.35
X176.672 Z-0.471
X176.551 Z-0.608
X176.445 Z-0.76
X176.356 Z-0.929
X176.284 Z-1.115
X176.259 Z-1.207
X176.223 Z-1.406
X176.212 Z-1.587
Z-1.592
Z-6.47
X26.988
X26.985 Z-1.506
X26.961 Z-1.299
X26.919 Z-1.126
X26.877 Z-1.005
X26.792 Z-0.825
X26.701 Z-0.677
X26.591 Z-0.538
X26.465 Z-0.41
X26.323 Z-0.296
X26.167 Z-0.198
X26 Z-0.118
X25.823 Z-0.057
X25.638 Z-0.018
X25.449 Z-0.001
X25.4 Z0
X25.365 Z0.004
X25.333 Z0.016
X25.299 Z0.028
X25.263 Z0.032
X25.224 Y50.682
X25.192 Y50.704
X25.17 Y50.736
X25.163 Y50.775
X25.17 Y50.813
X25.192 Y50.845
X25.224 Y50.867
X25.263 Y50.875
X25.299 Z0.028
X25.333 Z0.016
X25.365 Z0.004
X25.4 Z0
X25.449 Z-0.001
X25.638 Z-0.018
X25.823 Z-0.057
X26 Z-0.118
X26.167 Z-0.198
X26.323 Z-0.296
X26.465 Z-0.41
X26.591 Z-0.538
X26.701 Z-0.677
X26.792 Z-0.825
X26.877 Z-1.005
X26.919 Z-1.126
X26.961 Z-1.299
X26.985 Z-1.506
Z-1.511
X26.988 Z-6.768
X176.212
Z-6.763
Z-1.587
X176.223 Z-1.406
X176.259 Z-1.207
X176.284 Z-1.115
X176.356 Z-0.929
X176.445 Z-0.76
X176.551 Z-0.608
X176.672 Z-0.471
X176.806 Z-0.35
X176.951 Z-0.246
X177.105 Z-0.16
X177.267 Z-0.092
X177.434 Z-0.043
X177.604 Z-0.012
X177.8 Z0
X177.831 Z0.005
X177.86 Z0.016
X177.894 Z0.028
X177.93 Z0.032
X177.968 Y50.882
X178.001 Y50.904
X178.022 Y50.936
X178.03 Y50.975
X178.022 Y51.013
X178.001 Y51.045
X177.968 Y51.067
X177.93 Y51.075
X177.894 Z0.028
X177.86 Z0.016
X177.831 Z0.005
X177.8 Z0
X177.604 Z-0.012
X177.434 Z-0.043
X177.267 Z-0.092
X177.105 Z-0.16
X176.951 Z-0.246
X176.806 Z-0.35
X176.672 Z-0.471
X176.551 Z-0.608
X176.445 Z-0.76
X176.356 Z-0.929
X176.284 Z-1.115
X176.259 Z-1.207
X176.223 Z-1.406
X176.212 Z-1.587
Z-1.592
Z-7.032
X26.988
X26.985 Z-1.506
X26.961 Z-1.299
X26.919 Z-1.126
X26.877 Z-1.005
X26.792 Z-0.825
X26.701 Z-0.677
X26.591 Z-0.538
X26.465 Z-0.41
X26.323 Z-0.296
X26.167 Z-0.198
X26 Z-0.118
X25.823 Z-0.057
X25.638 Z-0.018
X25.449 Z-0.001
X25.4 Z0
X25.365 Z0.004
X25.333 Z0.016
X25.299 Z0.028
X25.263 Z0.032
X25.224 Y51.082
X25.192 Y51.104
X25.17 Y51.136
X25.163 Y51.175
X25.17 Y51.213
X25.192 Y51.245
X25.224 Y51.267
X25.263 Y51.275
X25.299 Z0.028
X25.333 Z0.016
X25.365 Z0.004
X25.4 Z0
X25.449 Z-0.001
X25.638 Z-0.018
X25.823 Z-0.057
X26 Z-0.118
X26.167 Z-0.198
X26.323 Z-0.296
X26.465 Z-0.41
X26.591 Z-0.538
X26.701 Z-0.677
X26.792 Z-0.825
X26.877 Z-1.005
X26.919 Z-1.126
X26.961 Z-1.299
X26.985 Z-1.506
Z-1.511
X26.988 Z-7.283
X176.212
Z-7.278
Z-1.587
X176.223 Z-1.406
X176.259 Z-1.207
X176.284 Z-1.115
X176.356 Z-0.929
X176.445 Z-0.76
X176.551 Z-0.608
X176.672 Z-0.471
X176.806 Z-0.35
X176.951 Z-0.246
X177.105 Z-0.16
X177.267 Z-0.092
X177.434 Z-0.043
X177.604 Z-0.012
X177.8 Z0
X177.831 Z0.005
X177.86 Z0.016
X177.894 Z0.028
X177.93 Z0.032
X177.968 Y51.282
X178.001 Y51.304
X178.022 Y51.336
X178.03 Y51.375
X178.022 Y51.413
X178.001 Y51.445
X177.968 Y51.467
X177.93 Y51.475
X177.894 Z0.028
X177.86 Z0.016
X177.831 Z0.005
X177.8 Z0
X177.604 Z-0.012
X177.434 Z-0.043
X177.267 Z-0.092
X177.105 Z-0.16
X176.951 Z-0.246
X176.806 Z-0.35
X176.672 Z-0.471
X176.551 Z-0.608
X176.445 Z-0.76
X176.356 Z-0.929
X176.284 Z-1.115
X176.259 Z-1.207
X176.223 Z-1.406
X176.212 Z-1.587
Z-1.592
Z-7.516
X26.988
X26.985 Z-1.506
X26.961 Z-1.299
X26.919 Z-1.126
X26.877 Z-1.005
X26.792 Z-0.825
X26.701 Z-0.677
X26.591 Z-0.538
X26.465 Z-0.41
X26.323 Z-0.296
X26.167 Z-0.198
X26 Z-0.118
X25.823 Z-0.057
X25.638 Z-0.018
X25.449 Z-0.001
X25.4 Z0
X25.365 Z0.004
X25.333 Z0.016
X25.299 Z0.028
X25.263 Z0.032
X25.224 Y51.482
X25.192 Y51.504
X25.17 Y51.536
X25.163 Y51.575
X25.17 Y51.613
X25.192 Y51.645
X25.224 Y51.667
X25.263 Y51.675
X25.299 Z0.028
X25.333 Z0.016
X25.365 Z0.004
X25.4 Z0
X25.449 Z-0.001
X25.638 Z-0.018
X25.823 Z-0.057
X26 Z-0.118
X26.167 Z-0.198
X26.323 Z-0.296
X26.465 Z-0.41
X26.591 Z-0.538
X26.701 Z-0.677
X26.792 Z-0.825
X26.877 Z-1.005
X26.919 Z-1.126
X26.961 Z-1.299
X26.985 Z-1.506
X26.988 Z-7.731
X176.212
Z-7.726
Z-1.587
X176.223 Z-1.406
X176.259 Z-1.207
X176.284 Z-1.115
X176.356 Z-0.929
X176.445 Z-0.76
X176.551 Z-0.608
X176.672 Z-0.471
X176.806 Z-0.35
X176.951 Z-0.246
X177.105 Z-0.16
X177.267 Z-0.092
X177.434 Z-0.043
X177.604 Z-0.012
X177.8 Z0
X177.831 Z0.005
X177.86 Z0.016
X177.894 Z0.028
X177.93 Z0.032
X177.968 Y51.682
X178.001 Y51.704
X178.022 Y51.736
X178.03 Y51.775
X178.022 Y51.813
X178.001 Y51.845
X177.968 Y51.867
X177.93 Y51.875
X177.894 Z0.028
X177.86 Z0.016
X177.831 Z0.005
X177.8 Z0
X177.604 Z-0.012
X177.434 Z-0.043
X177.267 Z-0.092
X177.105 Z-0.16
X176.951 Z-0.246
X176.806 Z-0.35
X176.672 Z-0.471
X176.551 Z-0.608
X176.445 Z-0.76
X176.356 Z-0.929
X176.284 Z-1.115
X176.259 Z-1.207
X176.223 Z-1.406
X176.212 Z-1.587
Z-1.592
Z-7.937
X26.988
X26.985 Z-1.506
X26.961 Z-1.299
X26.919 Z-1.126
X26.877 Z-1.005
X26.792 Z-0.825
X26.701 Z-0.677
X26.591 Z-0.538
X26.465 Z-0.41
X26.323 Z-0.296
X26.167 Z-0.198
X26 Z-0.118
X25.823 Z-0.057
X25.638 Z-0.018
X25.449 Z-0.001
X25.4 Z0
X25.365 Z0.004
X25.333 Z0.016
X25.299 Z0.028
X25.263 Z0.032
X25.224 Y51.882
X25.192 Y51.904
X25.17 Y51.936
X25.163 Y51.975
X25.17 Y52.013
X25.192 Y52.045
X25.224 Y52.067
X25.263 Y52.075
X25.299 Z0.028
X25.333 Z0.016
X25.365 Z0.004
X25.4 Z0
X25.449 Z-0.001
X25.638 Z-0.018
X25.823 Z-0.057
X26 Z-0.118
X26.167 Z-0.198
X26.323 Z-0.296
X26.465 Z-0.41
X26.591 Z-0.538
X26.701 Z-0.677
X26.792 Z-0.825
X26.877 Z-1.005
X26.919 Z-1.126
X26.961 Z-1.299
X26.985 Z-1.506
X26.988 Z-8.125
X176.212
Z-8.12
Z-1.587
X176.223 Z-1.406
X176.259 Z-1.207
X176.284 Z-1.115
X176.356 Z-0.929
X176.445 Z-0.76
X176.551 Z-0.608
X176.672 Z-0.471
X176.806 Z-0.35
X176.951 Z-0.246
X177.105 Z-0.16
X177.267 Z-0.092
X177.434 Z-0.043
X177.604 Z-0.012
X177.8 Z0
X177.831 Z0.005
X177.86 Z0.016
X177.894 Z0.028
X177.93 Z0.032
X177.968 Y52.082
X178.001 Y52.104
X178.022 Y52.136
X178.03 Y52.175
X178.022 Y52.213
X178.001 Y52.245
X177.968 Y52.267
X177.93 Y52.275
X177.894 Z0.028
X177.86 Z0.016
X177.831 Z0.005
X177.8 Z0
X177.604 Z-0.012
X177.434 Z-0.043
X177.267 Z-0.092
X177.105 Z-0.16
X176.951 Z-0.246
X176.806 Z-0.35
X176.672 Z-0.471
X176.551 Z-0.608
X176.445 Z-0.76
X176.356 Z-0.929
X176.284 Z-1.115
X176.259 Z-1.207
X176.223 Z-1.406
X176.212 Z-1.587
Z-1.592
Z-8.308
X26.988
X26.985 Z-1.506
X26.961 Z-1.299
X26.919 Z-1.126
X26.877 Z-1.005
X26.792 Z-0.825
X26.701 Z-0.677
X26.591 Z-0.538
X26.465 Z-0.41
X26.323 Z-0.296
X26.167 Z-0.198
X26 Z-0.118
X25.823 Z-0.057
X25.638 Z-0.018
X25.449 Z-0.001
X25.4 Z0
X25.365 Z0.004
X25.333 Z0.016
X25.299 Z0.028
X25.263 Z0.032
X25.224 Y52.282
X25.192 Y52.304
X25.17 Y52.336
X25.163 Y52.375
X25.17 Y52.413
X25.192 Y52.445
X25.224 Y52.467
X25.263 Y52.475
X25.299 Z0.028
X25.333 Z0.016
X25.365 Z0.004
X25.4 Z0
X25.449 Z-0.001
X25.638 Z-0.018
X25.823 Z-0.057
X26 Z-0.118
X26.167 Z-0.198
X26.323 Z-0.296
X26.465 Z-0.41
X26.591 Z-0.538
X26.701 Z-0.677
X26.792 Z-0.825
X26.877 Z-1.005
X26.919 Z-1.126
X26.961 Z-1.299
X26.985 Z-1.506
Z-1.511
X26.988 Z-8.474
X176.212
Z-8.469
Z-1.587
X176.223 Z-1.406
X176.259 Z-1.207
X176.284 Z-1.115
X176.356 Z-0.929
X176.445 Z-0.76
X176.551 Z-0.608
X176.672 Z-0.471
X176.806 Z-0.35
X176.951 Z-0.246
X177.105 Z-0.16
X177.267 Z-0.092
X177.434 Z-0.043
X177.604 Z-0.012
X177.8 Z0
X177.831 Z0.005
X177.86 Z0.016
X177.894 Z0.028
X177.93 Z0.032
X177.968 Y52.482
X178.001 Y52.504
X178.022 Y52.536
X178.03 Y52.575
X178.022 Y52.613
X178.001 Y52.645
X177.968 Y52.667
X177.93 Y52.675
X177.894 Z0.028
X177.86 Z0.016
X177.831 Z0.005
X177.8 Z0
X177.604 Z-0.012
X177.434 Z-0.043
X177.267 Z-0.092
X177.105 Z-0.16
X176.951 Z-0.246
X176.806 Z-0.35
X176.672 Z-0.471
X176.551 Z-0.608
X176.445 Z-0.76
X176.356 Z-0.929
X176.284 Z-1.115
X176.259 Z-1.207
X176.223 Z-1.406
X176.212 Z-1.587
Z-1.592
Z-8.635
X26.988
Z-8.63
X26.985 Z-1.506
X26.961 Z-1.299
X26.919 Z-1.126
X26.877 Z-1.005
X26.792 Z-0.825
X26.701 Z-0.677
X26.591 Z-0.538
X26.465 Z-0.41
X26.323 Z-0.296
X26.167 Z-0.198
X26 Z-0.118
X25.823 Z-0.057
X25.638 Z-0.018
X25.449 Z-0.001
X25.4 Z0
X25.365 Z0.004
X25.333 Z0.016
X25.299 Z0.028
X25.263 Z0.032
X25.224 Y52.682
X25.192 Y52.704
X25.17 Y52.736
X25.163 Y52.775
X25.17 Y52.813
X25.192 Y52.845
X25.224 Y52.867
X25.263 Y52.875
X25.299 Z0.028
X25.333 Z0.016
X25.365 Z0.004
X25.4 Z0
X25.449 Z-0.001
X25.638 Z-0.018
X25.823 Z-0.057
X26 Z-0.118
X26.167 Z-0.198
X26.323 Z-0.296
X26.465 Z-0.41
X26.591 Z-0.538
X26.701 Z-0.677
X26.792 Z-0.825
X26.877 Z-1.005
X26.919 Z-1.126
X26.961 Z-1.299
X26.985 Z-1.506
X26.988 Z-8.784
X176.212
Z-8.779
Z-1.587
X176.223 Z-1.406
X176.259 Z-1.207
X176.284 Z-1.115
X176.356 Z-0.929
X176.445 Z-0.76
X176.551 Z-0.608
X176.672 Z-0.471
X176.806 Z-0.35
X176.951 Z-0.246
X177.105 Z-0.16
X177.267 Z-0.092
X177.434 Z-0.043
X177.604 Z-0.012
X177.8 Z0
X177.831 Z0.005
X177.86 Z0.016
X177.894 Z0.028
X177.93 Z0.032
X177.968 Y52.882
X178.001 Y52.904
X178.022 Y52.936
X178.03 Y52.975
X178.022 Y53.013
X178.001 Y53.045
X177.968 Y53.067
X177.93 Y53.075
X177.894 Z0.028
X177.86 Z0.016
X177.831 Z0.005
X177.8 Z0
X177.604 Z-0.012
X177.434 Z-0.043
X177.267 Z-0.092
X177.105 Z-0.16
X176.951 Z-0.246
X176.806 Z-0.35
X176.672 Z-0.471
X176.551 Z-0.608
X176.445 Z-0.76
X176.356 Z-0.929
X176.284 Z-1.115
X176.259 Z-1.207
X176.223 Z-1.406
X176.212 Z-1.587
Z-1.592
Z-8.926
X26.988
X26.985 Z-1.506
X26.961 Z-1.299
X26.919 Z-1.126
X26.877 Z-1.005
X26.792 Z-0.825
X26.701 Z-0.677
X26.591 Z-0.538
X26.465 Z-0.41
X26.323 Z-0.296
X26.167 Z-0.198
X26 Z-0.118
X25.823 Z-0.057
X25.638 Z-0.018
X25.449 Z-0.001
X25.4 Z0
X25.365 Z0.004
X25.333 Z0.016
X25.299 Z0.028
X25.263 Z0.032
X25.224 Y53.082
X25.192 Y53.104
X25.17 Y53.136
X25.163 Y53.175
X25.17 Y53.213
X25.192 Y53.245
X25.224 Y53.267
X25.263 Y53.275
X25.299 Z0.028
X25.333 Z0.016
X25.365 Z0.004
X25.4 Z0
X25.449 Z-0.001
X25.638 Z-0.018
X25.823 Z-0.057
X26 Z-0.118
X26.167 Z-0.198
X26.323 Z-0.296
X26.465 Z-0.41
X26.591 Z-0.538
X26.701 Z-0.677
X26.792 Z-0.825
X26.877 Z-1.005
X26.919 Z-1.126
X26.961 Z-1.299
X26.985 Z-1.506
Z-1.511
X26.988 Z-9.061
X176.212
Z-9.056
Z-1.587
X176.223 Z-1.406
X176.259 Z-1.207
X176.284 Z-1.115
X176.356 Z-0.929
X176.445 Z-0.76
X176.551 Z-0.608
X176.672 Z-0.471
X176.806 Z-0.35
X176.951 Z-0.246
X177.105 Z-0.16
X177.267 Z-0.092
X177.434 Z-0.043
X177.604 Z-0.012
X177.8 Z0
X177.831 Z0.005
X177.86 Z0.016
X177.894 Z0.028
X177.93 Z0.032
X177.968 Y53.282
X178.001 Y53.304
X178.022 Y53.336
X178.03 Y53.375
X178.022 Y53.413
X178.001 Y53.445
X177.968 Y53.467
X177.93 Y53.475
X177.894 Z0.028
X177.86 Z0.016
X177.831 Z0.005
X177.8 Z0
X177.604 Z-0.012
X177.434 Z-0.043
X177.267 Z-0.092
X177.105 Z-0.16
X176.951 Z-0.246
X176.806 Z-0.35
X176.672 Z-0.471
X176.551 Z-0.608
X176.445 Z-0.76
X176.356 Z-0.929
X176.284 Z-1.115
X176.259 Z-1.207
X176.223 Z-1.406
X176.212 Z-1.587
Z-1.592
Z-9.185
X26.988
Z-9.18
X26.985 Z-1.506
X26.961 Z-1.299
X26.919 Z-1.126
X26.877 Z-1.005
X26.792 Z-0.825
X26.701 Z-0.677
X26.591 Z-0.538
X26.465 Z-0.41
X26.323 Z-0.296
X26.167 Z-0.198
X26 Z-0.118
X25.823 Z-0.057
X25.638 Z-0.018
X25.449 Z-0.001
X25.4 Z0
X25.365 Z0.004
X25.333 Z0.016
X25.299 Z0.028
X25.263 Z0.032
X25.224 Y53.482
X25.192 Y53.504
X25.17 Y53.536
X25.163 Y53.575
X25.17 Y53.613
X25.192 Y53.645
X25.224 Y53.667
X25.263 Y53.675
X25.299 Z0.028
X25.333 Z0.016
X25.365 Z0.004
X25.4 Z0
X25.449 Z-0.001
X25.638 Z-0.018
X25.823 Z-0.057
X26 Z-0.118
X26.167 Z-0.198
X26.323 Z-0.296
X26.465 Z-0.41
X26.591 Z-0.538
X26.701 Z-0.677
X26.792 Z-0.825
X26.877 Z-1.005
X26.919 Z-1.126
X26.961 Z-1.299
X26.985 Z-1.506
Z-1.511
X26.988 Z-9.308
X176.212
Z-1.587
X176.223 Z-1.406
X176.259 Z-1.207
X176.284 Z-1.115
X176.356 Z-0.929
X176.445 Z-0.76
X176.551 Z-0.608
X176.672 Z-0.471
X176.806 Z-0.35
X176.951 Z-0.246
X177.105 Z-0.16
